P2
# CREATOR: GIMP PNM Filter Version 1.1
320 213
255
0
0
0
0
0
0
0
0
0
0
0
0
0
0
0
0
0
0
0
0
0
0
0
0
0
0
0
0
0
0
0
0
0
0
0
0
0
0
0
0
0
0
0
0
0
0
0
0
0
1
1
1
2
2
3
3
4
5
6
7
9
11
14
16
20
24
29
34
40
47
54
61
65
68
68
63
56
48
42
41
43
48
55
63
70
76
80
81
79
75
73
74
75
75
74
72
72
72
73
74
74
73
70
67
63
58
54
51
47
43
38
34
29
25
22
20
19
20
21
24
29
36
47
55
57
59
61
66
72
81
89
95
99
99
94
86
76
65
55
46
37
31
25
20
16
13
11
8
7
5
4
3
3
2
1
1
1
0
0
0
0
0
0
0
0
0
0
0
0
0
0
0
0
0
0
0
0
0
0
0
0
0
0
0
0
0
0
0
0
0
0
0
0
0
0
0
0
0
0
0
0
0
0
0
0
0
0
0
0
0
0
0
0
0
0
0
0
0
0
0
0
0
0
0
0
0
0
0
0
0
0
0
0
0
0
0
0
0
0
0
0
0
0
0
0
0
0
0
0
0
0
0
0
0
0
0
0
0
0
0
0
0
0
0
0
0
0
0
0
0
0
0
0
0
0
0
0
0
0
0
0
0
0
0
0
0
0
0
0
0
0
0
0
0
0
0
0
0
0
0
0
0
0
0
0
0
0
0
0
0
0
0
0
0
0
0
0
0
0
0
0
0
0
0
0
0
0
0
0
0
0
0
0
0
0
0
0
0
0
0
0
0
0
0
0
0
0
0
0
0
0
0
0
0
0
0
0
0
0
0
0
0
0
0
0
0
0
0
1
1
1
1
2
2
3
3
4
5
6
8
10
12
14
18
21
26
31
37
43
51
58
63
67
67
62
55
49
44
41
42
45
51
59
66
72
78
81
82
81
78
76
77
78
79
79
77
77
77
77
77
76
75
73
69
65
60
56
53
50
47
43
37
31
26
23
21
20
20
22
25
29
36
45
55
59
61
62
63
67
73
81
88
93
97
95
89
80
70
59
49
40
33
26
21
17
14
11
9
7
6
4
3
3
2
2
1
1
1
0
0
0
0
0
0
0
0
0
0
0
0
0
0
0
0
0
0
0
0
0
0
0
0
0
0
0
0
0
0
0
0
0
0
0
0
0
0
0
0
0
0
0
0
0
0
0
0
0
0
0
0
0
0
0
0
0
0
0
0
0
0
0
0
0
0
0
0
0
0
0
0
0
0
0
0
0
0
0
0
0
0
0
0
0
0
0
0
0
0
0
0
0
0
0
0
0
0
0
0
0
0
0
0
0
0
0
0
0
0
0
0
0
0
0
0
0
0
0
0
0
0
0
0
0
0
0
0
0
0
0
0
0
0
0
0
0
0
0
0
0
0
0
0
0
0
0
0
0
0
0
0
0
0
0
0
0
0
0
0
0
0
0
0
0
0
0
0
0
0
0
0
0
0
0
0
0
0
0
0
0
0
0
0
0
0
0
0
0
0
0
0
0
0
0
0
0
0
0
0
0
0
0
0
0
0
0
0
0
0
1
1
1
1
2
2
3
4
5
6
7
9
11
13
16
20
24
29
35
42
50
56
61
65
63
57
52
47
44
42
42
44
49
56
64
70
76
81
84
85
84
81
80
81
83
84
83
83
82
82
82
81
80
78
76
72
68
64
61
59
55
52
47
42
35
29
25
23
22
22
23
26
31
37
44
51
56
59
61
63
65
67
71
76
81
86
90
90
85
77
66
55
45
37
30
24
19
15
12
10
8
6
5
4
3
2
2
1
1
1
0
0
0
0
0
0
0
0
0
0
0
0
0
0
0
0
0
0
0
0
0
0
0
0
0
0
0
0
0
0
0
0
0
0
0
0
0
0
0
0
0
0
0
0
0
0
0
0
0
0
0
0
0
0
0
0
0
0
0
0
0
0
0
0
0
0
0
0
0
0
0
0
0
0
0
0
0
0
0
0
0
0
0
0
0
0
0
0
0
0
0
0
0
0
0
0
0
0
0
0
0
0
0
0
0
0
0
0
0
0
0
0
0
0
0
0
0
0
0
0
0
0
0
0
0
0
0
0
0
0
0
0
0
0
0
0
0
0
0
0
0
0
0
0
0
0
0
0
0
0
0
0
0
0
0
0
0
0
0
0
0
0
0
0
0
0
0
0
0
0
0
0
0
0
0
0
0
0
0
0
0
0
0
0
0
0
0
0
0
0
0
0
0
0
0
0
0
0
0
0
0
0
0
0
0
0
0
0
0
1
1
1
1
2
2
3
4
5
6
7
9
10
13
16
19
23
28
34
42
49
56
61
63
59
53
49
46
43
42
42
44
47
54
61
68
74
79
84
87
87
87
85
85
86
87
88
88
87
87
87
86
85
84
81
79
75
72
71
69
66
63
58
52
46
40
33
28
25
24
24
26
29
33
38
43
47
50
53
56
59
62
64
65
66
69
72
77
81
83
81
74
64
53
43
35
28
22
18
14
11
9
7
6
4
3
3
2
2
1
1
1
0
0
0
0
0
0
0
0
0
0
0
0
0
0
0
0
0
0
0
0
0
0
0
0
0
0
0
0
0
0
0
0
0
0
0
0
0
0
0
0
0
0
0
0
0
0
0
0
0
0
0
0
0
0
0
0
0
0
0
0
0
0
0
0
0
0
0
0
0
0
0
0
0
0
0
0
0
0
0
0
0
0
0
0
0
0
0
0
0
0
0
0
0
0
0
0
0
0
0
0
0
0
0
0
0
0
0
0
0
0
0
0
0
0
0
0
0
0
0
0
0
0
0
0
0
0
0
0
0
0
0
0
0
0
0
0
0
0
0
0
0
0
0
0
0
0
0
0
0
0
0
0
0
0
0
0
0
0
0
0
0
0
0
0
0
0
0
0
0
0
0
0
0
0
0
0
0
0
0
0
0
0
0
0
0
0
0
0
0
0
0
0
0
0
0
0
0
0
0
0
0
0
0
0
0
0
0
1
1
1
1
2
2
3
4
4
6
7
8
10
13
15
19
23
28
34
41
49
55
61
61
56
51
48
45
43
42
42
44
47
52
58
66
72
78
82
86
89
90
90
89
89
90
91
92
92
92
92
91
91
89
88
85
82
79
77
76
75
73
70
65
59
51
44
37
32
28
27
27
29
32
37
42
45
47
49
50
52
54
56
58
60
61
61
62
64
68
73
76
76
71
62
52
41
33
26
21
17
13
11
8
7
5
4
3
2
2
1
1
1
0
0
0
0
0
0
0
0
0
0
0
0
0
0
0
0
0
0
0
0
0
0
0
0
0
0
0
0
0
0
0
0
0
0
0
0
0
0
0
0
0
0
0
0
0
0
0
0
0
0
0
0
0
0
0
0
0
0
0
0
0
0
0
0
0
0
0
0
0
0
0
0
0
0
0
0
0
0
0
0
0
0
0
0
0
0
0
0
0
0
0
0
0
0
0
0
0
0
0
0
0
0
0
0
0
0
0
0
0
0
0
0
0
0
0
0
0
0
0
0
0
0
0
0
0
0
0
0
0
0
0
0
0
0
0
0
0
0
0
0
0
0
0
0
0
0
0
0
0
0
0
0
0
0
0
0
0
0
0
0
0
0
0
0
0
0
0
0
0
0
0
0
0
0
0
0
0
0
0
0
0
0
0
0
0
0
0
0
0
0
0
0
0
0
0
0
0
0
0
0
0
0
0
0
0
0
0
1
1
1
2
2
3
3
4
5
7
8
10
13
15
19
23
28
34
41
49
55
58
58
54
50
48
46
45
44
44
45
48
52
57
63
70
76
81
85
89
92
93
93
92
92
93
95
95
96
96
96
95
95
93
91
89
86
83
81
81
81
79
76
71
65
57
48
42
37
33
31
31
33
37
44
49
52
53
53
52
51
51
52
52
53
54
54
54
55
57
61
65
69
71
68
60
50
40
32
25
20
16
13
10
8
6
5
4
3
2
2
1
1
1
0
0
0
0
0
0
0
0
0
0
0
0
0
0
0
0
0
0
0
0
0
0
0
0
0
0
0
0
0
0
0
0
0
0
0
0
0
0
0
0
0
0
0
0
0
0
0
0
0
0
0
0
0
0
0
0
0
0
0
0
0
0
0
0
0
0
0
0
0
0
0
0
0
0
0
0
0
0
0
0
0
0
0
0
0
0
0
0
0
0
0
0
0
0
0
0
0
0
0
0
0
0
0
0
0
0
0
0
0
0
0
0
0
0
0
0
0
0
0
0
0
0
0
0
0
0
0
0
0
0
0
0
0
0
0
0
0
0
0
0
0
0
0
0
0
0
0
0
0
0
0
0
0
0
0
0
0
0
0
0
0
0
0
0
0
0
0
0
0
0
0
0
0
0
0
0
0
0
0
0
0
0
0
0
0
0
0
0
0
0
0
0
0
0
0
0
0
0
0
0
0
0
0
0
0
1
1
1
2
2
3
3
4
5
7
8
10
13
16
19
23
28
35
42
49
55
59
56
52
49
47
48
49
48
46
46
49
53
57
63
68
74
79
84
88
91
94
96
96
95
95
96
98
99
99
100
100
99
98
97
95
92
89
87
86
86
85
83
80
75
69
61
53
46
41
37
35
36
38
44
51
57
60
61
61
58
55
53
52
52
51
50
49
49
49
50
52
55
59
63
66
65
57
48
39
31
24
19
15
12
10
8
6
5
4
3
2
2
1
1
1
0
0
0
0
0
0
0
0
0
0
0
0
0
0
0
0
0
0
0
0
0
0
0
0
0
0
0
0
0
0
0
0
0
0
0
0
0
0
0
0
0
0
0
0
0
0
0
0
0
0
0
0
0
0
0
0
0
0
0
0
0
0
0
0
0
0
0
0
0
0
0
0
0
0
0
0
0
0
0
0
0
0
0
0
0
0
0
0
0
0
0
0
0
0
0
0
0
0
0
0
0
0
0
0
0
0
0
0
0
0
0
0
0
0
0
0
0
0
0
0
0
0
0
0
0
0
0
0
0
0
0
0
0
0
0
0
0
0
0
0
0
0
0
0
0
0
0
0
0
0
0
0
0
0
0
0
0
0
0
0
0
0
0
0
0
0
0
0
0
0
0
0
0
0
0
0
0
0
0
0
0
0
0
0
0
0
0
0
0
0
0
0
0
0
0
0
0
0
0
0
0
0
0
1
1
1
2
2
3
3
4
5
7
8
10
13
16
19
24
29
36
43
51
57
61
59
53
49
47
48
50
50
49
48
50
54
58
63
68
74
78
83
87
90
94
97
98
98
98
97
98
100
102
103
103
103
103
101
99
97
95
93
91
91
90
89
86
82
77
70
64
56
50
44
41
39
40
44
52
59
64
67
69
68
66
62
59
57
55
53
51
49
47
46
46
46
48
50
54
58
62
62
55
47
38
30
24
19
15
12
9
7
6
4
3
3
2
1
1
1
0
0
0
0
0
0
0
0
0
0
0
0
0
0
0
0
0
0
0
0
0
0
0
0
0
0
0
0
0
0
0
0
0
0
0
0
0
0
0
0
0
0
0
0
0
0
0
0
0
0
0
0
0
0
0
0
0
0
0
0
0
0
0
0
0
0
0
0
0
0
0
0
0
0
0
0
0
0
0
0
0
0
0
0
0
0
0
0
0
0
0
0
0
0
0
0
0
0
0
0
0
0
0
0
0
0
0
0
0
0
0
0
0
0
0
0
0
0
0
0
0
0
0
0
0
0
0
0
0
0
0
0
0
0
0
0
0
0
0
0
0
0
0
0
0
0
0
0
0
0
0
0
0
0
0
0
0
0
0
0
0
0
0
0
0
0
0
0
0
0
0
0
0
0
0
0
0
0
0
0
0
0
0
0
0
0
0
0
0
0
0
0
0
0
0
0
0
0
0
0
0
0
1
1
1
2
2
3
3
4
5
7
9
11
13
16
20
25
30
37
45
53
59
64
62
56
50
47
47
49
49
50
51
53
56
60
64
68
73
78
82
86
89
93
96
99
101
101
100
100
101
102
104
106
106
106
106
104
102
100
97
96
95
94
93
91
87
82
77
71
65
58
52
46
44
43
46
51
59
65
70
73
75
75
73
70
67
64
62
59
56
53
50
47
45
44
44
45
47
50
54
58
59
54
46
37
30
23
18
14
11
9
7
5
4
3
2
2
1
1
1
0
0
0
0
0
0
0
0
0
0
0
0
0
0
0
0
0
0
0
0
0
0
0
0
0
0
0
0
0
0
0
0
0
0
0
0
0
0
0
0
0
0
0
0
0
0
0
0
0
0
0
0
0
0
0
0
0
0
0
0
0
0
0
0
0
0
0
0
0
0
0
0
0
0
0
0
0
0
0
0
0
0
0
0
0
0
0
0
0
0
0
0
0
0
0
0
0
0
0
0
0
0
0
0
0
0
0
0
0
0
0
0
0
0
0
0
0
0
0
0
0
0
0
0
0
0
0
0
0
0
0
0
0
0
0
0
0
0
0
0
0
0
0
0
0
0
0
0
0
0
0
0
0
0
0
0
0
0
0
0
0
0
0
0
0
0
0
0
0
0
0
0
0
0
0
0
0
0
0
0
0
0
0
0
0
0
0
0
0
0
0
0
0
0
0
0
0
0
0
0
1
1
1
2
2
3
3
4
5
7
9
11
13
17
21
25
31
38
46
54
62
66
64
58
52
49
48
49
50
53
55
58
61
65
69
72
74
78
82
85
89
92
96
99
102
103
104
103
103
103
104
106
108
109
109
108
107
104
102
100
99
99
98
96
92
88
83
77
72
66
60
53
48
47
48
53
59
66
71
75
78
80
80
79
77
74
72
69
66
63
60
56
52
49
46
43
42
42
44
47
51
56
58
54
46
37
29
23
18
14
11
8
7
5
4
3
2
2
1
1
1
0
0
0
0
0
0
0
0
0
0
0
0
0
0
0
0
0
0
0
0
0
0
0
0
0
0
0
0
0
0
0
0
0
0
0
0
0
0
0
0
0
0
0
0
0
0
0
0
0
0
0
0
0
0
0
0
0
0
0
0
0
0
0
0
0
0
0
0
0
0
0
0
0
0
0
0
0
0
0
0
0
0
0
0
0
0
0
0
0
0
0
0
0
0
0
0
0
0
0
0
0
0
0
0
0
0
0
0
0
0
0
0
0
0
0
0
0
0
0
0
0
0
0
0
0
0
0
0
0
0
0
0
0
0
0
0
0
0
0
0
0
0
0
0
0
0
0
0
0
0
0
0
0
0
0
0
0
0
0
0
0
0
0
0
0
0
0
0
0
0
0
0
0
0
0
0
0
0
0
0
0
0
0
0
0
0
0
0
0
0
0
0
0
0
0
0
0
0
1
1
1
1
2
3
3
4
5
7
9
11
14
17
21
26
32
39
48
57
64
69
67
60
55
50
49
49
52
55
59
63
67
70
73
76
78
80
81
85
88
92
95
98
101
104
106
106
106
106
106
106
108
110
111
111
110
109
107
105
104
103
102
100
97
93
88
83
78
73
67
61
55
51
52
55
61
67
72
76
79
82
84
84
84
82
80
77
75
72
69
66
62
58
54
50
46
43
41
41
42
45
50
55
57
54
45
36
28
22
17
13
10
8
6
5
4
3
2
2
1
1
1
0
0
0
0
0
0
0
0
0
0
0
0
0
0
0
0
0
0
0
0
0
0
0
0
0
0
0
0
0
0
0
0
0
0
0
0
0
0
0
0
0
0
0
0
0
0
0
0
0
0
0
0
0
0
0
0
0
0
0
0
0
0
0
0
0
0
0
0
0
0
0
0
0
0
0
0
0
0
0
0
0
0
0
0
0
0
0
0
0
0
0
0
0
0
0
0
0
0
0
0
0
0
0
0
0
0
0
0
0
0
0
0
0
0
0
0
0
0
0
0
0
0
0
0
0
0
0
0
0
0
0
0
0
0
0
0
0
0
0
0
0
0
0
0
0
0
0
0
0
0
0
0
0
0
0
0
0
0
0
0
0
0
0
0
0
0
0
0
0
0
0
0
0
0
0
0
0
0
0
0
0
0
0
0
0
0
0
0
0
0
0
0
0
0
0
0
1
1
1
1
2
2
3
4
5
7
9
11
14
17
21
27
33
41
50
59
66
71
70
63
57
52
50
50
52
56
61
66
70
74
77
80
82
84
85
85
88
91
94
97
100
103
106
108
109
109
108
108
109
110
111
112
112
112
111
109
108
106
105
103
101
97
93
88
83
79
74
68
62
57
55
58
64
69
73
77
81
84
86
87
88
88
87
85
82
80
76
73
70
67
63
59
55
50
46
42
40
39
41
44
49
54
57
53
44
35
27
21
16
13
10
7
6
4
3
3
2
1
1
1
0
0
0
0
0
0
0
0
0
0
0
0
0
0
0
0
0
0
0
0
0
0
0
0
0
0
0
0
0
0
0
0
0
0
0
0
0
0
0
0
0
0
0
0
0
0
0
0
0
0
0
0
0
0
0
0
0
0
0
0
0
0
0
0
0
0
0
0
0
0
0
0
0
0
0
0
0
0
0
0
0
0
0
0
0
0
0
0
0
0
0
0
0
0
0
0
0
0
0
0
0
0
0
0
0
0
0
0
0
0
0
0
0
0
0
0
0
0
0
0
0
0
0
0
0
0
0
0
0
0
0
0
0
0
0
0
0
0
0
0
0
0
0
0
0
0
0
0
0
0
0
0
0
0
0
0
0
0
0
0
0
0
0
0
0
0
0
0
0
0
0
0
0
0
0
0
0
0
0
0
0
0
0
0
0
0
0
0
0
0
0
0
0
0
0
0
1
1
1
2
2
3
4
5
7
8
11
14
17
22
27
34
42
51
61
69
74
72
66
60
55
52
51
52
56
61
66
71
76
80
83
85
87
89
89
90
91
94
97
100
103
106
108
110
111
111
111
111
111
112
113
114
114
113
112
111
109
108
106
103
101
97
93
88
84
80
75
70
64
59
60
65
70
74
78
82
85
87
89
91
91
91
90
89
86
83
80
77
74
71
68
64
60
55
50
45
41
39
39
41
43
48
53
56
51
43
33
26
20
15
12
9
7
5
4
3
2
2
1
1
1
0
0
0
0
0
0
0
0
0
0
0
0
0
0
0
0
0
0
0
0
0
0
0
0
0
0
0
0
0
0
0
0
0
0
0
0
0
0
0
0
0
0
0
0
0
0
0
0
0
0
0
0
0
0
0
0
0
0
0
0
0
0
0
0
0
0
0
0
0
0
0
0
0
0
0
0
0
0
0
0
0
0
0
0
0
0
0
0
0
0
0
0
0
0
0
0
0
0
0
0
0
0
0
0
0
0
0
0
0
0
0
0
0
0
0
0
0
0
0
0
0
0
0
0
0
0
0
0
0
0
0
0
0
0
0
0
0
0
0
0
0
0
0
0
0
0
0
0
0
0
0
0
0
0
0
0
0
0
0
0
0
0
0
0
0
0
0
0
0
0
0
0
0
0
0
0
0
0
0
0
0
0
0
0
0
0
0
0
0
0
0
0
0
0
1
1
1
2
2
3
4
5
6
8
10
13
17
22
27
34
42
53
63
72
78
76
69
64
58
54
53
53
56
60
65
70
76
81
85
88
90
92
93
93
94
94
96
99
102
105
107
110
111
112
113
113
113
114
114
115
115
115
114
113
112
110
108
105
103
100
96
92
88
84
80
76
70
65
61
64
69
74
78
82
85
88
91
92
94
95
95
94
92
90
87
84
81
78
75
72
68
64
60
55
50
44
40
38
38
39
42
47
52
53
49
40
31
24
19
14
11
8
6
5
4
3
2
2
1
1
0
0
0
0
0
0
0
0
0
0
0
0
0
0
0
0
0
0
0
0
0
0
0
0
0
0
0
0
0
0
0
0
0
0
0
0
0
0
0
0
0
0
0
0
0
0
0
0
0
0
0
0
0
0
0
0
0
0
0
0
0
0
0
0
0
0
0
0
0
0
0
0
0
0
0
0
0
0
0
0
0
0
0
0
0
0
0
0
0
0
0
0
0
0
0
0
0
0
0
0
0
0
0
0
0
0
0
0
0
0
0
0
0
0
0
0
0
0
0
0
0
0
0
0
0
0
0
0
0
0
0
0
0
0
0
0
0
0
0
0
0
0
0
0
0
0
0
0
0
0
0
0
0
0
0
0
0
0
0
0
0
0
0
0
0
0
0
0
0
0
0
0
0
0
0
0
0
0
0
0
0
0
0
0
0
0
0
0
0
0
0
0
0
1
1
1
2
2
3
4
5
6
8
10
13
17
21
27
34
43
53
64
74
81
80
73
67
61
56
55
55
57
60
64
69
75
80
85
89
92
94
96
97
97
97
97
98
100
103
106
109
111
113
114
115
115
115
115
116
116
116
115
115
113
111
109
107
104
101
98
94
90
87
83
80
75
70
64
61
65
71
76
81
85
89
92
94
96
97
98
98
97
96
93
90
87
84
81
78
75
72
68
64
60
54
48
43
39
37
37
38
41
45
49
52
47
38
29
23
17
13
10
8
6
4
3
2
2
1
1
1
0
0
0
0
0
0
0
0
0
0
0
0
0
0
0
0
0
0
0
0
0
0
0
0
0
0
0
0
0
0
0
0
0
0
0
0
0
0
0
0
0
0
0
0
0
0
0
0
0
0
0
0
0
0
0
0
0
0
0
0
0
0
0
0
0
0
0
0
0
0
0
0
0
0
0
0
0
0
0
0
0
0
0
0
0
0
0
0
0
0
0
0
0
0
0
0
0
0
0
0
0
0
0
0
0
0
0
0
0
0
0
0
0
0
0
0
0
0
0
0
0
0
0
0
0
0
0
0
0
0
0
0
0
0
0
0
0
0
0
0
0
0
0
0
0
0
0
0
0
0
0
0
0
0
0
0
0
0
0
0
0
0
0
0
0
0
0
0
0
0
0
0
0
0
0
0
0
0
0
0
0
0
0
0
0
0
0
0
0
0
0
1
1
1
1
2
3
3
4
6
8
10
13
16
21
26
33
42
53
65
75
84
84
77
71
66
60
56
57
61
65
69
72
76
80
84
89
93
96
98
100
101
101
101
100
101
102
105
107
110
112
114
115
116
116
117
117
117
117
117
116
115
113
111
108
105
102
99
95
92
88
85
82
79
74
69
63
60
63
70
76
81
86
90
94
97
99
100
101
101
101
99
96
93
89
86
83
80
77
75
72
68
64
59
53
47
42
38
36
36
37
40
45
50
51
45
35
27
21
16
12
9
7
5
4
3
2
2
1
1
1
0
0
0
0
0
0
0
0
0
0
0
0
0
0
0
0
0
0
0
0
0
0
0
0
0
0
0
0
0
0
0
0
0
0
0
0
0
0
0
0
0
0
0
0
0
0
0
0
0
0
0
0
0
0
0
0
0
0
0
0
0
0
0
0
0
0
0
0
0
0
0
0
0
0
0
0
0
0
0
0
0
0
0
0
0
0
0
0
0
0
0
0
0
0
0
0
0
0
0
0
0
0
0
0
0
0
0
0
0
0
0
0
0
0
0
0
0
0
0
0
0
0
0
0
0
0
0
0
0
0
0
0
0
0
0
0
0
0
0
0
0
0
0
0
0
0
0
0
0
0
0
0
0
0
0
0
0
0
0
0
0
0
0
0
0
0
0
0
0
0
0
0
0
0
0
0
0
0
0
0
0
0
0
0
0
0
0
0
0
0
1
1
1
2
2
3
4
6
7
9
12
15
20
25
32
41
53
65
76
85
88
82
75
70
64
59
58
63
68
73
76
80
83
86
90
93
97
100
102
103
104
104
104
104
104
105
107
109
111
113
115
116
117
118
118
118
118
118
117
116
115
112
110
107
103
100
96
93
90
87
84
81
78
73
67
62
60
63
68
76
81
86
91
95
98
101
102
103
104
103
102
99
96
92
89
86
83
80
77
75
72
68
64
58
52
46
41
38
36
35
37
40
45
50
50
42
33
25
19
15
11
8
6
5
4
3
2
1
1
1
0
0
0
0
0
0
0
0
0
0
0
0
0
0
0
0
0
0
0
0
0
0
0
0
0
0
0
0
0
0
0
0
0
0
0
0
0
0
0
0
0
0
0
0
0
0
0
0
0
0
0
0
0
0
0
0
0
0
0
0
0
0
0
0
0
0
0
0
0
0
0
0
0
0
0
0
0
0
0
0
0
0
0
0
0
0
0
0
0
0
0
0
0
0
0
0
0
0
0
0
0
0
0
0
0
0
0
0
0
0
0
0
0
0
0
0
0
0
0
0
0
0
0
0
0
0
0
0
0
0
0
0
0
0
0
0
0
0
0
0
0
0
0
0
0
0
0
0
0
0
0
0
0
0
0
0
0
0
0
0
0
0
0
0
0
0
0
0
0
0
0
0
0
0
0
0
0
0
0
0
0
0
0
0
0
0
0
0
0
1
1
1
2
2
3
4
5
7
9
11
15
19
24
31
40
51
64
76
86
90
85
79
73
68
63
60
61
68
74
78
82
86
89
91
94
97
100
103
105
106
107
107
107
107
107
108
109
111
113
115
116
117
118
119
119
118
119
118
117
116
114
112
109
105
102
99
95
92
88
86
83
80
76
71
65
62
62
65
70
76
82
87
91
95
98
102
104
105
106
105
104
102
98
95
91
88
85
82
80
77
75
71
68
63
58
53
47
41
37
35
35
37
40
46
50
48
39
30
23
17
13
10
7
6
4
3
2
2
1
1
1
0
0
0
0
0
0
0
0
0
0
0
0
0
0
0
0
0
0
0
0
0
0
0
0
0
0
0
0
0
0
0
0
0
0
0
0
0
0
0
0
0
0
0
0
0
0
0
0
0
0
0
0
0
0
0
0
0
0
0
0
0
0
0
0
0
0
0
0
0
0
0
0
0
0
0
0
0
0
0
0
0
0
0
0
0
0
0
0
0
0
0
0
0
0
0
0
0
0
0
0
0
0
0
0
0
0
0
0
0
0
0
0
0
0
0
0
0
0
0
0
0
0
0
0
0
0
0
0
0
0
0
0
0
0
0
0
0
0
0
0
0
0
0
0
0
0
0
0
0
0
0
0
0
0
0
0
0
0
0
0
0
0
0
0
0
0
0
0
0
0
0
0
0
0
0
0
0
0
0
0
0
0
0
0
0
0
0
1
1
1
2
2
3
4
5
6
8
11
14
18
23
30
38
49
62
74
86
91
88
81
76
71
67
63
61
64
71
77
82
86
90
93
95
98
100
103
105
107
108
109
110
110
110
110
111
112
113
115
116
118
118
119
120
120
119
119
119
118
116
114
111
108
105
101
98
94
91
88
85
82
79
75
70
66
65
67
72
76
80
84
88
92
96
99
102
105
106
107
107
106
104
101
97
94
90
87
85
82
80
77
75
71
68
64
59
54
47
41
36
34
35
37
41
47
50
46
36
27
21
16
12
9
7
5
4
3
2
1
1
1
0
0
0
0
0
0
0
0
0
0
0
0
0
0
0
0
0
0
0
0
0
0
0
0
0
0
0
0
0
0
0
0
0
0
0
0
0
0
0
0
0
0
0
0
0
0
0
0
0
0
0
0
0
0
0
0
0
0
0
0
0
0
0
0
0
0
0
0
0
0
0
0
0
0
0
0
0
0
0
0
0
0
0
0
0
0
0
0
0
0
0
0
0
0
0
0
0
0
0
0
0
0
0
0
0
0
0
0
0
0
0
0
0
0
0
0
0
0
0
0
0
0
0
0
0
0
0
0
0
0
0
0
0
0
0
0
0
0
0
0
0
0
0
0
0
0
0
0
0
0
0
0
0
0
0
0
0
0
0
0
0
0
0
0
0
0
0
0
0
0
0
0
0
0
0
0
0
0
0
0
0
0
0
0
0
0
1
1
1
1
2
3
3
5
6
8
10
13
17
22
28
36
46
59
72
84
91
89
82
77
73
69
66
65
62
66
73
79
84
88
92
95
97
100
102
104
106
107
109
110
111
111
112
113
113
114
116
117
118
119
120
120
120
120
120
120
119
118
117
115
111
108
105
102
98
95
92
88
86
82
78
74
71
68
69
74
78
82
85
88
91
94
97
100
103
106
107
108
108
108
106
103
100
97
93
90
87
85
82
80
77
75
72
69
65
61
54
46
39
35
34
34
37
42
48
50
43
33
25
18
14
10
8
6
4
3
2
2
1
1
0
0
0
0
0
0
0
0
0
0
0
0
0
0
0
0
0
0
0
0
0
0
0
0
0
0
0
0
0
0
0
0
0
0
0
0
0
0
0
0
0
0
0
0
0
0
0
0
0
0
0
0
0
0
0
0
0
0
0
0
0
0
0
0
0
0
0
0
0
0
0
0
0
0
0
0
0
0
0
0
0
0
0
0
0
0
0
0
0
0
0
0
0
0
0
0
0
0
0
0
0
0
0
0
0
0
0
0
0
0
0
0
0
0
0
0
0
0
0
0
0
0
0
0
0
0
0
0
0
0
0
0
0
0
0
0
0
0
0
0
0
0
0
0
0
0
0
0
0
0
0
0
0
0
0
0
0
0
0
0
0
0
0
0
0
0
0
0
0
0
0
0
0
0
0
0
0
0
0
0
0
0
0
0
0
1
1
1
1
2
2
3
4
6
7
9
12
16
20
26
34
44
56
69
81
90
90
84
78
74
70
67
66
66
64
67
74
80
85
89
92
95
98
100
102
103
105
107
108
110
111
112
113
114
115
116
117
118
119
120
120
121
121
121
121
120
120
119
118
115
112
109
106
103
100
97
94
91
88
85
81
77
75
73
75
79
83
86
89
92
94
97
99
102
104
107
109
110
110
109
108
106
103
99
96
93
90
87
85
82
80
78
76
74
71
66
59
51
42
37
34
33
34
38
44
50
48
39
29
22
16
12
9
7
5
4
3
2
1
1
1
0
0
0
0
0
0
0
0
0
0
0
0
0
0
0
0
0
0
0
0
0
0
0
0
0
0
0
0
0
0
0
0
0
0
0
0
0
0
0
0
0
0
0
0
0
0
0
0
0
0
0
0
0
0
0
0
0
0
0
0
0
0
0
0
0
0
0
0
0
0
0
0
0
0
0
0
0
0
0
0
0
0
0
0
0
0
0
0
0
0
0
0
0
0
0
0
0
0
0
0
0
0
0
0
0
0
0
0
0
0
0
0
0
0
0
0
0
0
0
0
0
0
0
0
0
0
0
0
0
0
0
0
0
0
0
0
0
0
0
0
0
0
0
0
0
0
0
0
0
0
0
0
0
0
0
0
0
0
0
0
0
0
0
0
0
0
0
0
0
0
0
0
0
0
0
0
0
0
0
0
0
0
0
0
1
1
1
2
2
3
4
5
7
9
11
15
19
25
32
41
53
66
78
88
90
85
80
75
71
68
66
67
67
66
69
75
80
85
89
92
95
97
99
100
102
103
105
106
108
110
112
113
114
115
117
118
119
120
121
121
121
122
122
122
121
121
120
119
117
114
111
108
105
102
99
96
93
91
88
86
83
80
79
79
83
86
89
92
94
97
99
101
103
105
108
110
111
111
111
110
108
105
102
99
96
92
89
87
84
83
82
81
79
75
70
64
56
46
39
35
33
33
35
40
45
49
44
34
25
19
14
10
8
6
4
3
2
2
1
1
0
0
0
0
0
0
0
0
0
0
0
0
0
0
0
0
0
0
0
0
0
0
0
0
0
0
0
0
0
0
0
0
0
0
0
0
0
0
0
0
0
0
0
0
0
0
0
0
0
0
0
0
0
0
0
0
0
0
0
0
0
0
0
0
0
0
0
0
0
0
0
0
0
0
0
0
0
0
0
0
0
0
0
0
0
0
0
0
0
0
0
0
0
0
0
0
0
0
0
0
0
0
0
0
0
0
0
0
0
0
0
0
0
0
0
0
0
0
0
0
0
0
0
0
0
0
0
0
0
0
0
0
0
0
0
0
0
0
0
0
0
0
0
0
0
0
0
0
0
0
0
0
0
0
0
0
0
0
0
0
0
0
0
0
0
0
0
0
0
0
0
0
0
0
0
0
0
0
0
0
0
0
0
1
1
1
2
2
3
4
5
6
8
11
14
18
23
30
38
50
62
75
86
90
85
80
76
72
68
65
65
66
66
66
71
77
82
86
89
91
93
95
96
98
99
101
102
104
106
108
110
112
114
115
117
118
119
120
121
122
122
122
122
122
122
122
121
120
118
116
113
110
107
104
101
99
96
94
92
90
87
84
82
82
84
87
89
92
95
98
100
102
104
106
109
110
112
112
112
111
109
107
104
101
98
95
91
89
88
87
86
85
83
79
74
68
60
51
42
36
33
32
33
36
41
45
45
39
29
22
16
12
9
6
5
3
2
2
1
1
1
0
0
0
0
0
0
0
0
0
0
0
0
0
0
0
0
0
0
0
0
0
0
0
0
0
0
0
0
0
0
0
0
0
0
0
0
0
0
0
0
0
0
0
0
0
0
0
0
0
0
0
0
0
0
0
0
0
0
0
0
0
0
0
0
0
0
0
0
0
0
0
0
0
0
0
0
0
0
0
0
0
0
0
0
0
0
0
0
0
0
0
0
0
0
0
0
0
0
0
0
0
0
0
0
0
0
0
0
0
0
0
0
0
0
0
0
0
0
0
0
0
0
0
0
0
0
0
0
0
0
0
0
0
0
0
0
0
0
0
0
0
0
0
0
0
0
0
0
0
0
0
0
0
0
0
0
0
0
0
0
0
0
0
0
0
0
0
0
0
0
0
0
0
0
0
0
0
0
0
0
0
1
1
1
1
2
3
3
4
6
8
10
13
17
22
28
36
46
59
72
83
89
86
80
76
72
69
65
62
63
63
64
67
74
80
84
87
89
90
91
92
94
95
96
97
99
101
103
106
108
111
113
115
116
118
119
120
121
122
123
123
123
123
123
122
122
120
119
117
115
112
109
107
104
102
100
98
95
93
90
86
83
82
84
86
89
91
94
97
99
102
105
107
109
111
112
113
113
112
111
109
106
103
100
96
94
93
91
91
90
88
86
82
77
71
64
55
45
38
34
31
31
33
36
40
42
41
33
24
18
13
10
7
5
4
3
2
1
1
1
0
0
0
0
0
0
0
0
0
0
0
0
0
0
0
0
0
0
0
0
0
0
0
0
0
0
0
0
0
0
0
0
0
0
0
0
0
0
0
0
0
0
0
0
0
0
0
0
0
0
0
0
0
0
0
0
0
0
0
0
0
0
0
0
0
0
0
0
0
0
0
0
0
0
0
0
0
0
0
0
0
0
0
0
0
0
0
0
0
0
0
0
0
0
0
0
0
0
0
0
0
0
0
0
0
0
0
0
0
0
0
0
0
0
0
0
0
0
0
0
0
0
0
0
0
0
0
0
0
0
0
0
0
0
0
0
0
0
0
0
0
0
0
0
0
0
0
0
0
0
0
0
0
0
0
0
0
0
0
0
0
0
0
0
0
0
0
0
0
0
0
0
0
0
0
0
0
0
0
0
1
1
1
1
2
2
3
4
5
7
9
12
16
20
26
34
44
56
69
81
89
87
81
77
73
69
66
62
61
61
62
64
68
76
82
86
89
90
90
90
90
91
92
93
95
97
99
101
104
106
109
111
113
116
118
119
120
121
122
123
123
124
124
123
123
122
121
120
119
117
114
112
109
107
105
103
100
97
94
91
87
83
81
83
85
87
90
93
96
98
101
104
106
109
111
113
113
113
113
112
110
108
105
102
99
97
96
95
94
92
90
87
84
79
73
67
58
48
40
35
31
30
31
33
37
40
42
37
28
20
15
11
8
6
4
3
2
2
1
1
0
0
0
0
0
0
0
0
0
0
0
0
0
0
0
0
0
0
0
0
0
0
0
0
0
0
0
0
0
0
0
0
0
0
0
0
0
0
0
0
0
0
0
0
0
0
0
0
0
0
0
0
0
0
0
0
0
0
0
0
0
0
0
0
0
0
0
0
0
0
0
0
0
0
0
0
0
0
0
0
0
0
0
0
0
0
0
0
0
0
0
0
0
0
0
0
0
0
0
0
0
0
0
0
0
0
0
0
0
0
0
0
0
0
0
0
0
0
0
0
0
0
0
0
0
0
0
0
0
0
0
0
0
0
0
0
0
0
0
0
0
0
0
0
0
0
0
0
0
0
0
0
0
0
0
0
0
0
0
0
0
0
0
0
0
0
0
0
0
0
0
0
0
0
0
0
0
0
0
1
1
1
1
2
2
3
4
5
7
9
11
15
19
25
32
41
53
65
78
87
88
82
77
73
70
67
63
60
60
61
63
66
71
78
84
88
90
91
90
90
89
89
90
92
95
96
98
100
102
104
107
109
112
114
117
119
120
121
122
123
124
124
124
124
123
123
122
121
120
118
116
114
112
110
107
105
102
98
94
91
88
84
84
85
86
87
89
91
94
97
100
103
106
109
111
113
114
114
114
113
112
110
107
104
102
100
99
97
95
93
91
88
85
81
75
69
61
51
42
37
32
30
30
31
34
39
43
40
31
23
17
13
9
7
5
4
3
2
1
1
1
0
0
0
0
0
0
0
0
0
0
0
0
0
0
0
0
0
0
0
0
0
0
0
0
0
0
0
0
0
0
0
0
0
0
0
0
0
0
0
0
0
0
0
0
0
0
0
0
0
0
0
0
0
0
0
0
0
0
0
0
0
0
0
0
0
0
0
0
0
0
0
0
0
0
0
0
0
0
0
0
0
0
0
0
0
0
0
0
0
0
0
0
0
0
0
0
0
0
0
0
0
0
0
0
0
0
0
0
0
0
0
0
0
0
0
0
0
0
0
0
0
0
0
0
0
0
0
0
0
0
0
0
0
0
0
0
0
0
0
0
0
0
0
0
0
0
0
0
0
0
0
0
0
0
0
0
0
0
0
0
0
0
0
0
0
0
0
0
0
0
0
0
0
0
0
0
0
0
1
1
1
2
2
3
4
5
6
8
11
14
18
23
30
39
50
63
75
85
88
83
78
74
71
67
64
60
60
61
62
65
70
76
82
87
90
92
92
91
90
88
89
90
93
94
96
97
99
101
103
105
108
111
113
116
118
120
121
122
123
124
124
124
124
123
123
122
121
120
119
118
116
114
111
109
105
101
97
94
91
87
87
88
89
89
91
92
93
95
98
100
103
105
108
111
113
114
115
115
114
113
111
109
107
105
103
101
98
96
94
91
88
85
81
77
70
63
54
45
39
34
31
30
31
33
37
43
44
35
26
19
14
11
8
6
4
3
2
2
1
1
0
0
0
0
0
0
0
0
0
0
0
0
0
0
0
0
0
0
0
0
0
0
0
0
0
0
0
0
0
0
0
0
0
0
0
0
0
0
0
0
0
0
0
0
0
0
0
0
0
0
0
0
0
0
0
0
0
0
0
0
0
0
0
0
0
0
0
0
0
0
0
0
0
0
0
0
0
0
0
0
0
0
0
0
0
0
0
0
0
0
0
0
0
0
0
0
0
0
0
0
0
0
0
0
0
0
0
0
0
0
0
0
0
0
0
0
0
0
0
0
0
0
0
0
0
0
0
0
0
0
0
0
0
0
0
0
0
0
0
0
0
0
0
0
0
0
0
0
0
0
0
0
0
0
0
0
0
0
0
0
0
0
0
0
0
0
0
0
0
0
0
0
0
0
0
0
0
1
1
1
1
2
3
3
4
6
8
10
13
17
22
28
36
47
59
71
83
88
84
79
75
71
68
65
62
59
60
62
65
69
75
80
85
90
92
93
93
92
90
90
91
92
93
94
95
96
97
99
101
104
107
109
112
115
117
119
121
122
123
124
124
124
124
123
123
122
121
121
120
118
117
115
112
109
105
101
97
93
88
87
89
90
92
93
94
95
96
98
100
101
104
106
109
112
114
115
115
115
115
114
112
111
109
107
105
102
99
96
94
91
89
85
82
77
72
65
56
47
40
35
32
31
31
33
36
42
47
40
29
22
16
12
9
7
5
3
3
2
1
1
0
0
0
0
0
0
0
0
0
0
0
0
0
0
0
0
0
0
0
0
0
0
0
0
0
0
0
0
0
0
0
0
0
0
0
0
0
0
0
0
0
0
0
0
0
0
0
0
0
0
0
0
0
0
0
0
0
0
0
0
0
0
0
0
0
0
0
0
0
0
0
0
0
0
0
0
0
0
0
0
0
0
0
0
0
0
0
0
0
0
0
0
0
0
0
0
0
0
0
0
0
0
0
0
0
0
0
0
0
0
0
0
0
0
0
0
0
0
0
0
0
0
0
0
0
0
0
0
0
0
0
0
0
0
0
0
0
0
0
0
0
0
0
0
0
0
0
0
0
0
0
0
0
0
0
0
0
0
0
0
0
0
0
0
0
0
0
0
0
0
0
0
0
0
0
0
1
1
1
1
2
2
3
4
5
7
9
12
16
20
26
34
44
56
68
80
87
85
79
76
72
69
66
62
59
58
60
63
68
74
80
84
89
92
94
95
94
94
94
94
94
94
94
94
94
95
96
98
100
102
105
108
111
113
116
118
120
122
123
123
124
124
123
123
122
122
121
120
120
118
117
115
112
109
105
100
96
91
86
87
90
93
95
96
97
98
99
100
102
104
105
108
110
113
115
116
116
116
116
115
114
112
111
109
106
103
100
97
94
91
88
85
82
77
72
65
57
49
41
36
33
32
33
35
37
42
48
44
33
24
18
13
10
7
5
4
3
2
1
1
1
0
0
0
0
0
0
0
0
0
0
0
0
0
0
0
0
0
0
0
0
0
0
0
0
0
0
0
0
0
0
0
0
0
0
0
0
0
0
0
0
0
0
0
0
0
0
0
0
0
0
0
0
0
0
0
0
0
0
0
0
0
0
0
0
0
0
0
0
0
0
0
0
0
0
0
0
0
0
0
0
0
0
0
0
0
0
0
0
0
0
0
0
0
0
0
0
0
0
0
0
0
0
0
0
0
0
0
0
0
0
0
0
0
0
0
0
0
0
0
0
0
0
0
0
0
0
0
0
0
0
0
0
0
0
0
0
0
0
0
0
0
0
0
0
0
0
0
0
0
0
0
0
0
0
0
0
0
0
0
0
0
0
0
0
0
0
0
0
0
0
0
0
0
0
0
1
1
1
2
2
3
4
5
7
9
11
14
19
24
32
41
53
66
77
86
85
80
76
73
70
66
63
59
56
57
59
64
71
77
83
87
91
94
96
97
97
97
97
97
97
96
96
95
95
95
95
97
98
101
103
106
109
111
115
117
120
121
122
123
123
123
122
122
121
121
120
120
119
118
117
115
112
108
104
100
95
89
85
87
92
95
98
99
100
101
102
103
105
106
108
110
112
114
116
117
117
117
117
116
115
114
112
110
107
104
100
97
94
91
88
85
81
77
72
66
58
50
44
40
36
34
34
36
38
41
48
48
37
27
20
15
11
8
6
4
3
2
2
1
1
0
0
0
0
0
0
0
0
0
0
0
0
0
0
0
0
0
0
0
0
0
0
0
0
0
0
0
0
0
0
0
0
0
0
0
0
0
0
0
0
0
0
0
0
0
0
0
0
0
0
0
0
0
0
0
0
0
0
0
0
0
0
0
0
0
0
0
0
0
0
0
0
0
0
0
0
0
0
0
0
0
0
0
0
0
0
0
0
0
0
0
0
0
0
0
0
0
0
0
0
0
0
0
0
0
0
0
0
0
0
0
0
0
0
0
0
0
0
0
0
0
0
0
0
0
0
0
0
0
0
0
0
0
0
0
0
0
0
0
0
0
0
0
0
0
0
0
0
0
0
0
0
0
0
0
0
0
0
0
0
0
0
0
0
0
0
0
0
0
0
0
0
0
0
1
1
1
1
2
3
3
5
6
8
10
13
17
23
30
38
50
63
75
85
86
81
77
74
71
68
64
61
56
54
55
58
65
72
78
84
89
92
95
97
98
99
100
100
100
100
99
98
97
96
95
96
96
97
99
101
104
107
110
113
116
119
121
122
122
122
122
121
120
119
119
118
118
118
117
116
115
112
108
104
99
93
87
85
87
93
97
100
102
103
104
105
106
108
109
111
112
114
116
117
117
118
118
117
117
116
115
113
111
108
105
101
98
94
92
89
86
83
79
75
68
61
55
50
46
41
37
36
38
39
41
47
50
41
30
23
17
12
9
7
5
4
3
2
1
1
0
0
0
0
0
0
0
0
0
0
0
0
0
0
0
0
0
0
0
0
0
0
0
0
0
0
0
0
0
0
0
0
0
0
0
0
0
0
0
0
0
0
0
0
0
0
0
0
0
0
0
0
0
0
0
0
0
0
0
0
0
0
0
0
0
0
0
0
0
0
0
0
0
0
0
0
0
0
0
0
0
0
0
0
0
0
0
0
0
0
0
0
0
0
0
0
0
0
0
0
0
0
0
0
0
0
0
0
0
0
0
0
0
0
0
0
0
0
0
0
0
0
0
0
0
0
0
0
0
0
0
0
0
0
0
0
0
0
0
0
0
0
0
0
0
0
0
0
0
0
0
0
0
0
0
0
0
0
0
0
0
0
0
0
0
0
0
0
0
0
0
0
0
0
1
1
1
2
2
3
4
5
7
9
12
16
21
27
36
46
59
72
83
87
82
78
74
71
69
66
62
57
53
53
53
57
64
72
78
84
88
92
95
97
99
100
101
102
102
102
101
100
99
98
96
95
95
96
97
100
103
106
109
112
116
118
120
121
121
121
120
119
117
116
116
116
116
116
116
116
115
112
110
106
100
93
88
87
91
96
100
103
105
106
107
108
109
111
112
114
115
116
117
117
118
118
119
118
118
117
116
114
112
109
106
102
98
96
94
92
90
87
83
78
73
67
62
57
53
48
42
38
38
40
41
46
52
45
34
25
19
14
10
8
6
4
3
2
1
1
1
0
0
0
0
0
0
0
0
0
0
0
0
0
0
0
0
0
0
0
0
0
0
0
0
0
0
0
0
0
0
0
0
0
0
0
0
0
0
0
0
0
0
0
0
0
0
0
0
0
0
0
0
0
0
0
0
0
0
0
0
0
0
0
0
0
0
0
0
0
0
0
0
0
0
0
0
0
0
0
0
0
0
0
0
0
0
0
0
0
0
0
0
0
0
0
0
0
0
0
0
0
0
0
0
0
0
0
0
0
0
0
0
0
0
0
0
0
0
0
0
0
0
0
0
0
0
0
0
0
0
0
0
0
0
0
0
0
0
0
0
0
0
0
0
0
0
0
0
0
0
0
0
0
0
0
0
0
0
0
0
0
0
0
0
0
0
0
0
0
0
0
0
1
1
1
2
2
3
4
5
6
9
11
15
19
25
33
43
55
68
80
87
85
79
75
72
70
67
63
59
53
51
51
52
55
62
70
76
82
87
90
93
95
98
99
101
102
103
103
102
102
100
99
97
96
95
96
98
100
103
106
109
112
115
118
120
120
120
119
118
115
113
112
112
113
113
114
115
115
115
113
111
108
104
98
94
92
96
100
103
106
108
109
110
111
112
113
114
115
116
117
117
118
119
119
119
119
118
118
117
115
113
111
107
104
101
99
97
95
92
89
86
82
77
72
68
63
59
53
46
40
39
40
41
46
52
49
38
28
21
15
11
8
6
4
3
2
2
1
1
0
0
0
0
0
0
0
0
0
0
0
0
0
0
0
0
0
0
0
0
0
0
0
0
0
0
0
0
0
0
0
0
0
0
0
0
0
0
0
0
0
0
0
0
0
0
0
0
0
0
0
0
0
0
0
0
0
0
0
0
0
0
0
0
0
0
0
0
0
0
0
0
0
0
0
0
0
0
0
0
0
0
0
0
0
0
0
0
0
0
0
0
0
0
0
0
0
0
0
0
0
0
0
0
0
0
0
0
0
0
0
0
0
0
0
0
0
0
0
0
0
0
0
0
0
0
0
0
0
0
0
0
0
0
0
0
0
0
0
0
0
0
0
0
0
0
0
0
0
0
0
0
0
0
0
0
0
0
0
0
0
0
0
0
0
0
0
0
0
0
0
0
1
1
1
2
3
3
4
6
8
10
13
18
23
30
39
51
64
77
86
86
80
76
73
70
67
64
60
55
51
50
49
50
52
58
66
73
79
84
87
90
93
96
98
99
101
102
103
103
102
101
99
98
97
97
99
101
103
105
108
110
113
116
118
119
119
119
117
114
110
105
105
106
108
110
112
113
114
114
114
113
111
108
105
102
102
104
106
107
109
111
112
112
113
114
115
116
116
117
117
118
119
119
120
120
119
119
118
117
116
114
112
109
107
104
102
100
97
94
91
88
84
80
76
72
69
64
58
50
43
39
40
41
45
51
53
43
32
23
17
13
9
7
5
4
3
2
1
1
0
0
0
0
0
0
0
0
0
0
0
0
0
0
0
0
0
0
0
0
0
0
0
0
0
0
0
0
0
0
0
0
0
0
0
0
0
0
0
0
0
0
0
0
0
0
0
0
0
0
0
0
0
0
0
0
0
0
0
0
0
0
0
0
0
0
0
0
0
0
0
0
0
0
0
0
0
0
0
0
0
0
0
0
0
0
0
0
0
0
0
0
0
0
0
0
0
0
0
0
0
0
0
0
0
0
0
0
0
0
0
0
0
0
0
0
0
0
0
0
0
0
0
0
0
0
0
0
0
0
0
0
0
0
0
0
0
0
0
0
0
0
0
0
0
0
0
0
0
0
0
0
0
0
0
0
0
0
0
0
0
0
0
0
0
0
0
0
0
0
0
1
1
1
2
2
3
4
5
7
9
12
16
21
28
36
47
60
72
84
87
82
77
74
71
68
65
62
58
53
50
48
48
48
50
56
63
71
77
83
86
89
92
94
95
97
99
101
102
102
102
101
99
98
98
99
101
103
105
107
110
112
115
117
119
119
119
117
114
110
102
95
93
98
102
105
108
111
112
113
114
113
113
111
110
109
108
109
110
111
111
112
113
113
114
115
115
116
116
117
118
118
119
120
120
120
120
119
119
118
117
115
113
111
109
106
104
101
98
96
93
89
86
82
79
76
72
67
61
53
45
40
40
42
45
51
55
48
35
26
19
14
10
8
5
4
3
2
1
1
1
0
0
0
0
0
0
0
0
0
0
0
0
0
0
0
0
0
0
0
0
0
0
0
0
0
0
0
0
0
0
0
0
0
0
0
0
0
0
0
0
0
0
0
0
0
0
0
0
0
0
0
0
0
0
0
0
0
0
0
0
0
0
0
0
0
0
0
0
0
0
0
0
0
0
0
0
0
0
0
0
0
0
0
0
0
0
0
0
0
0
0
0
0
0
0
0
0
0
0
0
0
0
0
0
0
0
0
0
0
0
0
0
0
0
0
0
0
0
0
0
0
0
0
0
0
0
0
0
0
0
0
0
0
0
0
0
0
0
0
0
0
0
0
0
0
0
0
0
0
0
0
0
0
0
0
0
0
0
0
0
0
0
0
0
0
0
0
0
0
0
1
1
1
2
3
4
5
6
8
11
15
19
25
33
43
56
68
80
86
83
78
75
72
69
66
63
59
55
52
49
47
47
47
50
57
66
75
81
86
90
92
94
96
97
98
99
100
101
102
102
101
100
99
99
101
102
104
107
109
112
114
116
118
119
119
118
116
112
106
95
87
84
87
95
100
104
108
110
112
113
114
114
113
113
112
112
112
112
113
113
113
113
114
114
114
115
116
116
117
118
118
119
120
120
120
120
120
119
118
117
116
114
112
110
107
105
102
99
96
93
90
87
85
82
79
75
69
62
54
45
41
41
43
46
51
56
52
39
28
21
15
11
8
6
4
3
2
1
1
1
0
0
0
0
0
0
0
0
0
0
0
0
0
0
0
0
0
0
0
0
0
0
0
0
0
0
0
0
0
0
0
0
0
0
0
0
0
0
0
0
0
0
0
0
0
0
0
0
0
0
0
0
0
0
0
0
0
0
0
0
0
0
0
0
0
0
0
0
0
0
0
0
0
0
0
0
0
0
0
0
0
0
0
0
0
0
0
0
0
0
0
0
0
0
0
0
0
0
0
0
0
0
0
0
0
0
0
0
0
0
0
0
0
0
0
0
0
0
0
0
0
0
0
0
0
0
0
0
0
0
0
0
0
0
0
0
0
0
0
0
0
0
0
0
0
0
0
0
0
0
0
0
0
0
0
0
0
0
0
0
0
0
0
0
0
0
0
0
0
1
1
1
2
2
3
4
6
8
10
13
17
23
30
39
51
64
76
85
84
79
75
72
69
67
64
61
57
55
52
48
46
46
48
52
60
70
78
84
89
92
95
96
97
98
99
99
100
101
101
101
101
100
100
100
101
103
105
108
111
113
116
118
119
120
119
118
115
110
103
91
82
78
79
86
94
100
105
108
111
112
113
114
114
114
114
114
113
113
113
113
113
113
113
113
113
113
114
115
116
117
118
119
120
120
120
120
120
119
118
117
116
115
113
111
108
105
102
100
97
94
91
89
87
84
81
76
70
62
54
45
41
41
45
47
52
56
54
42
31
23
17
12
9
7
5
3
2
2
1
1
0
0
0
0
0
0
0
0
0
0
0
0
0
0
0
0
0
0
0
0
0
0
0
0
0
0
0
0
0
0
0
0
0
0
0
0
0
0
0
0
0
0
0
0
0
0
0
0
0
0
0
0
0
0
0
0
0
0
0
0
0
0
0
0
0
0
0
0
0
0
0
0
0
0
0
0
0
0
0
0
0
0
0
0
0
0
0
0
0
0
0
0
0
0
0
0
0
0
0
0
0
0
0
0
0
0
0
0
0
0
0
0
0
0
0
0
0
0
0
0
0
0
0
0
0
0
0
0
0
0
0
0
0
0
0
0
0
0
0
0
0
0
0
0
0
0
0
0
0
0
0
0
0
0
0
0
0
0
0
0
0
0
0
0
0
0
0
0
1
1
1
1
2
3
4
5
7
9
12
16
21
27
36
47
60
72
82
85
80
76
73
70
67
65
62
59
56
55
50
47
47
47
49
54
62
73
81
87
91
94
97
98
99
100
100
100
100
100
100
101
101
100
100
100
101
103
105
108
111
115
117
119
120
120
120
118
115
110
102
90
80
74
74
78
87
95
101
105
108
111
112
114
114
114
114
114
113
113
112
112
111
111
110
110
110
111
112
113
115
116
118
119
119
120
120
120
120
119
118
117
116
115
113
111
109
106
103
101
99
96
94
92
89
86
82
76
70
61
51
44
41
41
45
47
52
57
57
46
34
25
18
14
10
7
5
4
3
2
1
1
0
0
0
0
0
0
0
0
0
0
0
0
0
0
0
0
0
0
0
0
0
0
0
0
0
0
0
0
0
0
0
0
0
0
0
0
0
0
0
0
0
0
0
0
0
0
0
0
0
0
0
0
0
0
0
0
0
0
0
0
0
0
0
0
0
0
0
0
0
0
0
0
0
0
0
0
0
0
0
0
0
0
0
0
0
0
0
0
0
0
0
0
0
0
0
0
0
0
0
0
0
0
0
0
0
0
0
0
0
0
0
0
0
0
0
0
0
0
0
0
0
0
0
0
0
0
0
0
0
0
0
0
0
0
0
0
0
0
0
0
0
0
0
0
0
0
0
0
0
0
0
0
0
0
0
0
0
0
0
0
0
0
0
0
0
0
0
1
1
1
1
2
2
3
4
6
8
11
14
18
24
32
42
55
67
79
85
81
77
74
70
68
65
63
61
57
56
53
50
49
49
50
51
56
64
75
83
89
93
96
98
99
100
100
100
100
99
99
99
100
100
100
100
100
101
103
105
108
112
115
118
120
121
121
120
118
115
110
102
92
81
74
71
72
79
89
96
101
105
108
111
112
113
114
114
113
112
111
110
109
108
107
107
106
106
107
108
110
113
115
117
118
119
120
120
120
119
119
118
117
116
115
114
112
110
108
106
103
101
99
96
94
91
87
82
77
69
59
50
44
41
42
46
48
53
56
59
50
37
27
20
15
11
8
6
4
3
2
1
1
1
0
0
0
0
0
0
0
0
0
0
0
0
0
0
0
0
0
0
0
0
0
0
0
0
0
0
0
0
0
0
0
0
0
0
0
0
0
0
0
0
0
0
0
0
0
0
0
0
0
0
0
0
0
0
0
0
0
0
0
0
0
0
0
0
0
0
0
0
0
0
0
0
0
0
0
0
0
0
0
0
0
0
0
0
0
0
0
0
0
0
0
0
0
0
0
0
0
0
0
0
0
0
0
0
0
0
0
0
0
0
0
0
0
0
0
0
0
0
0
0
0
0
0
0
0
0
0
0
0
0
0
0
0
0
0
0
0
0
0
0
0
0
0
0
0
0
0
0
0
0
0
0
0
0
0
0
0
0
0
0
0
0
0
0
0
0
1
1
1
2
2
3
4
5
7
9
12
16
22
29
38
50
63
75
84
84
78
74
71
68
65
63
61
58
56
55
53
53
53
55
56
57
60
66
76
84
90
95
97
98
99
99
100
100
100
99
99
98
98
99
99
100
100
101
103
106
109
113
116
119
121
122
121
120
118
115
110
103
95
85
76
70
69
73
81
91
97
102
106
109
110
112
112
112
111
110
109
107
105
104
102
101
100
100
101
102
106
109
113
115
117
119
119
119
119
119
118
118
117
116
116
114
113
112
110
108
105
103
101
98
95
92
88
83
77
69
59
50
45
42
42
46
48
52
56
60
53
40
29
22
16
12
8
6
4
3
2
2
1
1
0
0
0
0
0
0
0
0
0
0
0
0
0
0
0
0
0
0
0
0
0
0
0
0
0
0
0
0
0
0
0
0
0
0
0
0
0
0
0
0
0
0
0
0
0
0
0
0
0
0
0
0
0
0
0
0
0
0
0
0
0
0
0
0
0
0
0
0
0
0
0
0
0
0
0
0
0
0
0
0
0
0
0
0
0
0
0
0
0
0
0
0
0
0
0
0
0
0
0
0
0
0
0
0
0
0
0
0
0
0
0
0
0
0
0
0
0
0
0
0
0
0
0
0
0
0
0
0
0
0
0
0
0
0
0
0
0
0
0
0
0
0
0
0
0
0
0
0
0
0
0
0
0
0
0
0
0
0
0
0
0
0
0
0
0
0
1
1
1
2
3
3
5
6
8
11
15
19
26
34
45
58
70
81
85
80
76
72
69
66
63
61
58
56
56
55
55
57
60
63
65
65
66
69
77
85
91
96
98
99
99
98
99
99
100
99
99
98
98
98
98
99
100
102
104
107
111
115
118
120
122
123
122
121
118
115
110
105
98
90
81
73
68
69
74
83
91
97
102
105
107
109
109
109
108
106
104
102
100
98
95
93
92
91
91
93
98
105
110
114
116
118
119
119
119
118
118
117
117
116
115
115
114
112
111
109
107
104
101
98
95
92
87
82
77
69
60
53
47
44
43
46
49
52
56
60
57
43
32
23
17
13
9
7
5
3
2
2
1
1
0
0
0
0
0
0
0
0
0
0
0
0
0
0
0
0
0
0
0
0
0
0
0
0
0
0
0
0
0
0
0
0
0
0
0
0
0
0
0
0
0
0
0
0
0
0
0
0
0
0
0
0
0
0
0
0
0
0
0
0
0
0
0
0
0
0
0
0
0
0
0
0
0
0
0
0
0
0
0
0
0
0
0
0
0
0
0
0
0
0
0
0
0
0
0
0
0
0
0
0
0
0
0
0
0
0
0
0
0
0
0
0
0
0
0
0
0
0
0
0
0
0
0
0
0
0
0
0
0
0
0
0
0
0
0
0
0
0
0
0
0
0
0
0
0
0
0
0
0
0
0
0
0
0
0
0
0
0
0
0
0
0
0
0
0
1
1
1
2
2
3
4
5
7
10
13
17
23
30
40
53
65
78
85
82
77
74
70
67
64
61
57
55
56
56
55
58
62
67
70
73
74
74
74
78
86
92
97
99
100
99
97
97
98
98
99
99
98
98
98
98
99
100
102
105
109
113
116
119
122
123
123
123
121
119
115
111
106
101
94
86
77
69
66
68
75
85
92
97
101
103
105
105
105
103
101
98
95
92
89
85
82
79
77
78
82
89
99
107
112
115
117
118
118
118
117
117
116
116
115
115
114
114
113
112
110
108
105
102
98
95
91
87
82
77
70
64
58
52
47
45
46
49
52
55
61
60
47
34
25
18
13
10
7
5
4
3
2
1
1
0
0
0
0
0
0
0
0
0
0
0
0
0
0
0
0
0
0
0
0
0
0
0
0
0
0
0
0
0
0
0
0
0
0
0
0
0
0
0
0
0
0
0
0
0
0
0
0
0
0
0
0
0
0
0
0
0
0
0
0
0
0
0
0
0
0
0
0
0
0
0
0
0
0
0
0
0
0
0
0
0
0
0
0
0
0
0
0
0
0
0
0
0
0
0
0
0
0
0
0
0
0
0
0
0
0
0
0
0
0
0
0
0
0
0
0
0
0
0
0
0
0
0
0
0
0
0
0
0
0
0
0
0
0
0
0
0
0
0
0
0
0
0
0
0
0
0
0
0
0
0
0
0
0
0
0
0
0
0
0
0
0
0
0
0
1
1
1
2
3
3
5
6
8
11
15
20
26
35
47
60
72
83
83
78
75
71
68
65
61
57
55
55
56
55
56
62
68
73
77
79
81
82
82
83
88
94
97
100
101
100
98
95
96
97
97
98
98
98
98
98
99
100
103
107
111
115
118
121
122
123
123
123
121
119
116
112
108
103
97
90
82
73
66
64
68
76
85
91
96
98
99
100
99
97
94
90
86
81
76
71
68
66
66
69
75
84
96
105
111
114
116
117
117
117
116
115
115
114
114
114
114
113
113
112
111
109
106
102
98
95
92
88
84
80
76
71
66
60
52
47
46
48
52
56
61
62
50
37
27
20
14
11
8
6
4
3
2
1
1
1
0
0
0
0
0
0
0
0
0
0
0
0
0
0
0
0
0
0
0
0
0
0
0
0
0
0
0
0
0
0
0
0
0
0
0
0
0
0
0
0
0
0
0
0
0
0
0
0
0
0
0
0
0
0
0
0
0
0
0
0
0
0
0
0
0
0
0
0
0
0
0
0
0
0
0
0
0
0
0
0
0
0
0
0
0
0
0
0
0
0
0
0
0
0
0
0
0
0
0
0
0
0
0
0
0
0
0
0
0
0
0
0
0
0
0
0
0
0
0
0
0
0
0
0
0
0
0
0
0
0
0
0
0
0
0
0
0
0
0
0
0
0
0
0
0
0
0
0
0
0
0
0
0
0
0
0
0
0
0
0
0
0
0
1
1
1
2
2
3
4
5
7
10
13
17
23
30
40
54
67
79
84
80
76
72
69
66
61
57
54
54
56
55
55
59
65
72
77
81
84
86
88
89
90
91
95
98
101
102
101
98
95
93
95
96
97
97
98
98
98
99
102
105
109
113
117
120
122
123
123
123
123
121
119
117
114
110
105
100
94
86
77
67
62
62
67
76
84
88
91
92
92
90
87
84
78
72
66
62
59
58
58
60
64
71
82
95
104
110
114
116
116
116
116
115
114
113
113
113
113
113
113
113
112
111
109
107
104
100
97
94
91
88
84
80
76
71
65
57
50
46
47
52
56
61
64
53
39
29
21
15
11
8
6
4
3
2
1
1
1
0
0
0
0
0
0
0
0
0
0
0
0
0
0
0
0
0
0
0
0
0
0
0
0
0
0
0
0
0
0
0
0
0
0
0
0
0
0
0
0
0
0
0
0
0
0
0
0
0
0
0
0
0
0
0
0
0
0
0
0
0
0
0
0
0
0
0
0
0
0
0
0
0
0
0
0
0
0
0
0
0
0
0
0
0
0
0
0
0
0
0
0
0
0
0
0
0
0
0
0
0
0
0
0
0
0
0
0
0
0
0
0
0
0
0
0
0
0
0
0
0
0
0
0
0
0
0
0
0
0
0
0
0
0
0
0
0
0
0
0
0
0
0
0
0
0
0
0
0
0
0
0
0
0
0
0
0
0
0
0
0
0
0
1
1
1
2
3
3
5
6
8
11
15
20
26
35
47
60
73
83
84
78
74
70
66
62
58
55
54
56
56
54
56
62
68
75
80
84
87
90
92
93
94
95
97
99
101
102
102
99
96
93
94
95
96
97
98
98
99
101
105
108
111
115
118
121
122
123
123
123
123
122
120
118
115
111
107
102
96
89
81
70
61
58
60
66
75
79
80
81
81
80
76
70
64
59
55
53
52
52
54
57
63
71
83
96
105
110
113
115
116
116
114
113
112
111
111
112
112
113
113
112
112
111
110
108
105
103
100
97
95
92
88
85
80
75
69
61
52
47
47
51
56
61
65
56
42
31
22
16
12
9
6
5
3
2
2
1
1
0
0
0
0
0
0
0
0
0
0
0
0
0
0
0
0
0
0
0
0
0
0
0
0
0
0
0
0
0
0
0
0
0
0
0
0
0
0
0
0
0
0
0
0
0
0
0
0
0
0
0
0
0
0
0
0
0
0
0
0
0
0
0
0
0
0
0
0
0
0
0
0
0
0
0
0
0
0
0
0
0
0
0
0
0
0
0
0
0
0
0
0
0
0
0
0
0
0
0
0
0
0
0
0
0
0
0
0
0
0
0
0
0
0
0
0
0
0
0
0
0
0
0
0
0
0
0
0
0
0
0
0
0
0
0
0
0
0
0
0
0
0
0
0
0
0
0
0
0
0
0
0
0
0
0
0
0
0
0
0
0
0
1
1
1
2
2
3
4
5
7
10
13
17
23
30
40
53
66
78
86
82
76
72
68
63
59
55
54
56
56
55
55
58
64
71
77
81
85
89
91
94
96
97
98
99
100
102
103
103
100
97
93
93
95
97
98
98
99
101
104
107
110
114
117
120
121
122
123
123
123
123
122
121
119
116
113
109
104
98
92
83
72
61
55
54
58
65
68
69
71
71
67
62
57
53
50
49
48
49
50
53
58
64
74
87
99
106
111
114
115
116
115
113
111
110
110
110
110
111
112
112
112
112
111
110
108
107
105
102
100
97
95
91
88
83
78
71
63
53
48
47
51
56
61
66
58
44
32
24
17
13
9
7
5
3
2
2
1
1
0
0
0
0
0
0
0
0
0
0
0
0
0
0
0
0
0
0
0
0
0
0
0
0
0
0
0
0
0
0
0
0
0
0
0
0
0
0
0
0
0
0
0
0
0
0
0
0
0
0
0
0
0
0
0
0
0
0
0
0
0
0
0
0
0
0
0
0
0
0
0
0
0
0
0
0
0
0
0
0
0
0
0
0
0
0
0
0
0
0
0
0
0
0
0
0
0
0
0
0
0
0
0
0
0
0
0
0
0
0
0
0
0
0
0
0
0
0
0
0
0
0
0
0
0
0
0
0
0
0
0
0
0
0
0
0
0
0
0
0
0
0
0
0
0
0
0
0
0
0
0
0
0
0
0
0
0
0
0
0
0
0
1
1
1
2
3
3
5
6
8
11
15
20
26
35
46
60
72
82
83
78
74
70
65
60
55
53
55
56
55
54
57
61
67
73
78
82
85
88
91
94
97
99
100
101
102
103
103
103
101
98
94
94
95
97
99
100
102
104
107
110
113
116
119
121
122
122
123
123
123
123
122
121
119
117
114
110
105
100
93
84
73
60
52
50
51
56
59
60
61
59
54
51
48
46
45
46
47
49
52
57
62
70
81
93
102
108
112
114
116
115
114
112
110
109
108
108
109
110
110
111
111
111
111
110
109
107
105
104
101
99
96
93
89
84
79
72
64
54
48
47
51
56
60
66
61
47
34
25
18
13
10
7
5
4
2
2
1
1
0
0
0
0
0
0
0
0
0
0
0
0
0
0
0
0
0
0
0
0
0
0
0
0
0
0
0
0
0
0
0
0
0
0
0
0
0
0
0
0
0
0
0
0
0
0
0
0
0
0
0
0
0
0
0
0
0
0
0
0
0
0
0
0
0
0
0
0
0
0
0
0
0
0
0
0
0
0
0
0
0
0
0
0
0
0
0
0
0
0
0
0
0
0
0
0
0
0
0
0
0
0
0
0
0
0
0
0
0
0
0
0
0
0
0
0
0
0
0
0
0
0
0
0
0
0
0
0
0
0
0
0
0
0
0
0
0
0
0
0
0
0
0
0
0
0
0
0
0
0
0
0
0
0
0
0
0
0
0
0
0
1
1
1
2
2
3
4
5
7
10
13
17
22
30
39
52
65
77
81
78
75
71
66
61
56
52
53
55
55
54
56
59
64
70
75
79
83
86
88
90
93
96
99
101
103
103
104
104
104
102
99
96
94
96
98
100
102
104
107
109
112
115
118
120
121
122
122
123
123
123
123
123
121
120
118
115
111
106
101
94
85
73
59
50
46
46
49
53
53
52
48
45
43
42
43
44
46
50
54
59
64
71
80
90
99
106
110
113
115
116
115
114
111
109
107
106
106
107
108
109
110
110
110
110
110
109
107
106
104
102
100
97
94
90
85
79
73
64
54
48
47
51
56
60
65
62
49
36
26
19
14
10
7
5
4
3
2
1
1
0
0
0
0
0
0
0
0
0
0
0
0
0
0
0
0
0
0
0
0
0
0
0
0
0
0
0
0
0
0
0
0
0
0
0
0
0
0
0
0
0
0
0
0
0
0
0
0
0
0
0
0
0
0
0
0
0
0
0
0
0
0
0
0
0
0
0
0
0
0
0
0
0
0
0
0
0
0
0
0
0
0
0
0
0
0
0
0
0
0
0
0
0
0
0
0
0
0
0
0
0
0
0
0
0
0
0
0
0
0
0
0
0
0
0
0
0
0
0
0
0
0
0
0
0
0
0
0
0
0
0
0
0
0
0
0
0
0
0
0
0
0
0
0
0
0
0
0
0
0
0
0
0
0
0
0
0
0
0
0
0
1
1
1
2
3
3
5
6
8
11
15
19
26
34
45
58
70
80
81
76
73
69
63
58
52
51
53
54
54
57
60
65
69
74
78
81
84
86
88
89
91
94
98
101
103
104
104
105
104
102
99
96
93
95
97
100
103
106
108
111
114
117
119
121
122
122
123
123
123
123
123
123
122
120
118
115
111
107
101
94
85
73
58
48
43
42
44
48
47
43
41
39
39
40
43
46
51
56
63
69
75
82
90
97
104
109
112
114
116
116
115
113
111
108
106
105
105
105
107
108
109
109
110
110
109
109
108
106
104
102
100
97
94
90
85
80
73
64
54
48
47
50
56
60
65
63
50
37
27
20
15
11
8
5
4
3
2
1
1
0
0
0
0
0
0
0
0
0
0
0
0
0
0
0
0
0
0
0
0
0
0
0
0
0
0
0
0
0
0
0
0
0
0
0
0
0
0
0
0
0
0
0
0
0
0
0
0
0
0
0
0
0
0
0
0
0
0
0
0
0
0
0
0
0
0
0
0
0
0
0
0
0
0
0
0
0
0
0
0
0
0
0
0
0
0
0
0
0
0
0
0
0
0
0
0
0
0
0
0
0
0
0
0
0
0
0
0
0
0
0
0
0
0
0
0
0
0
0
0
0
0
0
0
0
0
0
0
0
0
0
0
0
0
0
0
0
0
0
0
0
0
0
0
0
0
0
0
0
0
0
0
0
0
0
0
0
0
0
0
1
1
1
2
2
3
4
5
7
10
13
17
22
29
39
51
64
75
83
80
75
71
66
60
54
50
50
52
54
57
61
65
70
74
77
81
83
86
87
89
89
89
91
96
99
102
104
105
105
104
102
99
95
91
93
96
100
103
106
110
113
116
118
120
121
122
122
123
123
123
123
123
123
122
120
118
115
111
107
101
94
84
71
56
46
41
40
42
43
40
38
36
37
38
41
46
52
59
66
73
79
85
91
97
103
108
112
114
116
117
117
115
113
110
107
105
104
104
104
105
107
108
109
109
109
109
109
108
106
105
103
100
97
94
90
85
80
73
64
54
48
47
50
55
59
65
65
53
39
28
21
15
11
8
6
4
3
2
1
1
0
0
0
0
0
0
0
0
0
0
0
0
0
0
0
0
0
0
0
0
0
0
0
0
0
0
0
0
0
0
0
0
0
0
0
0
0
0
0
0
0
0
0
0
0
0
0
0
0
0
0
0
0
0
0
0
0
0
0
0
0
0
0
0
0
0
0
0
0
0
0
0
0
0
0
0
0
0
0
0
0
0
0
0
0
0
0
0
0
0
0
0
0
0
0
0
0
0
0
0
0
0
0
0
0
0
0
0
0
0
0
0
0
0
0
0
0
0
0
0
0
0
0
0
0
0
0
0
0
0
0
0
0
0
0
0
0
0
0
0
0
0
0
0
0
0
0
0
0
0
0
0
0
0
0
0
0
0
0
0
1
1
1
2
3
3
5
6
8
11
15
19
26
34
45
58
70
80
83
78
73
69
63
57
51
49
50
53
58
63
67
70
74
77
80
83
85
87
88
89
90
90
90
92
97
100
103
104
104
103
101
98
94
89
90
94
99
103
107
111
114
117
119
120
121
122
123
123
123
123
124
123
123
122
121
118
115
111
106
100
92
82
68
54
44
40
38
40
39
36
34
34
36
39
45
52
60
69
76
83
88
93
98
103
107
111
114
116
117
117
117
115
112
110
107
105
104
104
105
106
107
108
108
109
109
109
109
108
107
105
103
100
97
94
90
85
79
72
63
53
47
46
50
55
60
65
66
55
40
29
21
16
11
8
6
4
3
2
1
1
1
0
0
0
0
0
0
0
0
0
0
0
0
0
0
0
0
0
0
0
0
0
0
0
0
0
0
0
0
0
0
0
0
0
0
0
0
0
0
0
0
0
0
0
0
0
0
0
0
0
0
0
0
0
0
0
0
0
0
0
0
0
0
0
0
0
0
0
0
0
0
0
0
0
0
0
0
0
0
0
0
0
0
0
0
0
0
0
0
0
0
0
0
0
0
0
0
0
0
0
0
0
0
0
0
0
0
0
0
0
0
0
0
0
0
0
0
0
0
0
0
0
0
0
0
0
0
0
0
0
0
0
0
0
0
0
0
0
0
0
0
0
0
0
0
0
0
0
0
0
0
0
0
0
0
0
0
0
0
0
1
1
2
2
3
4
5
7
10
13
17
22
29
39
51
64
76
84
82
76
72
67
60
54
50
49
52
57
64
69
72
74
76
79
82
84
86
87
88
89
90
90
90
90
94
98
101
103
103
102
100
97
93
89
89
93
98
103
107
112
115
118
120
121
122
122
123
123
123
124
124
124
124
123
121
119
116
111
105
99
90
79
64
51
43
38
38
39
36
33
33
34
37
43
51
60
70
78
85
90
95
99
103
107
111
114
116
118
118
118
117
115
112
109
106
104
104
105
106
107
108
109
109
110
110
109
109
108
107
105
102
100
97
93
89
84
78
71
62
51
46
46
50
55
60
65
68
57
42
30
22
16
12
8
6
4
3
2
1
1
1
0
0
0
0
0
0
0
0
0
0
0
0
0
0
0
0
0
0
0
0
0
0
0
0
0
0
0
0
0
0
0
0
0
0
0
0
0
0
0
0
0
0
0
0
0
0
0
0
0
0
0
0
0
0
0
0
0
0
0
0
0
0
0
0
0
0
0
0
0
0
0
0
0
0
0
0
0
0
0
0
0
0
0
0
0
0
0
0
0
0
0
0
0
0
0
0
0
0
0
0
0
0
0
0
0
0
0
0
0
0
0
0
0
0
0
0
0
0
0
0
0
0
0
0
0
0
0
0
0
0
0
0
0
0
0
0
0
0
0
0
0
0
0
0
0
0
0
0
0
0
0
0
0
0
0
0
0
0
1
1
1
2
2
3
5
6
8
11
15
19
26
34
45
58
70
81
84
79
75
70
64
57
52
50
51
56
64
70
74
76
78
79
81
83
85
86
87
88
89
89
90
90
90
92
96
99
101
101
100
98
95
93
90
91
93
99
105
109
113
116
118
120
121
122
123
123
123
124
124
124
125
124
123
121
119
115
110
104
97
87
75
60
48
41
37
37
37
34
32
33
35
40
48
59
70
78
85
91
96
100
104
107
110
113
116
117
119
119
118
117
115
112
109
106
105
105
107
108
109
110
110
111
111
110
110
109
108
106
104
102
99
96
92
88
83
76
68
59
50
45
46
51
56
60
65
68
58
43
31
23
17
12
9
6
4
3
2
1
1
1
0
0
0
0
0
0
0
0
0
0
0
0
0
0
0
0
0
0
0
0
0
0
0
0
0
0
0
0
0
0
0
0
0
0
0
0
0
0
0
0
0
0
0
0
0
0
0
0
0
0
0
0
0
0
0
0
0
0
0
0
0
0
0
0
0
0
0
0
0
0
0
0
0
0
0
0
0
0
0
0
0
0
0
0
0
0
0
0
0
0
0
0
0
0
0
0
0
0
0
0
0
0
0
0
0
0
0
0
0
0
0
0
0
0
0
0
0
0
0
0
0
0
0
0
0
0
0
0
0
0
0
0
0
0
0
0
0
0
0
0
0
0
0
0
0
0
0
0
0
0
0
0
0
0
0
0
0
0
1
1
1
2
3
4
5
7
10
13
17
22
29
39
52
65
77
85
84
77
72
67
61
55
51
51
54
62
70
76
80
81
82
82
83
84
85
86
87
88
88
89
89
89
89
90
94
97
98
98
97
96
94
93
93
94
97
102
107
111
115
117
120
121
122
122
123
123
123
124
124
125
125
125
123
121
118
115
109
102
94
83
70
55
46
40
37
38
36
33
32
34
38
44
55
67
77
85
92
97
101
105
108
111
113
115
117
119
120
120
119
117
115
112
109
107
107
107
108
109
110
111
111
112
112
111
111
110
108
106
103
100
97
94
90
86
80
74
65
55
47
44
46
51
56
60
65
69
59
44
32
24
17
12
9
6
5
3
2
2
1
1
0
0
0
0
0
0
0
0
0
0
0
0
0
0
0
0
0
0
0
0
0
0
0
0
0
0
0
0
0
0
0
0
0
0
0
0
0
0
0
0
0
0
0
0
0
0
0
0
0
0
0
0
0
0
0
0
0
0
0
0
0
0
0
0
0
0
0
0
0
0
0
0
0
0
0
0
0
0
0
0
0
0
0
0
0
0
0
0
0
0
0
0
0
0
0
0
0
0
0
0
0
0
0
0
0
0
0
0
0
0
0
0
0
0
0
0
0
0
0
0
0
0
0
0
0
0
0
0
0
0
0
0
0
0
0
0
0
0
0
0
0
0
0
0
0
0
0
0
0
0
0
0
0
0
0
0
0
1
1
1
2
2
3
4
6
8
11
15
19
26
34
45
58
71
83
89
83
76
70
64
58
53
51
53
59
69
76
81
85
86
86
85
85
86
87
87
88
88
88
88
88
88
88
88
91
93
95
96
95
93
93
95
96
98
102
106
109
114
117
119
121
122
122
123
123
124
124
124
125
125
125
124
123
121
118
114
108
100
91
79
64
52
44
39
38
39
35
33
34
36
41
49
61
74
83
91
97
101
105
108
111
113
115
117
119
120
120
120
119
117
115
112
110
108
108
108
109
110
111
112
112
112
112
112
111
110
108
105
102
98
95
92
88
84
78
71
61
51
46
44
46
52
56
60
65
70
61
45
33
24
17
13
9
7
5
3
2
2
1
1
0
0
0
0
0
0
0
0
0
0
0
0
0
0
0
0
0
0
0
0
0
0
0
0
0
0
0
0
0
0
0
0
0
0
0
0
0
0
0
0
0
0
0
0
0
0
0
0
0
0
0
0
0
0
0
0
0
0
0
0
0
0
0
0
0
0
0
0
0
0
0
0
0
0
0
0
0
0
0
0
0
0
0
0
0
0
0
0
0
0
0
0
0
0
0
0
0
0
0
0
0
0
0
0
0
0
0
0
0
0
0
0
0
0
0
0
0
0
0
0
0
0
0
0
0
0
0
0
0
0
0
0
0
0
0
0
0
0
0
0
0
0
0
0
0
0
0
0
0
0
0
0
0
0
0
0
0
1
1
1
2
3
4
5
7
9
13
17
22
29
39
51
65
78
88
90
81
74
68
62
56
53
53
57
65
74
81
86
89
91
90
89
88
88
88
88
88
89
88
88
87
87
86
86
87
90
92
93
93
92
94
97
99
102
106
109
113
116
119
121
122
122
123
123
124
124
125
125
125
125
125
125
123
121
118
113
107
98
87
73
59
49
43
40
40
40
36
34
36
40
46
54
68
79
88
95
101
105
108
111
113
115
117
119
120
121
121
121
119
117
114
112
110
109
109
109
110
111
112
112
112
113
113
112
111
110
108
105
101
97
93
89
86
81
75
67
57
49
45
44
46
52
56
60
64
70
62
46
34
25
18
13
9
7
5
3
2
2
1
1
0
0
0
0
0
0
0
0
0
0
0
0
0
0
0
0
0
0
0
0
0
0
0
0
0
0
0
0
0
0
0
0
0
0
0
0
0
0
0
0
0
0
0
0
0
0
0
0
0
0
0
0
0
0
0
0
0
0
0
0
0
0
0
0
0
0
0
0
0
0
0
0
0
0
0
0
0
0
0
0
0
0
0
0
0
0
0
0
0
0
0
0
0
0
0
0
0
0
0
0
0
0
0
0
0
0
0
0
0
0
0
0
0
0
0
0
0
0
0
0
0
0
0
0
0
0
0
0
0
0
0
0
0
0
0
0
0
0
0
0
0
0
0
0
0
0
0
0
0
0
0
0
0
0
0
0
0
1
1
2
2
3
4
6
8
11
14
19
25
34
45
59
72
84
92
88
79
72
66
60
54
54
56
61
70
79
86
90
93
95
94
93
91
90
89
89
89
89
89
88
87
85
84
83
84
86
90
92
93
93
96
99
102
105
109
112
115
118
120
122
123
123
124
124
124
125
125
126
126
126
126
125
123
121
117
112
105
96
83
68
56
48
43
41
43
41
37
36
39
44
51
60
73
84
93
99
104
108
111
113
115
117
119
120
121
121
122
121
119
117
114
112
110
109
109
110
110
111
112
112
112
113
113
112
112
110
108
105
101
97
93
88
85
80
74
65
55
48
44
44
47
53
56
60
64
70
62
47
34
25
18
13
10
7
5
3
2
2
1
1
0
0
0
0
0
0
0
0
0
0
0
0
0
0
0
0
0
0
0
0
0
0
0
0
0
0
0
0
0
0
0
0
0
0
0
0
0
0
0
0
0
0
0
0
0
0
0
0
0
0
0
0
0
0
0
0
0
0
0
0
0
0
0
0
0
0
0
0
0
0
0
0
0
0
0
0
0
0
0
0
0
0
0
0
0
0
0
0
0
0
0
0
0
0
0
0
0
0
0
0
0
0
0
0
0
0
0
0
0
0
0
0
0
0
0
0
0
0
0
0
0
0
0
0
0
0
0
0
0
0
0
0
0
0
0
0
0
0
0
0
0
0
0
0
0
0
0
0
0
0
0
0
0
0
0
0
1
1
1
2
2
3
5
7
9
12
16
22
29
39
51
65
79
90
93
85
77
70
63
57
54
55
60
68
76
84
89
94
97
98
97
96
95
93
92
91
90
89
89
89
88
85
83
81
80
84
89
92
93
95
98
101
105
108
112
115
118
120
122
123
123
124
124
124
125
125
126
126
127
127
126
125
124
121
117
112
104
94
80
65
54
47
44
43
46
42
38
38
40
47
55
64
78
88
96
102
107
110
113
115
117
119
120
121
122
122
122
121
120
117
114
111
109
108
108
109
109
110
111
111
112
112
112
112
112
110
108
106
102
98
94
90
86
82
75
67
57
49
45
45
49
53
57
60
64
70
63
48
35
25
18
13
10
7
5
4
2
2
1
1
0
0
0
0
0
0
0
0
0
0
0
0
0
0
0
0
0
0
0
0
0
0
0
0
0
0
0
0
0
0
0
0
0
0
0
0
0
0
0
0
0
0
0
0
0
0
0
0
0
0
0
0
0
0
0
0
0
0
0
0
0
0
0
0
0
0
0
0
0
0
0
0
0
0
0
0
0
0
0
0
0
0
0
0
0
0
0
0
0
0
0
0
0
0
0
0
0
0
0
0
0
0
0
0
0
0
0
0
0
0
0
0
0
0
0
0
0
0
0
0
0
0
0
0
0
0
0
0
0
0
0
0
0
0
0
0
0
0
0
0
0
0
0
0
0
0
0
0
0
0
0
0
0
0
0
0
1
1
1
2
3
4
5
7
10
14
18
25
33
44
58
72
85
94
91
82
75
68
61
55
54
57
65
74
82
88
92
96
99
100
100
100
98
97
95
93
92
91
90
90
89
86
83
80
79
83
89
93
95
97
100
103
107
111
114
117
120
122
123
124
124
124
125
125
125
126
126
126
127
127
126
125
123
121
117
111
103
92
78
64
54
49
47
47
49
44
40
39
42
48
57
68
81
91
99
105
109
113
115
117
119
120
121
122
122
122
122
121
119
116
113
110
107
106
106
107
107
108
109
110
111
111
112
112
111
110
109
106
103
100
96
92
88
83
77
69
60
50
46
46
50
54
57
61
64
70
64
49
35
26
19
14
10
7
5
4
3
2
1
1
0
0
0
0
0
0
0
0
0
0
0
0
0
0
0
0
0
0
0
0
0
0
0
0
0
0
0
0
0
0
0
0
0
0
0
0
0
0
0
0
0
0
0
0
0
0
0
0
0
0
0
0
0
0
0
0
0
0
0
0
0
0
0
0
0
0
0
0
0
0
0
0
0
0
0
0
0
0
0
0
0
0
0
0
0
0
0
0
0
0
0
0
0
0
0
0
0
0
0
0
0
0
0
0
0
0
0
0
0
0
0
0
0
0
0
0
0
0
0
0
0
0
0
0
0
0
0
0
0
0
0
0
0
0
0
0
0
0
0
0
0
0
0
0
0
0
0
0
0
0
0
0
0
0
0
0
1
1
2
2
3
4
6
8
11
15
21
28
38
51
65
79
91
96
89
79
72
65
58
54
54
60
70
79
86
91
95
99
101
103
103
102
101
100
98
96
94
92
91
90
90
88
84
81
80
85
90
94
97
100
103
106
109
113
116
119
121
123
124
124
125
125
125
125
125
126
126
126
127
127
126
125
123
121
117
111
103
92
77
64
56
52
51
53
54
47
43
41
44
49
58
72
84
94
101
107
111
114
117
118
120
121
122
122
122
123
122
121
119
116
112
109
106
104
104
104
105
106
107
108
109
109
110
110
111
110
109
107
104
101
97
94
89
84
78
71
62
52
47
47
50
55
58
61
64
70
64
49
36
26
19
14
10
7
5
4
3
2
1
1
0
0
0
0
0
0
0
0
0
0
0
0
0
0
0
0
0
0
0
0
0
0
0
0
0
0
0
0
0
0
0
0
0
0
0
0
0
0
0
0
0
0
0
0
0
0
0
0
0
0
0
0
0
0
0
0
0
0
0
0
0
0
0
0
0
0
0
0
0
0
0
0
0
0
0
0
0
0
0
0
0
0
0
0
0
0
0
0
0
0
0
0
0
0
0
0
0
0
0
0
0
0
0
0
0
0
0
0
0
0
0
0
0
0
0
0
0
0
0
0
0
0
0
0
0
0
0
0
0
0
0
0
0
0
0
0
0
0
0
0
0
0
0
0
0
0
0
0
0
0
0
0
0
0
0
1
1
1
2
2
3
5
7
9
13
17
23
32
43
57
71
85
95
95
85
77
69
62
55
53
55
63
74
82
89
94
98
101
103
104
105
104
104
102
101
99
97
94
92
91
90
89
86
82
82
87
92
96
100
102
105
108
111
114
118
121
123
124
125
125
125
125
125
126
126
126
126
127
127
127
126
125
123
121
117
111
103
92
77
66
59
57
58
61
59
51
46
44
46
52
61
75
88
97
104
109
113
116
118
120
121
122
122
123
123
122
122
121
119
116
112
109
106
104
102
102
102
103
104
105
106
107
108
109
110
109
108
106
104
101
98
94
90
85
78
71
62
53
47
47
50
55
58
61
64
70
64
50
36
26
19
14
10
7
5
4
3
2
1
1
1
0
0
0
0
0
0
0
0
0
0
0
0
0
0
0
0
0
0
0
0
0
0
0
0
0
0
0
0
0
0
0
0
0
0
0
0
0
0
0
0
0
0
0
0
0
0
0
0
0
0
0
0
0
0
0
0
0
0
0
0
0
0
0
0
0
0
0
0
0
0
0
0
0
0
0
0
0
0
0
0
0
0
0
0
0
0
0
0
0
0
0
0
0
0
0
0
0
0
0
0
0
0
0
0
0
0
0
0
0
0
0
0
0
0
0
0
0
0
0
0
0
0
0
0
0
0
0
0
0
0
0
0
0
0
0
0
0
0
0
0
0
0
0
0
0
0
0
0
0
0
0
0
0
0
1
1
1
2
3
4
5
7
10
14
19
26
35
48
63
77
91
98
93
82
74
66
58
53
52
57
66
76
84
91
96
100
102
104
105
106
106
105
105
103
101
99
96
93
92
91
90
88
85
84
88
93
98
101
105
107
110
113
116
119
122
124
125
125
125
125
126
126
126
126
126
126
127
127
127
126
125
123
121
117
112
104
92
78
69
65
64
67
69
65
56
50
49
50
55
65
78
91
100
106
111
115
118
120
121
121
122
123
123
123
122
122
121
119
116
113
109
106
104
102
101
100
101
101
102
103
105
106
107
109
109
108
106
104
101
97
94
89
84
77
70
62
52
48
46
50
55
58
61
64
70
64
50
36
26
19
14
10
7
5
4
3
2
1
1
1
0
0
0
0
0
0
0
0
0
0
0
0
0
0
0
0
0
0
0
0
0
0
0
0
0
0
0
0
0
0
0
0
0
0
0
0
0
0
0
0
0
0
0
0
0
0
0
0
0
0
0
0
0
0
0
0
0
0
0
0
0
0
0
0
0
0
0
0
0
0
0
0
0
0
0
0
0
0
0
0
0
0
0
0
0
0
0
0
0
0
0
0
0
0
0
0
0
0
0
0
0
0
0
0
0
0
0
0
0
0
0
0
0
0
0
0
0
0
0
0
0
0
0
0
0
0
0
0
0
0
0
0
0
0
0
0
0
0
0
0
0
0
0
0
0
0
0
0
0
0
0
0
0
0
1
1
1
2
3
4
6
8
11
15
21
29
39
53
68
83
95
99
90
79
71
63
55
51
52
58
68
77
85
92
97
100
103
105
106
106
106
106
106
105
103
100
97
94
93
93
91
89
86
85
89
93
99
103
106
109
111
114
117
120
123
124
125
126
126
126
126
125
126
126
126
126
127
127
127
126
125
124
121
118
112
105
94
82
75
73
74
76
76
71
62
56
54
55
61
70
83
94
103
109
113
116
119
121
122
122
123
123
123
123
122
122
120
118
116
113
109
107
104
102
101
99
99
100
101
103
104
105
107
108
108
107
105
102
99
95
92
87
82
75
68
59
51
46
46
50
54
57
61
64
69
63
50
36
27
19
14
10
7
5
4
3
2
1
1
1
0
0
0
0
0
0
0
0
0
0
0
0
0
0
0
0
0
0
0
0
0
0
0
0
0
0
0
0
0
0
0
0
0
0
0
0
0
0
0
0
0
0
0
0
0
0
0
0
0
0
0
0
0
0
0
0
0
0
0
0
0
0
0
0
0
0
0
0
0
0
0
0
0
0
0
0
0
0
0
0
0
0
0
0
0
0
0
0
0
0
0
0
0
0
0
0
0
0
0
0
0
0
0
0
0
0
0
0
0
0
0
0
0
0
0
0
0
0
0
0
0
0
0
0
0
0
0
0
0
0
0
0
0
0
0
0
0
0
0
0
0
0
0
0
0
0
0
0
0
0
0
0
0
0
1
1
2
2
3
4
6
9
12
17
23
32
43
59
73
87
96
96
86
76
67
58
52
50
53
58
68
77
85
91
96
100
103
105
106
106
107
107
107
106
104
102
99
95
94
94
93
91
89
87
89
94
99
104
108
111
113
116
118
121
123
125
126
126
126
126
125
125
125
125
125
126
126
126
126
126
125
123
121
118
114
107
99
89
82
81
82
84
82
77
68
64
62
63
68
77
89
98
106
111
115
118
120
122
123
123
123
123
123
123
122
121
120
118
116
113
109
107
104
103
101
100
101
102
103
104
106
107
108
108
107
106
103
100
97
93
89
84
79
72
64
55
48
44
44
49
54
57
61
64
69
63
50
36
27
19
14
10
7
5
4
3
2
1
1
1
0
0
0
0
0
0
0
0
0
0
0
0
0
0
0
0
0
0
0
0
0
0
0
0
0
0
0
0
0
0
0
0
0
0
0
0
0
0
0
0
0
0
0
0
0
0
0
0
0
0
0
0
0
0
0
0
0
0
0
0
0
0
0
0
0
0
0
0
0
0
0
0
0
0
0
0
0
0
0
0
0
0
0
0
0
0
0
0
0
0
0
0
0
0
0
0
0
0
0
0
0
0
0
0
0
0
0
0
0
0
0
0
0
0
0
0
0
0
0
0
0
0
0
0
0
0
0
0
0
0
0
0
0
0
0
0
0
0
0
0
0
0
0
0
0
0
0
0
0
0
0
0
0
0
1
1
2
2
3
5
7
9
13
18
25
34
47
63
77
90
95
93
81
72
63
54
49
48
52
57
67
75
83
89
95
99
102
104
105
106
107
107
108
107
106
103
100
97
96
96
96
94
93
91
91
95
100
105
109
112
114
117
120
122
124
125
126
126
126
125
125
125
125
125
125
125
125
126
126
125
125
123
121
119
115
110
104
97
91
88
89
90
88
82
74
71
71
71
77
86
95
103
109
113
117
119
121
122
123
124
124
124
124
123
122
121
120
118
115
112
109
106
105
103
103
103
104
105
106
107
108
109
109
108
107
104
102
98
95
91
87
82
75
67
58
51
46
43
44
48
53
57
61
64
70
64
50
36
27
19
14
10
7
5
4
3
2
1
1
1
0
0
0
0
0
0
0
0
0
0
0
0
0
0
0
0
0
0
0
0
0
0
0
0
0
0
0
0
0
0
0
0
0
0
0
0
0
0
0
0
0
0
0
0
0
0
0
0
0
0
0
0
0
0
0
0
0
0
0
0
0
0
0
0
0
0
0
0
0
0
0
0
0
0
0
0
0
0
0
0
0
0
0
0
0
0
0
0
0
0
0
0
0
0
0
0
0
0
0
0
0
0
0
0
0
0
0
0
0
0
0
0
0
0
0
0
0
0
0
0
0
0
0
0
0
0
0
0
0
0
0
0
0
0
0
0
0
0
0
0
0
0
0
0
0
0
0
0
0
0
0
0
0
1
1
1
2
3
4
5
7
10
14
20
27
37
51
66
80
91
94
88
77
68
58
50
46
46
50
54
63
72
79
86
92
96
100
103
105
106
107
108
108
108
107
105
102
99
98
99
99
98
96
94
93
95
100
105
109
112
116
118
121
123
125
126
126
126
125
125
125
124
124
124
124
124
125
125
125
125
124
123
122
119
116
112
107
102
97
93
94
94
92
87
81
79
80
82
87
94
101
107
112
115
118
120
122
123
124
124
125
124
124
123
123
121
120
117
114
111
108
106
105
105
105
106
107
108
109
110
110
110
110
108
106
103
100
97
93
89
85
79
71
62
54
48
44
42
43
48
53
57
61
64
70
64
50
37
27
20
14
10
7
5
4
3
2
1
1
1
0
0
0
0
0
0
0
0
0
0
0
0
0
0
0
0
0
0
0
0
0
0
0
0
0
0
0
0
0
0
0
0
0
0
0
0
0
0
0
0
0
0
0
0
0
0
0
0
0
0
0
0
0
0
0
0
0
0
0
0
0
0
0
0
0
0
0
0
0
0
0
0
0
0
0
0
0
0
0
0
0
0
0
0
0
0
0
0
0
0
0
0
0
0
0
0
0
0
0
0
0
0
0
0
0
0
0
0
0
0
0
0
0
0
0
0
0
0
0
0
0
0
0
0
0
0
0
0
0
0
0
0
0
0
0
0
0
0
0
0
0
0
0
0
0
0
0
0
0
0
0
0
0
1
1
1
2
3
4
6
8
11
15
21
29
40
55
69
83
89
90
83
73
64
54
47
44
44
46
51
57
66
74
81
88
93
97
101
103
106
107
108
109
109
108
106
104
101
101
102
102
101
100
97
96
96
101
105
109
113
116
119
121
123
125
125
126
125
125
124
124
123
123
123
123
124
124
124
124
124
123
123
121
119
117
114
110
105
100
97
97
97
95
91
88
88
90
92
96
100
106
111
114
117
119
121
122
123
124
124
125
124
124
124
123
122
120
117
114
110
108
106
106
106
107
108
110
110
111
112
112
111
110
108
106
103
101
98
94
90
86
80
73
63
53
47
43
41
43
48
53
57
61
65
70
64
50
37
27
20
14
10
7
5
4
3
2
1
1
1
0
0
0
0
0
0
0
0
0
0
0
0
0
0
0
0
0
0
0
0
0
0
0
0
0
0
0
0
0
0
0
0
0
0
0
0
0
0
0
0
0
0
0
0
0
0
0
0
0
0
0
0
0
0
0
0
0
0
0
0
0
0
0
0
0
0
0
0
0
0
0
0
0
0
0
0
0
0
0
0
0
0
0
0
0
0
0
0
0
0
0
0
0
0
0
0
0
0
0
0
0
0
0
0
0
0
0
0
0
0
0
0
0
0
0
0
0
0
0
0
0
0
0
0
0
0
0
0
0
0
0
0
0
0
0
0
0
0
0
0
0
0
0
0
0
0
0
0
0
0
0
0
0
1
1
1
2
3
4
6
8
11
16
22
30
42
58
72
84
86
84
77
68
60
50
44
42
42
43
46
51
58
67
75
83
89
94
98
101
104
107
108
109
110
109
108
106
104
103
104
104
104
103
101
99
98
100
105
108
112
116
119
121
123
125
125
125
124
124
123
123
122
122
123
123
123
124
124
124
124
123
122
121
119
117
115
112
107
103
99
99
99
97
95
95
95
97
99
101
105
110
114
116
119
120
122
123
123
124
124
125
125
124
124
123
122
120
117
113
110
107
106
107
107
108
110
111
112
113
113
113
112
111
109
106
104
101
99
96
92
87
82
74
66
55
47
42
41
43
48
53
58
62
65
71
64
51
37
27
20
14
10
7
5
4
3
2
1
1
1
0
0
0
0
0
0
0
0
0
0
0
0
0
0
0
0
0
0
0
0
0
0
0
0
0
0
0
0
0
0
0
0
0
0
0
0
0
0
0
0
0
0
0
0
0
0
0
0
0
0
0
0
0
0
0
0
0
0
0
0
0
0
0
0
0
0
0
0
0
0
0
0
0
0
0
0
0
0
0
0
0
0
0
0
0
0
0
0
0
0
0
0
0
0
0
0
0
0
0
0
0
0
0
0
0
0
0
0
0
0
0
0
0
0
0
0
0
0
0
0
0
0
0
0
0
0
0
0
0
0
0
0
0
0
0
0
0
0
0
0
0
0
0
0
0
0
0
0
0
0
0
0
0
1
1
1
2
3
4
6
9
12
17
23
32
44
60
74
85
84
78
71
64
56
47
42
41
41
41
43
47
53
60
68
77
84
90
94
99
102
105
108
109
110
110
110
108
107
105
106
106
106
105
104
101
100
100
104
108
111
115
118
121
123
124
125
124
123
123
122
122
122
122
122
123
123
123
123
123
123
122
122
121
119
117
115
112
108
104
101
100
100
99
99
100
101
103
105
107
109
113
116
118
120
121
122
123
123
124
125
125
125
124
124
123
122
120
117
113
110
107
106
107
107
109
110
112
113
114
114
114
113
111
109
107
105
103
100
97
93
89
83
75
67
56
47
42
41
44
48
54
58
62
66
71
64
50
37
27
19
14
10
7
5
4
3
2
1
1
1
0
0
0
0
0
0
0
0
0
0
0
0
0
0
0
0
0
0
0
0
0
0
0
0
0
0
0
0
0
0
0
0
0
0
0
0
0
0
0
0
0
0
0
0
0
0
0
0
0
0
0
0
0
0
0
0
0
0
0
0
0
0
0
0
0
0
0
0
0
0
0
0
0
0
0
0
0
0
0
0
0
0
0
0
0
0
0
0
0
0
0
0
0
0
0
0
0
0
0
0
0
0
0
0
0
0
0
0
0
0
0
0
0
0
0
0
0
0
0
0
0
0
0
0
0
0
0
0
0
0
0
0
0
0
0
0
0
0
0
0
0
0
0
0
0
0
0
0
0
0
0
0
0
1
1
2
2
3
5
6
9
13
17
24
33
46
61
75
86
85
76
69
62
53
45
41
40
41
41
44
47
52
57
63
71
79
85
91
96
100
104
107
109
110
111
111
110
109
108
107
107
107
107
105
103
101
101
103
107
110
114
118
121
123
124
124
123
122
121
121
121
121
121
122
122
123
123
123
123
122
122
121
120
119
117
115
112
109
105
101
100
100
100
102
104
106
107
109
111
113
115
118
119
120
121
122
123
123
124
124
124
125
124
124
123
122
120
117
113
110
107
105
106
107
108
110
112
113
114
115
115
114
112
111
108
106
104
101
98
94
89
83
76
67
56
47
42
42
44
49
54
58
63
67
72
65
50
37
27
19
14
10
7
5
4
3
2
1
1
1
0
0
0
0
0
0
0
0
0
0
0
0
0
0
0
0
0
0
0
0
0
0
0
0
0
0
0
0
0
0
0
0
0
0
0
0
0
0
0
0
0
0
0
0
0
0
0
0
0
0
0
0
0
0
0
0
0
0
0
0
0
0
0
0
0
0
0
0
0
0
0
0
0
0
0
0
0
0
0
0
0
0
0
0
0
0
0
0
0
0
0
0
0
0
0
0
0
0
0
0
0
0
0
0
0
0
0
0
0
0
0
0
0
0
0
0
0
0
0
0
0
0
0
0
0
0
0
0
0
0
0
0
0
0
0
0
0
0
0
0
0
0
0
0
0
0
0
0
0
0
0
0
0
1
1
2
2
3
5
7
9
13
18
25
34
47
62
76
87
88
78
69
61
51
44
41
41
41
42
46
50
53
57
62
68
74
81
87
93
98
102
105
108
110
111
111
111
111
110
108
108
108
107
106
105
103
103
104
106
110
114
117
120
122
123
123
122
121
121
120
120
121
121
121
122
122
122
122
122
122
121
120
119
118
116
114
111
108
104
100
100
101
102
105
107
109
111
112
114
115
117
119
120
121
122
122
123
123
124
124
124
124
124
124
123
122
120
117
114
110
108
106
105
106
107
109
111
113
114
115
115
114
113
111
109
107
104
102
98
94
89
82
75
66
55
47
42
42
44
49
55
59
64
68
73
64
50
36
26
19
14
10
7
5
4
3
2
1
1
1
0
0
0
0
0
0
0
0
0
0
0
0
0
0
0
0
0
0
0
0
0
0
0
0
0
0
0
0
0
0
0
0
0
0
0
0
0
0
0
0
0
0
0
0
0
0
0
0
0
0
0
0
0
0
0
0
0
0
0
0
0
0
0
0
0
0
0
0
0
0
0
0
0
0
0
0
0
0
0
0
0
0
0
0
0
0
0
0
0
0
0
0
0
0
0
0
0
0
0
0
0
0
0
0
0
0
0
0
0
0
0
0
0
0
0
0
0
0
0
0
0
0
0
0
0
0
0
0
0
0
0
0
0
0
0
0
0
0
0
0
0
0
0
0
0
0
0
0
0
0
0
0
0
1
1
2
2
4
5
7
10
13
18
25
35
48
63
78
89
90
81
70
60
50
44
42
42
43
45
49
53
56
60
64
69
73
78
84
90
95
100
103
107
109
111
112
112
112
111
110
109
108
108
107
106
104
104
104
106
109
113
117
120
122
122
122
122
121
120
120
120
120
121
121
122
122
122
122
121
121
120
119
118
117
115
112
109
106
102
100
100
101
103
106
109
111
113
114
116
117
118
119
120
121
122
122
123
123
123
124
124
124
124
124
123
122
119
117
114
111
108
106
105
106
107
109
111
113
114
115
115
114
113
111
109
107
104
101
97
93
88
81
73
63
54
47
43
43
45
50
55
60
64
69
74
64
49
36
26
19
14
10
7
5
4
3
2
1
1
1
0
0
0
0
0
0
0
0
0
0
0
0
0
0
0
0
0
0
0
0
0
0
0
0
0
0
0
0
0
0
0
0
0
0
0
0
0
0
0
0
0
0
0
0
0
0
0
0
0
0
0
0
0
0
0
0
0
0
0
0
0
0
0
0
0
0
0
0
0
0
0
0
0
0
0
0
0
0
0
0
0
0
0
0
0
0
0
0
0
0
0
0
0
0
0
0
0
0
0
0
0
0
0
0
0
0
0
0
0
0
0
0
0
0
0
0
0
0
0
0
0
0
0
0
0
0
0
0
0
0
0
0
0
0
0
0
0
0
0
0
0
0
0
0
0
0
0
0
0
0
0
0
0
1
1
2
3
4
5
7
10
14
19
26
36
49
65
79
90
91
81
70
59
50
45
45
45
47
51
55
59
61
63
67
70
75
80
84
89
94
98
102
105
108
110
112
113
113
112
111
110
108
108
107
107
105
105
105
107
109
113
117
120
122
122
122
121
121
120
120
120
120
120
121
121
122
122
121
121
120
119
118
117
115
113
110
107
103
100
98
99
101
103
107
110
112
114
116
117
118
119
120
121
121
122
122
122
123
123
123
124
124
124
123
123
121
119
116
114
111
109
107
106
106
108
109
111
113
114
115
115
114
113
111
109
106
104
100
96
92
87
80
71
62
54
47
44
43
45
50
56
60
65
70
73
63
49
35
26
19
14
10
7
5
4
3
2
1
1
1
0
0
0
0
0
0
0
0
0
0
0
0
0
0
0
0
0
0
0
0
0
0
0
0
0
0
0
0
0
0
0
0
0
0
0
0
0
0
0
0
0
0
0
0
0
0
0
0
0
0
0
0
0
0
0
0
0
0
0
0
0
0
0
0
0
0
0
0
0
0
0
0
0
0
0
0
0
0
0
0
0
0
0
0
0
0
0
0
0
0
0
0
0
0
0
0
0
0
0
0
0
0
0
0
0
0
0
0
0
0
0
0
0
0
0
0
0
0
0
0
0
0
0
0
0
0
0
0
0
0
0
0
0
0
0
0
0
0
0
0
0
0
0
0
0
0
0
0
0
0
0
0
1
1
1
2
3
4
5
7
10
14
19
27
37
50
65
80
91
91
80
69
58
50
47
47
49
54
59
63
65
66
67
70
74
79
84
88
91
94
97
101
104
107
109
111
113
113
113
112
111
109
108
107
107
106
106
106
108
110
113
117
120
121
122
122
121
121
120
120
120
120
121
121
121
121
121
121
120
119
118
117
115
113
110
107
104
101
98
97
99
101
104
108
111
113
115
116
118
118
119
120
120
121
121
122
122
122
123
123
123
123
123
123
122
121
118
116
113
110
108
107
106
107
108
110
112
113
114
115
115
114
113
111
109
106
103
100
96
92
86
80
72
63
54
47
43
43
45
51
56
61
66
71
73
62
48
35
25
19
13
10
7
5
3
2
2
1
1
0
0
0
0
0
0
0
0
0
0
0
0
0
0
0
0
0
0
0
0
0
0
0
0
0
0
0
0
0
0
0
0
0
0
0
0
0
0
0
0
0
0
0
0
0
0
0
0
0
0
0
0
0
0
0
0
0
0
0
0
0
0
0
0
0
0
0
0
0
0
0
0
0
0
0
0
0
0
0
0
0
0
0
0
0
0
0
0
0
0
0
0
0
0
0
0
0
0
0
0
0
0
0
0
0
0
0
0
0
0
0
0
0
0
0
0
0
0
0
0
0
0
0
0
0
0
0
0
0
0
0
0
0
0
0
0
0
0
0
0
0
0
0
0
0
0
0
0
0
0
0
0
0
1
1
1
2
3
4
5
7
10
14
20
27
37
51
66
80
91
90
79
68
57
50
49
51
56
62
67
71
72
73
74
77
81
86
89
92
95
97
99
101
103
106
109
111
112
113
113
113
111
109
108
107
106
106
106
107
109
111
114
117
120
122
122
122
122
121
120
120
120
120
121
121
121
121
121
120
120
118
117
115
113
110
108
104
100
97
94
95
97
100
104
107
111
113
115
116
118
118
119
120
120
121
121
121
122
122
122
123
123
123
123
123
122
120
117
114
112
109
107
107
106
107
109
111
112
114
115
115
115
114
113
111
109
107
104
101
97
93
88
82
74
66
56
48
43
43
46
51
57
62
67
72
73
62
47
34
25
18
13
9
7
5
3
2
2
1
1
0
0
0
0
0
0
0
0
0
0
0
0
0
0
0
0
0
0
0
0
0
0
0
0
0
0
0
0
0
0
0
0
0
0
0
0
0
0
0
0
0
0
0
0
0
0
0
0
0
0
0
0
0
0
0
0
0
0
0
0
0
0
0
0
0
0
0
0
0
0
0
0
0
0
0
0
0
0
0
0
0
0
0
0
0
0
0
0
0
0
0
0
0
0
0
0
0
0
0
0
0
0
0
0
0
0
0
0
0
0
0
0
0
0
0
0
0
0
0
0
0
0
0
0
0
0
0
0
0
0
0
0
0
0
0
0
0
0
0
0
0
0
0
0
0
0
0
0
0
0
0
0
0
1
1
1
2
3
4
5
8
11
15
20
28
38
52
67
81
90
89
77
67
56
51
51
55
63
69
74
78
80
81
83
85
89
92
94
97
99
100
102
104
106
107
108
110
111
113
113
113
112
110
108
106
105
105
106
108
110
112
115
117
120
122
122
122
122
121
121
120
120
120
121
121
121
121
120
119
118
117
115
113
110
107
104
100
96
94
91
93
95
98
103
107
110
113
115
116
117
118
119
120
120
121
121
121
121
121
122
122
122
123
123
122
121
118
115
112
110
108
107
106
107
108
110
112
113
114
115
115
114
113
112
111
109
107
105
102
98
94
89
84
76
68
58
48
44
44
46
52
58
63
67
73
73
61
46
33
24
18
13
9
7
5
3
2
2
1
1
0
0
0
0
0
0
0
0
0
0
0
0
0
0
0
0
0
0
0
0
0
0
0
0
0
0
0
0
0
0
0
0
0
0
0
0
0
0
0
0
0
0
0
0
0
0
0
0
0
0
0
0
0
0
0
0
0
0
0
0
0
0
0
0
0
0
0
0
0
0
0
0
0
0
0
0
0
0
0
0
0
0
0
0
0
0
0
0
0
0
0
0
0
0
0
0
0
0
0
0
0
0
0
0
0
0
0
0
0
0
0
0
0
0
0
0
0
0
0
0
0
0
0
0
0
0
0
0
0
0
0
0
0
0
0
0
0
0
0
0
0
0
0
0
0
0
0
0
0
0
0
0
0
1
1
1
2
3
4
6
8
11
15
21
28
39
53
68
81
89
87
75
65
56
53
54
60
68
75
80
83
86
88
89
92
94
97
99
101
102
104
105
107
108
109
109
110
111
112
113
113
112
110
107
105
103
104
106
109
112
114
116
118
121
122
123
123
122
121
121
120
120
120
120
120
120
119
119
118
117
115
113
110
107
104
100
96
91
89
88
91
93
96
101
106
109
112
114
116
117
118
119
119
120
121
121
121
121
121
121
122
122
122
122
121
119
116
113
110
108
107
106
107
108
109
111
113
114
114
115
114
114
113
111
110
109
107
105
102
99
95
90
84
77
69
58
48
44
44
47
53
58
64
68
75
73
60
45
33
24
17
13
9
7
5
3
2
2
1
1
0
0
0
0
0
0
0
0
0
0
0
0
0
0
0
0
0
0
0
0
0
0
0
0
0
0
0
0
0
0
0
0
0
0
0
0
0
0
0
0
0
0
0
0
0
0
0
0
0
0
0
0
0
0
0
0
0
0
0
0
0
0
0
0
0
0
0
0
0
0
0
0
0
0
0
0
0
0
0
0
0
0
0
0
0
0
0
0
0
0
0
0
0
0
0
0
0
0
0
0
0
0
0
0
0
0
0
0
0
0
0
0
0
0
0
0
0
0
0
0
0
0
0
0
0
0
0
0
0
0
0
0
0
0
0
0
0
0
0
0
0
0
0
0
0
0
0
0
0
0
0
0
0
1
1
1
2
3
4
6
8
11
15
21
29
39
54
68
82
90
87
74
64
56
54
57
65
73
79
84
88
90
92
94
96
98
100
102
104
105
106
108
109
110
111
111
111
111
112
113
113
112
110
108
105
103
104
107
110
114
116
118
120
122
123
123
123
122
121
120
120
120
120
119
119
118
118
117
116
114
112
110
107
103
99
95
90
85
83
84
87
90
94
99
104
108
111
114
116
117
118
119
120
120
120
121
120
120
120
121
121
122
122
122
120
118
114
111
108
106
106
106
107
108
110
111
113
114
114
114
114
113
112
110
109
108
106
104
101
98
94
90
84
76
68
57
48
44
45
48
54
59
65
69
76
73
59
44
32
23
17
12
9
6
5
3
2
2
1
1
0
0
0
0
0
0
0
0
0
0
0
0
0
0
0
0
0
0
0
0
0
0
0
0
0
0
0
0
0
0
0
0
0
0
0
0
0
0
0
0
0
0
0
0
0
0
0
0
0
0
0
0
0
0
0
0
0
0
0
0
0
0
0
0
0
0
0
0
0
0
0
0
0
0
0
0
0
0
0
0
0
0
0
0
0
0
0
0
0
0
0
0
0
0
0
0
0
0
0
0
0
0
0
0
0
0
0
0
0
0
0
0
0
0
0
0
0
0
0
0
0
0
0
0
0
0
0
0
0
0
0
0
0
0
0
0
0
0
0
0
0
0
0
0
0
0
0
0
0
0
0
0
0
1
1
1
2
3
4
6
8
11
16
21
29
40
55
69
83
90
86
73
63
56
55
59
68
76
82
87
90
92
94
96
98
100
101
103
105
107
108
110
111
112
113
113
113
112
112
113
113
113
111
109
105
104
105
109
113
116
118
120
122
123
123
123
122
121
120
120
119
119
118
118
117
116
116
114
113
111
109
106
102
98
94
89
83
79
77
80
82
86
90
96
101
106
110
113
115
117
118
119
120
120
120
120
120
120
120
120
121
121
121
121
120
117
113
108
105
104
104
104
106
107
109
111
112
114
114
114
113
112
111
109
108
106
105
102
100
97
93
88
82
75
65
55
47
44
45
48
55
60
66
71
77
72
58
43
31
23
17
12
9
6
4
3
2
2
1
1
0
0
0
0
0
0
0
0
0
0
0
0
0
0
0
0
0
0
0
0
0
0
0
0
0
0
0
0
0
0
0
0
0
0
0
0
0
0
0
0
0
0
0
0
0
0
0
0
0
0
0
0
0
0
0
0
0
0
0
0
0
0
0
0
0
0
0
0
0
0
0
0
0
0
0
0
0
0
0
0
0
0
0
0
0
0
0
0
0
0
0
0
0
0
0
0
0
0
0
0
0
0
0
0
0
0
0
0
0
0
0
0
0
0
0
0
0
0
0
0
0
0
0
0
0
0
0
0
0
0
0
0
0
0
0
0
0
0
0
0
0
0
0
0
0
0
0
0
0
0
0
0
0
1
1
1
2
3
4
6
8
12
16
22
30
41
56
70
83
90
84
72
62
56
56
62
71
78
83
87
90
92
93
95
97
99
101
103
105
107
109
111
112
114
114
115
115
114
114
114
114
114
112
110
108
107
109
113
116
119
121
122
123
123
123
122
121
120
119
118
118
117
116
115
114
113
112
111
109
107
104
101
97
92
87
81
76
72
72
75
77
80
85
92
98
103
108
111
114
116
117
118
119
120
120
120
120
120
120
120
120
121
121
121
119
116
111
107
102
100
100
101
102
105
107
109
111
113
114
114
113
112
110
108
107
105
103
101
98
95
91
86
81
73
62
52
46
44
46
49
56
61
67
72
78
71
57
41
30
22
16
12
8
6
4
3
2
1
1
1
0
0
0
0
0
0
0
0
0
0
0
0
0
0
0
0
0
0
0
0
0
0
0
0
0
0
0
0
0
0
0
0
0
0
0
0
0
0
0
0
0
0
0
0
0
0
0
0
0
0
0
0
0
0
0
0
0
0
0
0
0
0
0
0
0
0
0
0
0
0
0
0
0
0
0
0
0
0
0
0
0
0
0
0
0
0
0
0
0
0
0
0
0
0
0
0
0
0
0
0
0
0
0
0
0
0
0
0
0
0
0
0
0
0
0
0
0
0
0
0
0
0
0
0
0
0
0
0
0
0
0
0
0
0
0
0
0
0
0
0
0
0
0
0
0
0
0
0
0
0
0
0
0
1
1
1
2
3
4
6
8
12
16
22
31
42
57
71
83
89
82
70
60
56
56
63
71
78
83
86
88
89
91
92
94
97
99
102
104
106
108
110
113
114
116
116
116
116
116
116
116
115
114
112
111
112
114
117
119
121
123
123
123
123
122
121
120
118
117
116
114
113
112
111
110
109
107
106
104
101
98
94
90
85
79
74
70
67
68
70
70
73
78
86
94
100
105
109
112
115
117
118
119
120
120
120
119
119
119
120
120
120
121
120
118
115
111
106
100
96
95
95
98
101
104
107
110
112
113
113
113
111
110
108
106
104
102
99
96
93
89
85
80
71
60
51
46
44
46
50
57
63
67
73
78
70
55
40
29
21
16
11
8
6
4
3
2
1
1
1
0
0
0
0
0
0
0
0
0
0
0
0
0
0
0
0
0
0
0
0
0
0
0
0
0
0
0
0
0
0
0
0
0
0
0
0
0
0
0
0
0
0
0
0
0
0
0
0
0
0
0
0
0
0
0
0
0
0
0
0
0
0
0
0
0
0
0
0
0
0
0
0
0
0
0
0
0
0
0
0
0
0
0
0
0
0
0
0
0
0
0
0
0
0
0
0
0
0
0
0
0
0
0
0
0
0
0
0
0
0
0
0
0
0
0
0
0
0
0
0
0
0
0
0
0
0
0
0
0
0
0
0
0
0
0
0
0
0
0
0
0
0
0
0
0
0
0
0
0
0
0
0
0
1
1
1
2
3
4
6
9
12
17
23
31
43
58
72
84
88
80
69
59
55
56
63
71
77
82
84
85
86
86
88
91
94
97
100
102
105
108
110
113
115
117
117
118
118
118
118
118
117
117
116
116
118
119
121
122
123
124
124
123
122
121
119
117
115
113
111
109
108
106
105
104
103
102
100
97
94
91
87
82
78
73
69
65
63
65
64
63
65
71
80
89
96
102
107
110
113
115
117
118
119
119
119
119
119
119
119
120
120
120
119
117
114
111
106
101
96
92
90
91
95
100
104
108
110
112
113
113
112
110
109
107
104
101
98
94
92
89
86
81
73
62
52
47
46
48
52
58
64
68
75
78
68
53
39
28
21
15
11
8
6
4
3
2
1
1
1
0
0
0
0
0
0
0
0
0
0
0
0
0
0
0
0
0
0
0
0
0
0
0
0
0
0
0
0
0
0
0
0
0
0
0
0
0
0
0
0
0
0
0
0
0
0
0
0
0
0
0
0
0
0
0
0
0
0
0
0
0
0
0
0
0
0
0
0
0
0
0
0
0
0
0
0
0
0
0
0
0
0
0
0
0
0
0
0
0
0
0
0
0
0
0
0
0
0
0
0
0
0
0
0
0
0
0
0
0
0
0
0
0
0
0
0
0
0
0
0
0
0
0
0
0
0
0
0
0
0
0
0
0
0
0
0
0
0
0
0
0
0
0
0
0
0
0
0
0
0
0
0
0
1
1
2
2
3
5
6
9
12
17
23
32
44
59
72
84
87
79
68
58
54
55
62
70
75
79
81
81
81
81
85
89
93
97
100
103
105
108
110
113
115
117
118
119
120
120
120
120
120
120
120
121
121
122
123
124
124
124
123
122
120
118
115
112
109
106
103
101
99
97
96
96
95
94
92
90
86
83
79
75
72
69
66
62
62
62
58
56
58
65
74
84
92
98
103
108
111
114
116
118
118
119
119
119
119
119
119
119
119
119
119
117
114
111
106
102
98
94
92
92
93
97
102
106
109
111
112
112
112
111
110
108
106
103
100
97
94
92
88
82
74
64
53
47
47
49
53
60
65
69
77
77
66
51
37
27
20
15
10
8
5
4
3
2
1
1
1
0
0
0
0
0
0
0
0
0
0
0
0
0
0
0
0
0
0
0
0
0
0
0
0
0
0
0
0
0
0
0
0
0
0
0
0
0
0
0
0
0
0
0
0
0
0
0
0
0
0
0
0
0
0
0
0
0
0
0
0
0
0
0
0
0
0
0
0
0
0
0
0
0
0
0
0
0
0
0
0
0
0
0
0
0
0
0
0
0
0
0
0
0
0
0
0
0
0
0
0
0
0
0
0
0
0
0
0
0
0
0
0
0
0
0
0
0
0
0
0
0
0
0
0
0
0
0
0
0
0
0
0
0
0
0
0
0
0
0
0
0
0
0
0
0
0
0
0
0
0
0
0
0
1
1
2
2
3
5
6
9
12
17
24
33
45
60
74
86
88
78
67
57
53
54
60
67
72
75
76
76
77
80
86
91
95
98
101
104
106
109
111
113
116
117
119
120
121
122
122
122
123
123
124
124
124
125
125
125
124
123
122
120
117
113
109
105
100
96
92
88
86
86
86
86
86
85
83
80
77
73
71
69
68
67
64
60
61
58
53
51
53
59
67
77
86
93
99
104
108
112
114
116
117
118
118
119
119
119
119
119
119
119
118
117
114
111
107
103
99
97
95
95
95
97
100
104
107
109
111
112
112
111
110
109
107
105
102
100
97
94
89
83
75
64
53
48
48
50
55
61
66
71
78
76
64
49
36
26
19
14
10
7
5
4
3
2
1
1
0
0
0
0
0
0
0
0
0
0
0
0
0
0
0
0
0
0
0
0
0
0
0
0
0
0
0
0
0
0
0
0
0
0
0
0
0
0
0
0
0
0
0
0
0
0
0
0
0
0
0
0
0
0
0
0
0
0
0
0
0
0
0
0
0
0
0
0
0
0
0
0
0
0
0
0
0
0
0
0
0
0
0
0
0
0
0
0
0
0
0
0
0
0
0
0
0
0
0
0
0
0
0
0
0
0
0
0
0
0
0
0
0
0
0
0
0
0
0
0
0
0
0
0
0
0
0
0
0
0
0
0
0
0
0
0
0
0
0
0
0
0
0
0
0
0
0
0
0
0
0
0
0
0
1
1
2
2
3
5
7
9
13
17
24
33
46
61
74
86
88
78
67
57
52
52
55
61
66
69
70
73
77
83
88
93
97
100
103
105
108
110
112
114
116
118
119
121
122
123
124
124
125
125
126
126
126
126
126
125
124
122
120
116
112
107
101
95
89
82
76
73
72
74
75
76
76
75
72
70
67
66
66
66
68
67
62
60
60
54
48
46
48
54
61
69
79
87
94
99
104
109
112
115
116
118
118
118
118
119
119
119
119
119
118
117
114
111
107
103
100
98
97
97
98
99
101
103
106
108
110
111
111
111
111
110
108
106
104
102
99
95
90
83
75
64
54
48
49
51
56
62
67
73
79
74
62
47
34
25
18
13
10
7
5
4
2
2
1
1
0
0
0
0
0
0
0
0
0
0
0
0
0
0
0
0
0
0
0
0
0
0
0
0
0
0
0
0
0
0
0
0
0
0
0
0
0
0
0
0
0
0
0
0
0
0
0
0
0
0
0
0
0
0
0
0
0
0
0
0
0
0
0
0
0
0
0
0
0
0
0
0
0
0
0
0
0
0
0
0
0
0
0
0
0
0
0
0
0
0
0
0
0
0
0
0
0
0
0
0
0
0
0
0
0
0
0
0
0
0
0
0
0
0
0
0
0
0
0
0
0
0
0
0
0
0
0
0
0
0
0
0
0
0
0
0
0
0
0
0
0
0
0
0
0
0
0
0
0
0
0
0
0
0
1
1
2
2
3
5
7
9
13
18
24
34
46
62
75
86
88
78
66
56
51
50
52
55
59
63
68
73
79
85
90
95
98
101
104
107
109
111
113
115
117
118
120
121
123
124
125
126
126
127
127
128
128
127
126
125
123
121
117
112
106
99
91
83
74
67
63
61
61
64
67
66
66
65
63
61
61
62
64
68
70
67
62
61
59
50
45
43
43
47
53
62
71
80
88
94
99
105
109
113
115
117
117
118
118
119
119
119
119
119
118
116
114
110
107
103
100
98
97
98
99
100
102
104
106
108
109
110
111
111
111
110
109
107
105
103
99
95
89
82
74
63
53
48
49
51
58
63
69
75
80
74
60
45
33
24
18
13
9
7
5
3
2
2
1
1
0
0
0
0
0
0
0
0
0
0
0
0
0
0
0
0
0
0
0
0
0
0
0
0
0
0
0
0
0
0
0
0
0
0
0
0
0
0
0
0
0
0
0
0
0
0
0
0
0
0
0
0
0
0
0
0
0
0
0
0
0
0
0
0
0
0
0
0
0
0
0
0
0
0
0
0
0
0
0
0
0
0
0
0
0
0
0
0
0
0
0
0
0
0
0
0
0
0
0
0
0
0
0
0
0
0
0
0
0
0
0
0
0
0
0
0
0
0
0
0
0
0
0
0
0
0
0
0
0
0
0
0
0
0
0
0
0
0
0
0
0
0
0
0
0
0
0
0
0
0
0
0
0
0
1
1
2
2
3
5
7
9
13
18
25
34
47
62
76
86
87
78
66
56
51
49
51
53
58
64
69
75
81
87
91
96
99
102
104
107
109
111
113
115
117
118
120
122
123
124
126
127
127
128
128
128
128
128
126
125
122
119
114
107
99
88
77
68
61
56
53
53
53
56
58
57
58
57
57
57
59
62
67
72
73
68
64
64
59
49
43
40
40
42
47
55
63
72
80
87
93
100
106
111
114
116
117
118
118
119
119
119
119
118
117
115
113
110
106
103
100
98
97
97
99
101
103
105
107
108
109
110
111
111
111
110
109
108
106
103
99
95
88
81
71
60
51
48
49
52
59
65
70
77
81
73
58
43
32
23
17
12
9
6
5
3
2
2
1
1
0
0
0
0
0
0
0
0
0
0
0
0
0
0
0
0
0
0
0
0
0
0
0
0
0
0
0
0
0
0
0
0
0
0
0
0
0
0
0
0
0
0
0
0
0
0
0
0
0
0
0
0
0
0
0
0
0
0
0
0
0
0
0
0
0
0
0
0
0
0
0
0
0
0
0
0
0
0
0
0
0
0
0
0
0
0
0
0
0
0
0
0
0
0
0
0
0
0
0
0
0
0
0
0
0
0
0
0
0
0
0
0
0
0
0
0
0
0
0
0
0
0
0
0
0
0
0
0
0
0
0
0
0
0
0
0
0
0
0
0
0
0
0
0
0
0
0
0
0
0
0
0
0
0
1
1
2
2
3
5
7
9
13
18
25
34
47
62
76
87
86
77
66
57
52
50
50
53
59
65
70
77
82
87
92
96
99
101
103
106
108
110
112
114
116
118
120
122
123
125
126
127
128
129
129
129
128
128
126
124
121
116
110
101
90
77
66
59
53
49
47
47
48
50
52
54
54
54
56
58
62
67
74
79
78
73
69
68
60
50
43
39
38
39
42
48
55
64
72
78
86
94
102
108
112
115
116
117
118
119
119
119
119
118
116
114
111
108
105
102
99
97
96
97
99
101
104
106
108
109
110
111
111
111
111
110
109
108
106
103
99
94
87
78
67
56
50
47
49
53
60
66
71
79
82
71
56
41
30
22
16
12
8
6
4
3
2
1
1
1
0
0
0
0
0
0
0
0
0
0
0
0
0
0
0
0
0
0
0
0
0
0
0
0
0
0
0
0
0
0
0
0
0
0
0
0
0
0
0
0
0
0
0
0
0
0
0
0
0
0
0
0
0
0
0
0
0
0
0
0
0
0
0
0
0
0
0
0
0
0
0
0
0
0
0
0
0
0
0
0
0
0
0
0
0
0
0
0
0
0
0
0
0
0
0
0
0
0
0
0
0
0
0
0
0
0
0
0
0
0
0
0
0
0
0
0
0
0
0
0
0
0
0
0
0
0
0
0
0
0
0
0
0
0
0
0
0
0
0
0
0
0
0
0
0
0
0
0
0
0
0
0
0
0
1
1
2
2
3
5
7
9
13
18
25
34
47
62
76
88
90
82
69
59
54
51
51
54
61
67
72
78
83
88
92
95
97
100
102
104
106
108
110
113
115
118
120
122
124
125
126
127
128
129
129
129
129
128
126
123
120
114
106
95
82
69
59
53
48
45
44
45
46
49
51
53
54
56
59
63
69
76
83
85
83
79
76
72
63
51
44
40
37
36
38
42
47
54
62
69
77
87
97
104
110
113
116
117
118
119
119
119
118
117
114
112
109
106
103
100
98
95
94
96
98
102
105
107
109
110
111
111
111
111
111
110
109
108
105
102
98
93
85
76
63
54
49
47
49
53
61
67
73
81
81
69
53
39
29
21
15
11
8
6
4
3
2
1
1
1
0
0
0
0
0
0
0
0
0
0
0
0
0
0
0
0
0
0
0
0
0
0
0
0
0
0
0
0
0
0
0
0
0
0
0
0
0
0
0
0
0
0
0
0
0
0
0
0
0
0
0
0
0
0
0
0
0
0
0
0
0
0
0
0
0
0
0
0
0
0
0
0
0
0
0
0
0
0
0
0
0
0
0
0
0
0
0
0
0
0
0
0
0
0
0
0
0
0
0
0
0
0
0
0
0
0
0
0
0
0
0
0
0
0
0
0
0
0
0
0
0
0
0
0
0
0
0
0
0
0
0
0
0
0
0
0
0
0
0
0
0
0
0
0
0
0
0
0
0
0
0
0
0
0
1
1
2
2
3
5
7
9
13
18
25
34
46
62
76
89
94
87
72
61
56
55
53
57
63
69
74
78
82
87
91
93
96
98
100
102
104
107
109
111
114
117
119
122
123
125
126
128
128
129
129
129
128
127
126
123
118
112
102
90
76
64
55
50
46
44
44
46
48
50
53
55
58
62
67
73
80
88
92
93
90
87
83
78
67
54
45
40
36
35
35
37
41
46
53
59
68
79
91
101
107
112
115
117
119
120
120
119
118
115
112
109
106
104
101
99
98
97
98
99
101
103
106
107
109
110
110
110
110
110
110
109
108
107
105
102
98
92
85
76
64
54
48
47
49
54
62
68
74
83
80
67
51
37
27
20
15
11
8
5
4
3
2
1
1
1
0
0
0
0
0
0
0
0
0
0
0
0
0
0
0
0
0
0
0
0
0
0
0
0
0
0
0
0
0
0
0
0
0
0
0
0
0
0
0
0
0
0
0
0
0
0
0
0
0
0
0
0
0
0
0
0
0
0
0
0
0
0
0
0
0
0
0
0
0
0
0
0
0
0
0
0
0
0
0
0
0
0
0
0
0
0
0
0
0
0
0
0
0
0
0
0
0
0
0
0
0
0
0
0
0
0
0
0
0
0
0
0
0
0
0
0
0
0
0
0
0
0
0
0
0
0
0
0
0
0
0
0
0
0
0
0
0
0
0
0
0
0
0
0
0
0
0
0
0
0
0
0
0
0
1
1
2
2
3
5
7
9
13
18
24
33
45
61
75
89
96
91
75
64
59
58
55
59
65
71
75
79
81
85
89
92
95
97
100
102
104
106
108
110
113
116
119
121
123
125
126
127
128
129
129
129
128
127
126
122
118
110
100
87
73
62
55
50
47
46
47
49
51
55
59
63
68
74
80
87
93
98
100
100
98
95
90
83
72
58
48
41
37
34
34
34
36
39
45
51
59
70
85
97
105
111
115
117
119
120
120
119
117
114
111
107
104
103
102
101
101
101
101
102
103
105
106
107
108
109
109
109
109
109
109
108
107
105
103
100
96
91
84
76
65
54
49
47
50
56
63
70
77
83
78
64
48
36
26
19
14
10
7
5
4
3
2
1
1
1
0
0
0
0
0
0
0
0
0
0
0
0
0
0
0
0
0
0
0
0
0
0
0
0
0
0
0
0
0
0
0
0
0
0
0
0
0
0
0
0
0
0
0
0
0
0
0
0
0
0
0
0
0
0
0
0
0
0
0
0
0
0
0
0
0
0
0
0
0
0
0
0
0
0
0
0
0
0
0
0
0
0
0
0
0
0
0
0
0
0
0
0
0
0
0
0
0
0
0
0
0
0
0
0
0
0
0
0
0
0
0
0
0
0
0
0
0
0
0
0
0
0
0
0
0
0
0
0
0
0
0
0
0
0
0
0
0
0
0
0
0
0
0
0
0
0
0
0
0
0
0
0
0
0
1
1
2
2
3
5
7
9
13
17
24
33
45
60
75
88
96
94
78
66
60
59
57
60
66
72
76
80
82
85
88
92
95
98
100
102
104
106
108
110
112
115
118
120
123
124
126
127
128
128
129
129
128
127
126
122
118
109
98
86
73
63
57
52
50
50
52
55
59
64
70
75
81
87
93
98
102
106
107
107
105
102
97
89
78
64
52
44
38
34
32
32
33
35
39
45
53
64
79
93
103
110
114
117
119
120
120
118
116
113
109
106
104
103
102
102
102
102
102
103
104
105
105
106
107
107
107
107
108
108
108
107
105
103
101
98
94
90
83
75
65
54
49
48
51
58
65
72
79
83
76
61
46
34
25
18
13
10
7
5
3
2
2
1
1
0
0
0
0
0
0
0
0
0
0
0
0
0
0
0
0
0
0
0
0
0
0
0
0
0
0
0
0
0
0
0
0
0
0
0
0
0
0
0
0
0
0
0
0
0
0
0
0
0
0
0
0
0
0
0
0
0
0
0
0
0
0
0
0
0
0
0
0
0
0
0
0
0
0
0
0
0
0
0
0
0
0
0
0
0
0
0
0
0
0
0
0
0
0
0
0
0
0
0
0
0
0
0
0
0
0
0
0
0
0
0
0
0
0
0
0
0
0
0
0
0
0
0
0
0
0
0
0
0
0
0
0
0
0
0
0
0
0
0
0
0
0
0
0
0
0
0
0
0
0
0
0
0
0
0
1
1
2
2
3
5
7
9
13
17
24
32
44
59
74
88
97
96
81
68
61
59
57
60
66
72
77
81
84
86
89
93
96
98
100
102
104
106
107
110
112
115
117
119
122
124
125
127
128
128
128
129
129
128
126
123
118
110
99
87
76
68
62
58
57
57
60
64
70
76
82
87
93
98
102
106
109
111
112
112
110
107
103
95
85
71
58
48
41
36
32
31
31
33
36
41
49
59
74
90
101
109
114
117
119
120
120
118
116
112
109
106
103
102
102
102
102
102
102
102
103
103
104
104
105
105
106
107
107
108
107
106
104
102
99
95
92
87
81
73
63
53
49
49
52
60
67
74
82
83
73
58
43
31
23
17
12
9
6
5
3
2
2
1
1
0
0
0
0
0
0
0
0
0
0
0
0
0
0
0
0
0
0
0
0
0
0
0
0
0
0
0
0
0
0
0
0
0
0
0
0
0
0
0
0
0
0
0
0
0
0
0
0
0
0
0
0
0
0
0
0
0
0
0
0
0
0
0
0
0
0
0
0
0
0
0
0
0
0
0
0
0
0
0
0
0
0
0
0
0
0
0
0
0
0
0
0
0
0
0
0
0
0
0
0
0
0
0
0
0
0
0
0
0
0
0
0
0
0
0
0
0
0
0
0
0
0
0
0
0
0
0
0
0
0
0
0
0
0
0
0
0
0
0
0
0
0
0
0
0
0
0
0
0
0
0
0
0
0
0
1
1
2
2
3
5
6
9
12
17
23
32
43
58
73
87
96
98
84
70
62
59
57
60
66
72
78
82
85
88
91
94
97
99
101
103
104
106
107
109
111
114
116
118
121
123
125
126
127
128
128
129
129
128
127
124
120
113
103
93
83
76
71
68
67
68
71
76
82
88
93
98
102
106
109
112
114
116
116
116
115
112
108
101
92
79
66
54
45
39
34
32
31
32
35
39
46
56
70
88
100
108
114
118
120
120
120
118
115
112
109
106
102
101
100
101
101
101
101
101
101
102
102
102
103
104
106
107
108
108
107
105
103
100
97
93
89
84
78
70
60
52
49
50
54
62
70
77
85
83
70
55
40
30
22
16
12
8
6
4
3
2
1
1
1
0
0
0
0
0
0
0
0
0
0
0
0
0
0
0
0
0
0
0
0
0
0
0
0
0
0
0
0
0
0
0
0
0
0
0
0
0
0
0
0
0
0
0
0
0
0
0
0
0
0
0
0
0
0
0
0
0
0
0
0
0
0
0
0
0
0
0
0
0
0
0
0
0
0
0
0
0
0
0
0
0
0
0
0
0
0
0
0
0
0
0
0
0
0
0
0
0
0
0
0
0
0
0
0
0
0
0
0
0
0
0
0
0
0
0
0
0
0
0
0
0
0
0
0
0
0
0
0
0
0
0
0
0
0
0
0
0
0
0
0
0
0
0
0
0
0
0
0
0
0
0
0
0
0
0
1
1
2
2
3
5
6
9
12
17
23
31
42
57
72
86
96
99
87
71
62
60
58
59
65
71
77
82
86
89
92
95
98
100
102
103
105
106
108
109
111
113
115
118
120
123
124
126
127
128
128
129
129
129
128
125
122
117
110
103
96
89
85
82
82
83
87
91
95
99
103
106
109
112
114
116
118
119
119
119
118
115
112
106
98
87
75
62
51
43
37
34
32
33
35
39
46
55
69
86
100
109
114
118
120
121
120
118
115
111
108
105
102
99
99
99
99
99
99
99
100
100
100
101
102
105
107
108
108
107
106
104
102
99
95
91
87
81
75
66
57
51
49
51
55
64
71
80
87
81
68
51
38
28
20
15
11
8
6
4
3
2
1
1
1
0
0
0
0
0
0
0
0
0
0
0
0
0
0
0
0
0
0
0
0
0
0
0
0
0
0
0
0
0
0
0
0
0
0
0
0
0
0
0
0
0
0
0
0
0
0
0
0
0
0
0
0
0
0
0
0
0
0
0
0
0
0
0
0
0
0
0
0
0
0
0
0
0
0
0
0
0
0
0
0
0
0
0
0
0
0
0
0
0
0
0
0
0
0
0
0
0
0
0
0
0
0
0
0
0
0
0
0
0
0
0
0
0
0
0
0
0
0
0
0
0
0
0
0
0
0
0
0
0
0
0
0
0
0
0
0
0
0
0
0
0
0
0
0
0
0
0
0
0
0
0
0
0
0
0
1
1
2
2
3
4
6
9
12
16
22
30
41
56
71
85
95
99
91
73
63
60
58
58
63
70
76
82
86
89
92
95
98
100
102
104
105
107
108
109
110
112
114
117
119
122
124
125
126
127
128
129
129
129
128
126
124
120
116
111
106
102
99
97
97
98
99
102
104
107
110
112
114
116
118
119
120
121
121
121
120
118
115
110
103
94
83
71
60
50
42
38
35
35
37
40
47
56
69
86
100
109
115
119
120
121
120
118
115
111
107
104
101
99
98
98
99
100
101
102
102
103
103
104
105
106
108
108
108
107
105
103
100
97
94
90
86
80
73
64
55
50
49
52
58
66
73
84
88
79
64
48
35
26
19
14
10
7
5
4
3
2
1
1
1
0
0
0
0
0
0
0
0
0
0
0
0
0
0
0
0
0
0
0
0
0
0
0
0
0
0
0
0
0
0
0
0
0
0
0
0
0
0
0
0
0
0
0
0
0
0
0
0
0
0
0
0
0
0
0
0
0
0
0
0
0
0
0
0
0
0
0
0
0
0
0
0
0
0
0
0
0
0
0
0
0
0
0
0
0
0
0
0
0
0
0
0
0
0
0
0
0
0
0
0
0
0
0
0
0
0
0
0
0
0
0
0
0
0
0
0
0
0
0
0
0
0
0
0
0
0
0
0
0
0
0
0
0
0
0
0
0
0
0
0
0
0
0
0
0
0
0
0
0
0
0
0
0
0
0
1
1
2
2
3
4
6
9
12
16
22
30
40
55
71
84
95
100
92
75
64
60
58
57
61
68
75
81
86
89
92
95
98
100
102
104
105
107
108
109
110
112
114
116
119
121
123
125
126
127
128
128
129
129
128
127
125
122
119
116
113
110
108
107
107
107
108
110
111
113
115
116
117
119
120
121
122
122
122
122
121
120
117
113
108
101
91
80
68
58
49
43
40
39
40
43
49
58
71
88
101
110
116
119
121
121
121
119
116
112
107
103
100
99
100
101
102
103
104
104
105
106
106
107
108
108
109
109
108
106
104
102
99
96
92
89
85
80
73
63
55
50
50
53
60
69
77
88
87
76
60
44
32
24
17
13
9
7
5
3
2
2
1
1
1
0
0
0
0
0
0
0
0
0
0
0
0
0
0
0
0
0
0
0
0
0
0
0
0
0
0
0
0
0
0
0
0
0
0
0
0
0
0
0
0
0
0
0
0
0
0
0
0
0
0
0
0
0
0
0
0
0
0
0
0
0
0
0
0
0
0
0
0
0
0
0
0
0
0
0
0
0
0
0
0
0
0
0
0
0
0
0
0
0
0
0
0
0
0
0
0
0
0
0
0
0
0
0
0
0
0
0
0
0
0
0
0
0
0
0
0
0
0
0
0
0
0
0
0
0
0
0
0
0
0
0
0
0
0
0
0
0
0
0
0
0
0
0
0
0
0
0
0
0
0
0
0
0
0
0
1
1
1
2
3
4
6
8
12
16
22
29
40
54
70
84
95
100
94
76
65
60
58
57
60
66
73
80
85
89
92
95
97
99
101
103
105
107
108
109
110
112
114
116
118
121
123
125
126
126
127
128
128
128
128
127
125
123
121
120
118
116
115
114
114
113
114
115
116
117
118
119
120
120
121
122
122
123
123
122
122
121
119
116
112
106
98
88
77
67
57
50
46
45
45
48
54
63
76
92
104
112
117
121
122
122
122
120
117
113
109
106
104
103
104
104
105
105
106
107
108
108
109
109
110
110
110
109
108
106
103
100
98
94
91
89
85
80
72
63
54
51
52
55
63
71
81
90
84
71
55
41
30
22
16
12
9
6
4
3
2
2
1
1
0
0
0
0
0
0
0
0
0
0
0
0
0
0
0
0
0
0
0
0
0
0
0
0
0
0
0
0
0
0
0
0
0
0
0
0
0
0
0
0
0
0
0
0
0
0
0
0
0
0
0
0
0
0
0
0
0
0
0
0
0
0
0
0
0
0
0
0
0
0
0
0
0
0
0
0
0
0
0
0
0
0
0
0
0
0
0
0
0
0
0
0
0
0
0
0
0
0
0
0
0
0
0
0
0
0
0
0
0
0
0
0
0
0
0
0
0
0
0
0
0
0
0
0
0
0
0
0
0
0
0
0
0
0
0
0
0
0
0
0
0
0
0
0
0
0
0
0
0
0
0
0
0
0
0
0
1
1
1
2
3
4
6
8
11
16
21
29
39
53
69
83
96
101
95
77
65
60
58
56
58
64
73
80
85
89
92
94
96
98
100
102
104
106
108
109
111
112
114
116
119
121
123
125
126
126
127
127
128
127
127
126
125
124
123
122
121
120
119
119
118
118
118
118
119
119
120
120
120
121
121
121
122
122
122
122
122
122
120
118
115
110
104
96
86
77
67
60
55
52
53
55
61
70
83
97
107
114
119
122
124
124
123
122
119
115
112
109
107
107
107
108
108
108
109
109
109
110
110
111
111
111
110
109
107
105
103
100
97
95
92
89
85
79
71
61
54
52
53
57
66
74
86
90
81
67
51
37
27
20
15
11
8
6
4
3
2
1
1
1
0
0
0
0
0
0
0
0
0
0
0
0
0
0
0
0
0
0
0
0
0
0
0
0
0
0
0
0
0
0
0
0
0
0
0
0
0
0
0
0
0
0
0
0
0
0
0
0
0
0
0
0
0
0
0
0
0
0
0
0
0
0
0
0
0
0
0
0
0
0
0
0
0
0
0
0
0
0
0
0
0
0
0
0
0
0
0
0
0
0
0
0
0
0
0
0
0
0
0
0
0
0
0
0
0
0
0
0
0
0
0
0
0
0
0
0
0
0
0
0
0
0
0
0
0
0
0
0
0
0
0
0
0
0
0
0
0
0
0
0
0
0
0
0
0
0
0
0
0
0
0
0
0
0
0
0
1
1
1
2
3
4
6
8
11
15
21
29
39
53
69
84
96
102
96
78
66
60
59
56
58
64
73
80
85
89
92
94
96
98
100
102
104
106
108
110
112
114
116
118
120
122
124
125
125
126
126
126
126
126
125
125
124
124
123
123
123
122
122
122
121
121
121
121
121
121
121
120
120
120
120
120
120
121
121
122
122
122
121
120
117
114
109
103
95
86
78
71
65
63
63
65
71
80
92
103
111
117
121
124
125
125
125
123
121
118
115
112
110
110
110
110
110
110
110
110
110
111
111
111
111
111
110
109
107
105
103
100
98
96
93
89
84
77
68
59
54
53
55
60
69
77
89
88
77
61
46
34
25
18
13
10
7
5
4
3
2
1
1
1
0
0
0
0
0
0
0
0
0
0
0
0
0
0
0
0
0
0
0
0
0
0
0
0
0
0
0
0
0
0
0
0
0
0
0
0
0
0
0
0
0
0
0
0
0
0
0
0
0
0
0
0
0
0
0
0
0
0
0
0
0
0
0
0
0
0
0
0
0
0
0
0
0
0
0
0
0
0
0
0
0
0
0
0
0
0
0
0
0
0
0
0
0
0
0
0
0
0
0
0
0
0
0
0
0
0
0
0
0
0
0
0
0
0
0
0
0
0
0
0
0
0
0
0
0
0
0
0
0
0
0
0
0
0
0
0
0
0
0
0
0
0
0
0
0
0
0
0
0
0
0
0
0
0
0
0
1
1
1
2
3
4
6
8
11
15
21
29
39
53
70
84
97
103
98
79
67
60
59
57
58
65
74
81
86
90
93
95
96
98
100
102
104
107
109
111
113
115
117
120
121
123
124
125
125
125
125
125
124
124
123
123
122
122
123
123
123
124
124
124
124
123
123
122
122
121
121
120
119
118
118
117
117
118
119
120
121
122
122
121
119
117
113
108
102
95
87
81
76
74
75
78
84
92
102
109
115
120
123
125
126
127
126
125
122
120
117
115
113
113
113
113
112
112
111
111
111
111
111
111
110
110
109
108
106
104
103
101
98
96
92
87
81
74
65
57
53
54
57
64
71
81
89
84
72
56
41
30
22
16
12
9
6
5
3
2
2
1
1
0
0
0
0
0
0
0
0
0
0
0
0
0
0
0
0
0
0
0
0
0
0
0
0
0
0
0
0
0
0
0
0
0
0
0
0
0
0
0
0
0
0
0
0
0
0
0
0
0
0
0
0
0
0
0
0
0
0
0
0
0
0
0
0
0
0
0
0
0
0
0
0
0
0
0
0
0
0
0
0
0
0
0
0
0
0
0
0
0
0
0
0
0
0
0
0
0
0
0
0
0
0
0
0
0
0
0
0
0
0
0
0
0
0
0
0
0
0
0
0
0
0
0
0
0
0
0
0
0
0
0
0
0
0
0
0
0
0
0
0
0
0
0
0
0
0
0
0
0
0
0
0
0
0
0
0
0
1
1
1
2
3
4
6
8
11
15
21
29
39
53
70
85
98
104
100
81
68
61
59
58
59
66
75
81
87
91
94
96
98
100
102
104
106
108
110
113
115
117
119
121
122
123
124
124
124
124
124
123
122
121
120
119
119
120
121
122
123
124
124
125
125
124
124
123
122
121
120
118
117
115
114
114
113
114
116
119
120
121
122
121
121
119
117
113
108
102
96
91
87
85
87
90
96
103
109
115
119
123
125
127
128
128
127
126
124
122
119
117
116
115
114
114
114
113
112
111
111
110
110
109
108
107
106
105
104
103
101
100
97
94
90
85
78
69
60
55
54
55
59
67
74
84
88
79
65
50
37
27
20
15
11
8
6
4
3
2
1
1
1
0
0
0
0
0
0
0
0
0
0
0
0
0
0
0
0
0
0
0
0
0
0
0
0
0
0
0
0
0
0
0
0
0
0
0
0
0
0
0
0
0
0
0
0
0
0
0
0
0
0
0
0
0
0
0
0
0
0
0
0
0
0
0
0
0
0
0
0
0
0
0
0
0
0
0
0
0
0
0
0
0
0
0
0
0
0
0
0
0
0
0
0
0
0
0
0
0
0
0
0
0
0
0
0
0
0
0
0
0
0
0
0
0
0
0
0
0
0
0
0
0
0
0
0
0
0
0
0
0
0
0
0
0
0
0
0
0
0
0
0
0
0
0
0
0
0
0
0
0
0
0
0
0
0
0
0
0
1
1
1
2
3
4
6
8
11
15
21
28
39
54
70
86
99
105
101
83
69
61
59
59
59
65
74
81
87
91
95
97
99
102
104
106
108
110
112
114
117
118
120
122
123
123
124
124
123
123
122
120
118
116
115
114
115
116
118
120
121
123
124
124
125
124
124
123
122
120
119
117
115
113
111
110
109
110
113
116
119
121
122
122
122
121
119
117
113
109
103
99
96
95
97
100
105
111
115
119
123
125
127
128
129
129
128
127
126
123
121
119
118
116
116
115
114
113
112
111
110
108
107
106
105
104
103
102
100
99
98
97
95
92
88
82
75
65
58
55
55
56
61
69
77
87
85
74
59
44
33
24
18
13
10
7
5
4
3
2
1
1
1
0
0
0
0
0
0
0
0
0
0
0
0
0
0
0
0
0
0
0
0
0
0
0
0
0
0
0
0
0
0
0
0
0
0
0
0
0
0
0
0
0
0
0
0
0
0
0
0
0
0
0
0
0
0
0
0
0
0
0
0
0
0
0
0
0
0
0
0
0
0
0
0
0
0
0
0
0
0
0
0
0
0
0
0
0
0
0
0
0
0
0
0
0
0
0
0
0
0
0
0
0
0
0
0
0
0
0
0
0
0
0
0
0
0
0
0
0
0
0
0
0
0
0
0
0
0
0
0
0
0
0
0
0
0
0
0
0
0
0
0
0
0
0
0
0
0
0
0
0
0
0
0
0
0
0
0
0
0
1
1
2
3
4
5
8
11
15
20
28
39
54
70
86
99
106
103
85
70
61
59
59
58
64
73
80
86
91
94
97
100
102
105
107
109
111
113
116
118
119
121
122
123
123
123
123
122
121
119
117
114
112
110
109
110
112
114
117
119
121
122
123
124
124
123
122
121
120
118
116
114
112
110
107
106
108
111
115
117
120
121
122
123
122
121
120
118
115
110
106
104
103
105
108
113
117
120
123
126
127
129
130
130
130
129
128
127
125
123
121
119
118
116
115
114
112
111
109
107
106
104
103
101
100
99
98
96
95
94
93
92
89
85
79
72
63
58
55
57
58
65
72
81
87
81
68
53
39
29
22
16
12
9
6
5
3
2
2
1
1
1
0
0
0
0
0
0
0
0
0
0
0
0
0
0
0
0
0
0
0
0
0
0
0
0
0
0
0
0
0
0
0
0
0
0
0
0
0
0
0
0
0
0
0
0
0
0
0
0
0
0
0
0
0
0
0
0
0
0
0
0
0
0
0
0
0
0
0
0
0
0
0
0
0
0
0
0
0
0
0
0
0
0
0
0
0
0
0
0
0
0
0
0
0
0
0
0
0
0
0
0
0
0
0
0
0
0
0
0
0
0
0
0
0
0
0
0
0
0
0
0
0
0
0
0
0
0
0
0
0
0
0
0
0
0
0
0
0
0
0
0
0
0
0
0
0
0
0
0
0
0
0
0
0
0
0
0
0
0
1
1
2
3
4
5
7
10
14
20
28
38
53
70
86
100
107
104
87
71
62
59
59
58
62
71
78
84
89
93
96
99
102
105
107
109
111
114
116
118
120
121
122
123
123
123
122
120
119
116
113
109
106
103
103
105
108
111
114
117
119
120
122
122
122
122
120
119
118
116
115
113
111
108
106
105
108
111
114
117
119
121
122
123
124
123
122
121
119
116
114
111
111
112
115
118
121
124
126
128
129
130
131
131
130
130
129
128
126
124
122
120
118
116
115
113
111
109
107
105
103
101
99
98
97
96
95
93
91
89
89
87
85
81
76
68
61
57
57
58
61
68
74
84
85
76
62
47
35
26
19
14
11
8
6
4
3
2
2
1
1
0
0
0
0
0
0
0
0
0
0
0
0
0
0
0
0
0
0
0
0
0
0
0
0
0
0
0
0
0
0
0
0
0
0
0
0
0
0
0
0
0
0
0
0
0
0
0
0
0
0
0
0
0
0
0
0
0
0
0
0
0
0
0
0
0
0
0
0
0
0
0
0
0
0
0
0
0
0
0
0
0
0
0
0
0
0
0
0
0
0
0
0
0
0
0
0
0
0
0
0
0
0
0
0
0
0
0
0
0
0
0
0
0
0
0
0
0
0
0
0
0
0
0
0
0
0
0
0
0
0
0
0
0
0
0
0
0
0
0
0
0
0
0
0
0
0
0
0
0
0
0
0
0
0
0
0
0
0
0
1
1
2
3
4
5
7
10
14
20
27
37
51
69
85
99
107
104
89
72
62
58
58
57
60
68
76
82
87
92
95
98
101
104
106
109
111
113
116
118
120
121
122
122
122
122
120
119
117
113
109
105
101
97
97
101
105
109
112
115
117
118
120
121
121
120
118
117
115
114
113
111
108
106
104
105
108
111
114
117
119
121
123
124
125
125
124
123
122
121
120
118
118
118
120
122
125
127
128
130
130
131
131
131
131
130
129
128
127
125
123
121
119
116
114
112
110
108
106
103
101
99
97
96
95
95
94
92
90
87
85
83
81
77
71
64
58
57
59
59
64
71
78
86
82
70
55
41
31
23
17
13
9
7
5
4
3
2
1
1
1
0
0
0
0
0
0
0
0
0
0
0
0
0
0
0
0
0
0
0
0
0
0
0
0
0
0
0
0
0
0
0
0
0
0
0
0
0
0
0
0
0
0
0
0
0
0
0
0
0
0
0
0
0
0
0
0
0
0
0
0
0
0
0
0
0
0
0
0
0
0
0
0
0
0
0
0
0
0
0
0
0
0
0
0
0
0
0
0
0
0
0
0
0
0
0
0
0
0
0
0
0
0
0
0
0
0
0
0
0
0
0
0
0
0
0
0
0
0
0
0
0
0
0
0
0
0
0
0
0
0
0
0
0
0
0
0
0
0
0
0
0
0
0
0
0
0
0
0
0
0
0
0
0
0
0
0
0
0
0
1
1
2
3
4
5
7
10
14
19
26
36
50
67
83
98
106
105
91
73
62
58
57
56
58
65
73
80
86
90
94
97
100
103
105
108
111
113
115
117
119
120
121
121
121
120
119
117
114
110
106
101
97
94
95
99
103
107
110
113
115
117
118
119
119
118
116
114
112
111
110
109
106
104
102
104
107
111
114
117
119
121
123
125
125
126
126
126
125
124
124
123
123
124
125
126
127
129
130
131
131
132
132
132
131
130
129
128
127
125
124
122
119
117
114
112
110
108
105
103
100
98
97
97
96
96
95
93
90
86
82
79
75
71
66
59
57
58
60
61
67
74
82
86
77
64
49
37
27
20
15
11
8
6
4
3
2
2
1
1
1
0
0
0
0
0
0
0
0
0
0
0
0
0
0
0
0
0
0
0
0
0
0
0
0
0
0
0
0
0
0
0
0
0
0
0
0
0
0
0
0
0
0
0
0
0
0
0
0
0
0
0
0
0
0
0
0
0
0
0
0
0
0
0
0
0
0
0
0
0
0
0
0
0
0
0
0
0
0
0
0
0
0
0
0
0
0
0
0
0
0
0
0
0
0
0
0
0
0
0
0
0
0
0
0
0
0
0
0
0
0
0
0
0
0
0
0
0
0
0
0
0
0
0
0
0
0
0
0
0
0
0
0
0
0
0
0
0
0
0
0
0
0
0
0
0
0
0
0
0
0
0
0
0
0
0
0
0
0
0
1
1
2
2
3
5
7
10
13
18
25
35
48
65
81
96
104
104
93
75
63
57
56
55
57
63
71
78
84
89
93
97
100
103
105
108
110
113
115
116
117
118
119
120
120
119
117
115
112
107
102
97
94
94
96
98
102
105
108
111
114
115
117
117
117
116
114
111
110
109
108
106
104
101
100
103
107
110
113
116
119
121
123
125
126
127
127
127
127
127
127
126
126
127
128
129
130
131
131
132
132
132
132
132
131
131
130
128
127
126
124
122
120
118
116
114
112
109
107
105
103
102
101
100
99
98
97
94
91
87
81
76
70
64
60
57
57
59
61
63
69
77
85
83
72
58
43
32
24
18
13
10
7
5
4
3
2
2
1
1
1
0
0
0
0
0
0
0
0
0
0
0
0
0
0
0
0
0
0
0
0
0
0
0
0
0
0
0
0
0
0
0
0
0
0
0
0
0
0
0
0
0
0
0
0
0
0
0
0
0
0
0
0
0
0
0
0
0
0
0
0
0
0
0
0
0
0
0
0
0
0
0
0
0
0
0
0
0
0
0
0
0
0
0
0
0
0
0
0
0
0
0
0
0
0
0
0
0
0
0
0
0
0
0
0
0
0
0
0
0
0
0
0
0
0
0
0
0
0
0
0
0
0
0
0
0
0
0
0
0
0
0
0
0
0
0
0
0
0
0
0
0
0
0
0
0
0
0
0
0
0
0
0
0
0
0
0
0
0
0
1
1
2
2
3
5
7
9
13
18
24
34
46
63
79
93
103
105
96
77
64
57
56
55
57
63
71
78
83
88
92
96
99
103
106
108
110
112
113
114
115
116
117
118
118
117
116
113
109
104
98
94
93
95
97
99
101
104
107
109
112
114
115
116
115
114
112
109
108
106
105
103
101
99
98
102
105
109
112
115
118
121
123
125
127
128
128
128
128
129
128
129
129
129
130
131
131
132
132
132
132
132
132
132
131
130
129
128
127
126
124
123
121
119
117
116
114
112
110
108
107
105
104
103
102
100
98
95
91
86
80
75
67
60
57
56
59
61
61
65
71
81
86
79
66
51
38
29
21
16
12
9
6
5
3
3
2
1
1
1
0
0
0
0
0
0
0
0
0
0
0
0
0
0
0
0
0
0
0
0
0
0
0
0
0
0
0
0
0
0
0
0
0
0
0
0
0
0
0
0
0
0
0
0
0
0
0
0
0
0
0
0
0
0
0
0
0
0
0
0
0
0
0
0
0
0
0
0
0
0
0
0
0
0
0
0
0
0
0
0
0
0
0
0
0
0
0
0
0
0
0
0
0
0
0
0
0
0
0
0
0
0
0
0
0
0
0
0
0
0
0
0
0
0
0
0
0
0
0
0
0
0
0
0
0
0
0
0
0
0
0
0
0
0
0
0
0
0
0
0
0
0
0
0
0
0
0
0
0
0
0
0
0
0
0
0
0
0
0
0
1
1
2
2
3
4
6
9
12
17
23
32
44
60
76
91
102
105
98
79
66
58
56
55
58
64
72
79
84
88
92
96
99
103
105
108
109
110
111
111
112
113
114
116
116
116
114
112
107
101
94
92
94
96
98
100
101
103
105
108
110
112
113
114
114
113
111
108
106
105
103
101
98
96
96
101
104
108
111
114
116
119
123
125
126
127
128
129
129
129
130
130
130
131
131
131
132
132
132
132
132
132
132
131
130
130
129
128
127
126
124
123
122
120
119
117
115
114
112
111
109
108
107
105
104
101
99
95
91
86
80
74
65
59
56
58
62
62
63
67
73
83
84
74
59
45
34
25
19
14
10
8
6
4
3
2
2
1
1
1
0
0
0
0
0
0
0
0
0
0
0
0
0
0
0
0
0
0
0
0
0
0
0
0
0
0
0
0
0
0
0
0
0
0
0
0
0
0
0
0
0
0
0
0
0
0
0
0
0
0
0
0
0
0
0
0
0
0
0
0
0
0
0
0
0
0
0
0
0
0
0
0
0
0
0
0
0
0
0
0
0
0
0
0
0
0
0
0
0
0
0
0
0
0
0
0
0
0
0
0
0
0
0
0
0
0
0
0
0
0
0
0
0
0
0
0
0
0
0
0
0
0
0
0
0
0
0
0
0
0
0
0
0
0
0
0
0
0
0
0
0
0
0
0
0
0
0
0
0
0
0
0
0
0
0
0
0
0
0
0
1
1
1
2
3
4
6
8
11
16
22
30
41
56
73
88
100
105
100
82
68
59
56
56
58
65
73
80
85
90
93
97
100
103
105
107
108
108
108
108
109
110
112
114
115
115
113
111
106
100
93
93
94
97
99
100
101
102
104
106
108
110
111
113
113
112
111
109
106
104
102
98
95
94
96
100
103
107
109
112
115
119
122
124
125
127
128
128
129
129
130
130
131
131
132
132
132
132
132
132
132
132
131
131
130
129
128
127
126
125
124
123
121
120
119
118
117
115
114
112
111
109
108
106
104
102
99
95
91
86
79
72
64
58
57
61
63
63
66
70
75
82
79
67
53
40
30
22
17
12
9
7
5
4
3
2
1
1
1
0
0
0
0
0
0
0
0
0
0
0
0
0
0
0
0
0
0
0
0
0
0
0
0
0
0
0
0
0
0
0
0
0
0
0
0
0
0
0
0
0
0
0
0
0
0
0
0
0
0
0
0
0
0
0
0
0
0
0
0
0
0
0
0
0
0
0
0
0
0
0
0
0
0
0
0
0
0
0
0
0
0
0
0
0
0
0
0
0
0
0
0
0
0
0
0
0
0
0
0
0
0
0
0
0
0
0
0
0
0
0
0
0
0
0
0
0
0
0
0
0
0
0
0
0
0
0
0
0
0
0
0
0
0
0
0
0
0
0
0
0
0
0
0
0
0
0
0
0
0
0
0
0
0
0
0
0
0
0
0
0
1
1
1
2
3
4
6
8
11
15
20
28
38
52
69
84
97
104
102
86
70
61
57
56
58
65
73
80
86
90
94
97
100
102
104
104
105
105
105
105
106
108
111
112
114
114
113
110
106
101
95
95
97
98
99
100
101
102
102
104
106
108
109
111
112
112
111
109
107
104
101
98
94
95
98
101
104
107
110
113
115
118
121
123
124
125
126
127
128
129
129
130
131
131
132
132
132
132
132
132
132
131
131
130
129
128
127
125
125
124
123
122
121
120
119
118
117
116
114
113
111
109
107
105
103
100
97
94
89
84
78
70
62
57
58
63
63
65
69
74
75
78
73
60
46
35
26
19
14
11
8
6
4
3
2
2
1
1
1
0
0
0
0
0
0
0
0
0
0
0
0
0
0
0
0
0
0
0
0
0
0
0
0
0
0
0
0
0
0
0
0
0
0
0
0
0
0
0
0
0
0
0
0
0
0
0
0
0
0
0
0
0
0
0
0
0
0
0
0
0
0
0
0
0
0
0
0
0
0
0
0
0
0
0
0
0
0
0
0
0
0
0
0
0
0
0
0
0
0
0
0
0
0
0
0
0
0
0
0
0
0
0
0
0
0
0
0
0
0
0
0
0
0
0
0
0
0
0
0
0
0
0
0
0
0
0
0
0
0
0
0
0
0
0
0
0
0
0
0
0
0
0
0
0
0
0
0
0
0
0
0
0
0
0
0
0
0
0
0
0
0
1
1
2
3
4
5
7
10
14
19
26
35
49
65
80
94
102
103
91
73
62
57
56
57
63
71
78
85
90
94
97
99
100
101
101
101
101
101
103
105
108
110
112
113
114
113
110
107
103
98
98
99
100
100
101
101
101
102
102
104
105
107
109
110
111
110
109
107
104
101
98
95
97
100
103
106
109
111
114
116
118
120
122
123
123
124
125
126
127
128
129
130
131
132
132
132
132
132
131
131
130
130
129
128
127
125
124
123
122
121
120
119
119
118
118
117
116
114
112
110
108
106
104
101
98
95
92
87
82
75
67
59
56
59
63
63
67
72
79
80
78
68
54
40
30
23
17
13
9
7
5
4
3
2
1
1
1
0
0
0
0
0
0
0
0
0
0
0
0
0
0
0
0
0
0
0
0
0
0
0
0
0
0
0
0
0
0
0
0
0
0
0
0
0
0
0
0
0
0
0
0
0
0
0
0
0
0
0
0
0
0
0
0
0
0
0
0
0
0
0
0
0
0
0
0
0
0
0
0
0
0
0
0
0
0
0
0
0
0
0
0
0
0
0
0
0
0
0
0
0
0
0
0
0
0
0
0
0
0
0
0
0
0
0
0
0
0
0
0
0
0
0
0
0
0
0
0
0
0
0
0
0
0
0
0
0
0
0
0
0
0
0
0
0
0
0
0
0
0
0
0
0
0
0
0
0
0
0
0
0
0
0
0
0
0
0
0
0
0
0
1
1
2
2
3
5
7
9
13
17
24
33
45
60
76
90
100
104
95
77
64
58
56
56
59
68
76
82
88
93
95
96
97
98
98
98
98
99
102
105
108
110
112
113
114
113
111
108
104
101
101
102
102
102
101
101
101
101
101
102
103
105
107
109
110
109
108
106
103
101
98
97
99
102
105
108
110
112
114
116
118
119
120
120
121
121
122
123
125
127
128
129
130
131
131
131
131
131
131
130
130
129
128
127
126
124
122
121
120
119
118
117
116
116
116
116
115
114
112
110
107
104
102
99
96
93
89
84
78
71
63
57
56
59
63
65
72
79
85
83
74
61
47
35
26
20
15
11
8
6
4
3
2
2
1
1
1
0
0
0
0
0
0
0
0
0
0
0
0
0
0
0
0
0
0
0
0
0
0
0
0
0
0
0
0
0
0
0
0
0
0
0
0
0
0
0
0
0
0
0
0
0
0
0
0
0
0
0
0
0
0
0
0
0
0
0
0
0
0
0
0
0
0
0
0
0
0
0
0
0
0
0
0
0
0
0
0
0
0
0
0
0
0
0
0
0
0
0
0
0
0
0
0
0
0
0
0
0
0
0
0
0
0
0
0
0
0
0
0
0
0
0
0
0
0
0
0
0
0
0
0
0
0
0
0
0
0
0
0
0
0
0
0
0
0
0
0
0
0
0
0
0
0
0
0
0
0
0
0
0
0
0
0
0
0
0
0
0
0
0
1
1
1
2
3
4
6
8
12
16
22
30
41
55
71
86
98
104
99
82
67
59
56
55
57
63
72
79
86
90
92
93
94
94
95
95
96
98
101
104
107
110
112
113
114
113
112
109
106
103
103
104
105
104
102
101
101
100
100
99
100
102
105
107
108
108
107
104
102
99
97
98
101
104
107
109
111
113
115
116
117
117
117
117
117
118
119
121
123
125
127
128
129
130
131
131
130
130
130
129
129
128
127
126
124
123
121
120
118
116
115
114
113
114
114
114
114
113
111
109
107
104
101
97
94
90
85
80
74
67
59
56
57
60
63
69
77
86
86
78
66
52
40
30
22
17
13
9
7
5
4
3
2
1
1
1
0
0
0
0
0
0
0
0
0
0
0
0
0
0
0
0
0
0
0
0
0
0
0
0
0
0
0
0
0
0
0
0
0
0
0
0
0
0
0
0
0
0
0
0
0
0
0
0
0
0
0
0
0
0
0
0
0
0
0
0
0
0
0
0
0
0
0
0
0
0
0
0
0
0
0
0
0
0
0
0
0
0
0
0
0
0
0
0
0
0
0
0
0
0
0
0
0
0
0
0
0
0
0
0
0
0
0
0
0
0
0
0
0
0
0
0
0
0
0
0
0
0
0
0
0
0
0
0
0
0
0
0
0
0
0
0
0
0
0
0
0
0
0
0
0
0
0
0
0
0
0
0
0
0
0
0
0
0
0
0
0
0
0
0
1
1
1
2
3
4
6
8
11
15
20
27
37
50
67
82
95
103
102
88
71
61
56
54
55
59
67
76
82
87
89
90
90
91
92
92
94
97
101
104
107
110
112
113
114
114
112
110
107
105
105
106
107
106
104
101
100
99
98
97
98
100
102
105
106
106
105
102
99
95
96
99
102
105
108
110
112
113
114
115
115
115
114
114
113
114
116
119
121
123
125
127
128
129
130
130
130
129
129
128
128
127
126
125
123
121
119
117
116
114
112
111
110
111
111
112
112
112
111
109
106
103
100
97
93
88
83
77
70
62
57
56
58
61
65
73
83
88
82
71
57
44
33
25
19
14
11
8
6
4
3
2
2
1
1
1
0
0
0
0
0
0
0
0
0
0
0
0
0
0
0
0
0
0
0
0
0
0
0
0
0
0
0
0
0
0
0
0
0
0
0
0
0
0
0
0
0
0
0
0
0
0
0
0
0
0
0
0
0
0
0
0
0
0
0
0
0
0
0
0
0
0
0
0
0
0
0
0
0
0
0
0
0
0
0
0
0
0
0
0
0
0
0
0
0
0
0
0
0
0
0
0
0
0
0
0
0
0
0
0
0
0
0
0
0
0
0
0
0
0
0
0
0
0
0
0
0
0
0
0
0
0
0
0
0
0
0
0
0
0
0
0
0
0
0
0
0
0
0
0
0
0
0
0
0
0
0
0
0
0
0
0
0
0
0
0
0
0
0
0
0
1
1
2
3
4
5
7
10
13
18
25
34
45
61
77
91
100
102
93
76
64
57
54
53
56
63
72
79
84
87
87
86
87
87
89
92
97
100
104
107
110
112
114
114
114
113
110
108
106
107
108
108
108
106
103
101
99
97
95
94
97
100
103
104
104
103
100
97
93
95
99
102
105
108
110
112
112
113
112
112
112
111
110
111
113
115
117
119
122
124
126
127
128
128
129
129
128
128
127
126
126
125
124
122
120
118
116
114
112
110
108
107
108
108
109
110
110
109
108
106
103
99
95
91
86
80
73
66
59
56
57
59
62
69
79
88
85
75
62
48
37
28
22
16
12
9
7
5
4
3
2
1
1
1
0
0
0
0
0
0
0
0
0
0
0
0
0
0
0
0
0
0
0
0
0
0
0
0
0
0
0
0
0
0
0
0
0
0
0
0
0
0
0
0
0
0
0
0
0
0
0
0
0
0
0
0
0
0
0
0
0
0
0
0
0
0
0
0
0
0
0
0
0
0
0
0
0
0
0
0
0
0
0
0
0
0
0
0
0
0
0
0
0
0
0
0
0
0
0
0
0
0
0
0
0
0
0
0
0
0
0
0
0
0
0
0
0
0
0
0
0
0
0
0
0
0
0
0
0
0
0
0
0
0
0
0
0
0
0
0
0
0
0
0
0
0
0
0
0
0
0
0
0
0
0
0
0
0
0
0
0
0
0
0
0
0
0
0
0
0
1
1
2
2
3
4
6
9
12
16
22
30
41
55
70
84
95
101
98
82
68
59
54
53
54
59
68
75
81
84
84
83
82
83
86
91
96
100
104
107
110
112
114
114
114
113
111
109
107
108
109
110
109
108
105
103
100
97
94
93
95
99
101
102
102
101
99
96
93
96
99
103
106
108
109
110
110
110
110
109
108
108
108
109
111
114
116
119
121
123
125
126
127
127
127
127
127
127
126
125
124
124
122
121
119
116
114
112
110
108
106
104
104
105
106
107
107
107
106
104
102
98
94
89
84
77
69
61
57
56
59
61
65
74
85
88
81
68
54
41
31
24
18
14
10
8
6
4
3
2
2
1
1
1
0
0
0
0
0
0
0
0
0
0
0
0
0
0
0
0
0
0
0
0
0
0
0
0
0
0
0
0
0
0
0
0
0
0
0
0
0
0
0
0
0
0
0
0
0
0
0
0
0
0
0
0
0
0
0
0
0
0
0
0
0
0
0
0
0
0
0
0
0
0
0
0
0
0
0
0
0
0
0
0
0
0
0
0
0
0
0
0
0
0
0
0
0
0
0
0
0
0
0
0
0
0
0
0
0
0
0
0
0
0
0
0
0
0
0
0
0
0
0
0
0
0
0
0
0
0
0
0
0
0
0
0
0
0
0
0
0
0
0
0
0
0
0
0
0
0
0
0
0
0
0
0
0
0
0
0
0
0
0
0
0
0
0
0
0
0
1
1
1
2
3
4
6
8
11
14
20
26
36
48
63
77
89
98
100
90
74
62
56
53
53
56
63
72
77
80
81
80
79
81
85
91
95
100
104
107
110
112
114
114
114
113
111
109
108
109
110
111
111
109
107
105
103
100
98
96
95
98
99
100
100
99
97
95
93
97
100
102
105
107
108
108
107
107
106
105
105
106
106
108
111
114
116
118
120
122
123
124
125
126
126
126
126
125
124
124
123
122
121
120
118
115
113
111
109
107
104
102
101
102
103
104
105
105
104
102
99
96
91
86
80
73
64
58
57
59
60
63
70
81
88
85
74
60
46
35
27
20
16
12
9
7
5
4
3
2
1
1
1
0
0
0
0
0
0
0
0
0
0
0
0
0
0
0
0
0
0
0
0
0
0
0
0
0
0
0
0
0
0
0
0
0
0
0
0
0
0
0
0
0
0
0
0
0
0
0
0
0
0
0
0
0
0
0
0
0
0
0
0
0
0
0
0
0
0
0
0
0
0
0
0
0
0
0
0
0
0
0
0
0
0
0
0
0
0
0
0
0
0
0
0
0
0
0
0
0
0
0
0
0
0
0
0
0
0
0
0
0
0
0
0
0
0
0
0
0
0
0
0
0
0
0
0
0
0
0
0
0
0
0
0
0
0
0
0
0
0
0
0
0
0
0
0
0
0
0
0
0
0
0
0
0
0
0
0
0
0
0
0
0
0
0
0
0
0
0
0
1
1
2
3
4
5
7
9
13
17
23
31
42
55
70
83
94
101
97
82
68
58
54
53
54
59
67
72
76
77
77
76
79
85
90
95
99
103
107
109
112
113
114
114
113
112
110
109
110
111
112
112
111
109
107
105
103
102
100
98
97
97
97
97
95
94
93
94
97
99
102
104
105
105
105
104
103
102
103
103
104
106
109
111
114
116
118
119
120
121
122
123
124
124
124
124
123
123
122
122
121
121
119
117
115
113
111
109
107
104
101
98
99
100
102
102
103
102
99
96
92
88
82
76
69
61
57
58
61
62
67
76
87
87
79
66
52
39
30
23
17
13
10
8
6
4
3
2
2
1
1
1
0
0
0
0
0
0
0
0
0
0
0
0
0
0
0
0
0
0
0
0
0
0
0
0
0
0
0
0
0
0
0
0
0
0
0
0
0
0
0
0
0
0
0
0
0
0
0
0
0
0
0
0
0
0
0
0
0
0
0
0
0
0
0
0
0
0
0
0
0
0
0
0
0
0
0
0
0
0
0
0
0
0
0
0
0
0
0
0
0
0
0
0
0
0
0
0
0
0
0
0
0
0
0
0
0
0
0
0
0
0
0
0
0
0
0
0
0
0
0
0
0
0
0
0
0
0
0
0
0
0
0
0
0
0
0
0
0
0
0
0
0
0
0
0
0
0
0
0
0
0
0
0
0
0
0
0
0
0
0
0
0
0
0
0
0
0
0
0
1
1
2
2
3
4
6
8
11
15
20
27
36
48
63
77
90
99
101
92
75
62
55
53
53
55
61
67
71
73
73
74
79
84
89
94
98
102
106
109
111
113
114
114
113
112
110
110
111
112
113
113
112
111
109
107
106
104
102
100
97
95
94
93
91
90
90
93
96
98
100
101
101
101
101
100
99
99
100
102
104
107
109
112
114
115
116
117
118
119
120
122
122
123
122
122
121
121
121
120
120
119
119
117
115
113
111
109
107
104
101
97
96
97
99
100
100
99
96
93
88
83
77
70
63
58
57
60
62
65
72
83
88
83
72
58
44
34
26
19
15
11
8
6
5
4
3
2
1
1
1
0
0
0
0
0
0
0
0
0
0
0
0
0
0
0
0
0
0
0
0
0
0
0
0
0
0
0
0
0
0
0
0
0
0
0
0
0
0
0
0
0
0
0
0
0
0
0
0
0
0
0
0
0
0
0
0
0
0
0
0
0
0
0
0
0
0
0
0
0
0
0
0
0
0
0
0
0
0
0
0
0
0
0
0
0
0
0
0
0
0
0
0
0
0
0
0
0
0
0
0
0
0
0
0
0
0
0
0
0
0
0
0
0
0
0
0
0
0
0
0
0
0
0
0
0
0
0
0
0
0
0
0
0
0
0
0
0
0
0
0
0
0
0
0
0
0
0
0
0
0
0
0
0
0
0
0
0
0
0
0
0
0
0
0
0
0
0
0
0
1
1
1
2
3
4
5
7
10
13
17
23
31
41
55
70
84
95
101
98
83
68
58
53
52
53
56
62
65
67
68
71
76
82
88
93
97
101
104
107
110
112
113
113
113
112
111
111
112
113
113
113
113
112
110
109
108
106
104
101
98
95
92
90
87
85
86
91
94
96
97
98
98
97
96
96
95
96
99
102
105
107
110
112
113
115
115
115
115
116
118
119
121
121
121
120
119
119
119
119
118
118
118
117
115
113
111
109
107
104
101
97
94
95
96
97
97
95
92
88
83
77
71
64
59
57
59
61
63
70
79
88
87
78
65
50
38
29
22
17
13
10
7
5
4
3
2
2
1
1
1
0
0
0
0
0
0
0
0
0
0
0
0
0
0
0
0
0
0
0
0
0
0
0
0
0
0
0
0
0
0
0
0
0
0
0
0
0
0
0
0
0
0
0
0
0
0
0
0
0
0
0
0
0
0
0
0
0
0
0
0
0
0
0
0
0
0
0
0
0
0
0
0
0
0
0
0
0
0
0
0
0
0
0
0
0
0
0
0
0
0
0
0
0
0
0
0
0
0
0
0
0
0
0
0
0
0
0
0
0
0
0
0
0
0
0
0
0
0
0
0
0
0
0
0
0
0
0
0
0
0
0
0
0
0
0
0
0
0
0
0
0
0
0
0
0
0
0
0
0
0
0
0
0
0
0
0
0
0
0
0
0
0
0
0
0
0
0
0
0
0
1
1
2
2
3
4
6
8
11
15
20
27
36
48
63
77
90
98
100
91
75
62
55
52
51
52
56
59
61
62
66
73
80
86
91
95
99
103
106
108
111
112
113
113
112
112
112
113
113
114
114
113
112
111
110
109
107
105
102
98
94
91
88
84
82
83
89
92
94
95
94
93
92
91
90
91
94
98
102
105
107
110
111
113
113
113
113
112
114
116
118
119
119
118
117
117
117
117
117
117
117
117
116
115
113
111
109
107
104
101
98
94
93
94
94
93
91
88
83
77
70
64
59
57
58
60
62
67
76
87
90
83
71
57
43
33
25
19
14
11
8
6
5
3
2
2
1
1
1
1
0
0
0
0
0
0
0
0
0
0
0
0
0
0
0
0
0
0
0
0
0
0
0
0
0
0
0
0
0
0
0
0
0
0
0
0
0
0
0
0
0
0
0
0
0
0
0
0
0
0
0
0
0
0
0
0
0
0
0
0
0
0
0
0
0
0
0
0
0
0
0
0
0
0
0
0
0
0
0
0
0
0
0
0
0
0
0
0
0
0
0
0
0
0
0
0
0
0
0
0
0
0
0
0
0
0
0
0
0
0
0
0
0
0
0
0
0
0
0
0
0
0
0
0
0
0
0
0
0
0
0
0
0
0
0
0
0
0
0
0
0
0
0
0
0
0
0
0
0
0
0
0
0
0
0
0
0
0
0
0
0
0
0
0
0
0
0
0
0
0
1
1
1
2
3
4
5
7
10
13
17
23
31
41
55
70
83
93
99
97
84
68
58
53
51
51
51
53
54
56
61
69
76
83
89
93
97
101
104
107
109
111
112
113
113
112
112
113
114
114
114
113
112
111
110
109
107
105
102
98
95
91
87
83
81
84
89
92
93
93
92
91
88
87
87
89
93
97
101
105
108
110
111
111
111
110
110
110
111
114
116
117
117
116
115
114
115
116
116
116
115
115
115
115
113
112
110
107
105
102
98
95
92
91
90
89
86
82
77
70
63
59
57
58
60
61
66
74
86
92
87
77
63
49
37
28
21
16
12
9
7
5
4
3
2
2
1
1
1
1
0
0
0
0
0
0
0
0
0
0
0
0
0
0
0
0
0
0
0
0
0
0
0
0
0
0
0
0
0
0
0
0
0
0
0
0
0
0
0
0
0
0
0
0
0
0
0
0
0
0
0
0
0
0
0
0
0
0
0
0
0
0
0
0
0
0
0
0
0
0
0
0
0
0
0
0
0
0
0
0
0
0
0
0
0
0
0
0
0
0
0
0
0
0
0
0
0
0
0
0
0
0
0
0
0
0
0
0
0
0
0
0
0
0
0
0
0
0
0
0
0
0
0
0
0
0
0
0
0
0
0
0
0
0
0
0
0
0
0
0
0
0
0
0
0
0
0
0
0
0
0
0
0
0
0
0
0
0
0
0
0
0
0
0
0
0
0
0
0
0
0
1
1
2
2
3
4
6
8
11
15
20
27
35
47
61
74
86
94
97
91
76
63
55
51
50
48
48
49
51
55
64
72
80
86
91
95
98
102
105
108
110
111
112
112
113
113
113
114
114
114
113
112
111
110
109
107
105
102
99
95
92
88
83
83
88
92
94
96
95
94
92
89
88
87
88
92
97
101
105
107
109
110
110
109
107
106
107
110
112
115
116
116
114
113
112
112
114
115
115
114
114
114
114
113
112
110
107
105
102
98
95
91
88
86
84
81
76
70
63
59
57
58
60
61
65
72
83
92
91
82
69
54
41
31
24
18
14
10
8
6
4
3
2
2
1
1
1
0
0
0
0
0
0
0
0
0
0
0
0
0
0
0
0
0
0
0
0
0
0
0
0
0
0
0
0
0
0
0
0
0
0
0
0
0
0
0
0
0
0
0
0
0
0
0
0
0
0
0
0
0
0
0
0
0
0
0
0
0
0
0
0
0
0
0
0
0
0
0
0
0
0
0
0
0
0
0
0
0
0
0
0
0
0
0
0
0
0
0
0
0
0
0
0
0
0
0
0
0
0
0
0
0
0
0
0
0
0
0
0
0
0
0
0
0
0
0
0
0
0
0
0
0
0
0
0
0
0
0
0
0
0
0
0
0
0
0
0
0
0
0
0
0
0
0
0
0
0
0
0
0
0
0
0
0
0
0
0
0
0
0
0
0
0
0
0
0
0
0
0
0
1
1
1
2
3
4
5
7
9
13
17
22
30
39
51
65
77
88
94
94
83
68
59
53
50
49
47
47
48
51
59
68
75
82
88
92
96
100
103
106
108
110
111
112
112
113
113
113
113
113
113
112
111
110
108
107
105
102
100
96
92
88
84
86
90
94
97
98
98
97
94
92
90
88
89
92
97
102
105
107
109
109
107
106
104
103
106
108
112
114
114
114
112
110
109
110
112
113
113
113
113
113
113
112
111
109
107
104
101
98
94
90
86
82
78
74
69
63
58
57
57
59
61
64
71
81
92
93
86
75
60
46
35
27
20
15
12
9
7
5
4
3
2
1
1
1
1
0
0
0
0
0
0
0
0
0
0
0
0
0
0
0
0
0
0
0
0
0
0
0
0
0
0
0
0
0
0
0
0
0
0
0
0
0
0
0
0
0
0
0
0
0
0
0
0
0
0
0
0
0
0
0
0
0
0
0
0
0
0
0
0
0
0
0
0
0
0
0
0
0
0
0
0
0
0
0
0
0
0
0
0
0
0
0
0
0
0
0
0
0
0
0
0
0
0
0
0
0
0
0
0
0
0
0
0
0
0
0
0
0
0
0
0
0
0
0
0
0
0
0
0
0
0
0
0
0
0
0
0
0
0
0
0
0
0
0
0
0
0
0
0
0
0
0
0
0
0
0
0
0
0
0
0
0
0
0
0
0
0
0
0
0
0
0
0
0
0
0
0
0
0
1
1
2
2
3
4
6
8
11
14
19
25
32
42
54
67
79
88
93
89
76
65
56
51
49
48
46
47
49
54
62
71
78
84
90
94
98
101
104
106
108
110
111
111
111
112
112
112
112
112
111
111
109
108
106
104
102
100
96
92
87
85
89
93
96
99
100
100
99
97
95
92
91
91
95
99
103
106
107
108
107
105
103
100
101
105
108
111
113
113
112
110
108
107
108
110
112
112
112
112
112
111
110
109
107
105
103
100
96
92
88
83
77
70
65
60
57
56
57
59
61
63
69
79
91
95
90
80
66
51
39
30
22
17
13
10
7
5
4
3
2
2
1
1
1
0
0
0
0
0
0
0
0
0
0
0
0
0
0
0
0
0
0
0
0
0
0
0
0
0
0
0
0
0
0
0
0
0
0
0
0
0
0
0
0
0
0
0
0
0
0
0
0
0
0
0
0
0
0
0
0
0
0
0
0
0
0
0
0
0
0
0
0
0
0
0
0
0
0
0
0
0
0
0
0
0
0
0
0
0
0
0
0
0
0
0
0
0
0
0
0
0
0
0
0
0
0
0
0
0
0
0
0
0
0
0
0
0
0
0
0
0
0
0
0
0
0
0
0
0
0
0
0
0
0
0
0
0
0
0
0
0
0
0
0
0
0
0
0
0
0
0
0
0
0
0
0
0
0
0
0
0
0
0
0
0
0
0
0
0
0
0
0
0
0
0
0
0
0
0
1
1
1
2
3
4
5
7
9
12
16
21
27
35
45
57
69
80
88
91
86
74
62
55
50
49
48
47
48
51
57
66
74
81
87
92
96
99
102
104
106
108
109
109
109
109
109
110
110
110
110
110
109
107
105
104
102
99
95
91
85
85
90
94
98
100
102
102
101
99
96
94
93
94
97
101
104
106
107
107
105
102
98
97
100
104
107
110
112
112
111
108
106
105
107
109
110
111
111
111
110
109
108
107
105
103
100
97
94
89
85
79
73
64
59
56
56
57
59
60
63
68
77
89
96
93
84
71
56
43
33
25
19
14
11
8
6
5
3
3
2
1
1
1
1
0
0
0
0
0
0
0
0
0
0
0
0
0
0
0
0
0
0
0
0
0
0
0
0
0
0
0
0
0
0
0
0
0
0
0
0
0
0
0
0
0
0
0
0
0
0
0
0
0
0
0
0
0
0
0
0
0
0
0
0
0
0
0
0
0
0
0
0
0
0
0
0
0
0
0
0
0
0
0
0
0
0
0
0
0
0
0
0
0
0
0
0
0
0
0
0
0
0
0
0
0
0
0
0
0
0
0
0
0
0
0
0
0
0
0
0
0
0
0
0
0
0
0
0
0
0
0
0
0
0
0
0
0
0
0
0
0
0
0
0
0
0
0
0
0
0
0
0
0
0
0
0
0
0
0
0
0
0
0
0
0
0
0
0
0
0
0
0
0
0
0
0
0
0
0
0
1
1
2
2
3
4
6
7
10
13
17
22
29
37
48
60
72
82
89
91
84
71
60
53
50
49
48
48
49
53
61
70
77
83
89
93
96
99
102
104
106
107
107
107
106
106
107
108
108
109
109
108
107
105
103
101
98
94
89
84
83
89
94
98
101
103
104
103
100
97
95
94
95
98
102
104
106
106
105
102
98
94
95
99
103
107
109
111
111
109
107
104
103
105
107
109
109
110
109
109
107
106
104
102
100
97
94
90
85
80
74
67
60
56
55
57
59
60
62
68
76
87
95
94
87
75
61
47
36
27
21
16
12
9
7
5
4
3
2
2
1
1
1
0
0
0
0
0
0
0
0
0
0
0
0
0
0
0
0
0
0
0
0
0
0
0
0
0
0
0
0
0
0
0
0
0
0
0
0
0
0
0
0
0
0
0
0
0
0
0
0
0
0
0
0
0
0
0
0
0
0
0
0
0
0
0
0
0
0
0
0
0
0
0
0
0
0
0
0
0
0
0
0
0
0
0
0
0
0
0
0
0
0
0
0
0
0
0
0
0
0
0
0
0
0
0
0
0
0
0
0
0
0
0
0
0
0
0
0
0
0
0
0
0
0
0
0
0
0
0
0
0
0
0
0
0
0
0
0
0
0
0
0
0
0
0
0
0
0
0
0
0
0
0
0
0
0
0
0
0
0
0
0
0
0
0
0
0
0
0
0
0
0
0
0
0
0
0
0
0
1
1
1
2
3
3
5
6
8
11
14
19
24
31
40
51
63
74
84
90
90
81
68
58
53
50
49
49
49
51
57
65
73
79
84
89
92
96
99
101
103
104
104
103
103
103
104
106
107
107
107
107
105
104
102
99
96
92
87
83
84
88
93
97
101
104
105
104
102
99
96
95
96
99
102
104
106
105
103
100
95
91
94
98
102
106
108
110
109
108
105
102
102
103
105
107
107
108
107
107
105
103
101
98
96
93
89
84
80
74
68
61
56
55
56
59
60
62
67
74
86
95
94
89
78
64
50
39
30
23
17
13
10
8
6
4
3
2
2
1
1
1
1
0
0
0
0
0
0
0
0
0
0
0
0
0
0
0
0
0
0
0
0
0
0
0
0
0
0
0
0
0
0
0
0
0
0
0
0
0
0
0
0
0
0
0
0
0
0
0
0
0
0
0
0
0
0
0
0
0
0
0
0
0
0
0
0
0
0
0
0
0
0
0
0
0
0
0
0
0
0
0
0
0
0
0
0
0
0
0
0
0
0
0
0
0
0
0
0
0
0
0
0
0
0
0
0
0
0
0
0
0
0
0
0
0
0
0
0
0
0
0
0
0
0
0
0
0
0
0
0
0
0
0
0
0
0
0
0
0
0
0
0
0
0
0
0
0
0
0
0
0
0
0
0
0
0
0
0
0
0
0
0
0
0
0
0
0
0
0
0
0
0
0
0
0
0
0
0
0
0
1
1
1
2
3
4
5
7
9
12
15
20
26
33
42
54
66
77
85
90
89
78
66
57
52
50
49
49
50
53
60
67
73
78
83
87
92
95
98
100
101
101
100
100
100
102
103
105
106
105
104
103
101
99
96
94
90
86
86
88
91
94
98
102
104
106
106
104
101
98
96
96
99
101
104
105
104
102
98
93
90
93
97
101
105
107
108
108
106
103
100
100
101
103
104
105
105
105
104
103
100
98
95
91
87
83
78
72
67
61
57
55
57
59
60
62
67
74
85
95
96
90
81
67
53
42
32
25
19
14
11
8
6
5
4
3
2
1
1
1
1
0
0
0
0
0
0
0
0
0
0
0
0
0
0
0
0
0
0
0
0
0
0
0
0
0
0
0
0
0
0
0
0
0
0
0
0
0
0
0
0
0
0
0
0
0
0
0
0
0
0
0
0
0
0
0
0
0
0
0
0
0
0
0
0
0
0
0
0
0
0
0
0
0
0
0
0
0
0
0
0
0
0
0
0
0
0
0
0
0
0
0
0
0
0
0
0
0
0
0
0
0
0
0
0
0
0
0
0
0
0
0
0
0
0
0
0
0
0
0
0
0
0
0
0
0
0
0
0
0
0
0
0
0
0
0
0
0
0
0
0
0
0
0
0
0
0
0
0
0
0
0
0
0
0
0
0
0
0
0
0
0
0
0
0
0
0
0
0
0
0
0
0
0
0
0
0
0
0
0
1
1
1
2
2
3
4
6
7
10
13
17
21
27
35
45
57
68
79
87
91
87
75
64
55
50
48
48
49
51
54
60
66
71
76
82
87
92
95
96
97
97
96
96
97
99
101
103
104
103
102
99
97
95
92
90
87
86
89
91
94
97
100
103
105
107
106
105
103
100
97
96
98
100
103
104
103
101
98
93
90
91
95
100
103
106
107
106
104
101
98
98
99
101
101
101
101
101
101
99
97
94
91
86
82
76
70
64
59
56
55
56
59
60
63
68
76
85
95
98
93
83
70
56
44
34
27
20
16
12
9
7
5
4
3
2
2
1
1
1
0
0
0
0
0
0
0
0
0
0
0
0
0
0
0
0
0
0
0
0
0
0
0
0
0
0
0
0
0
0
0
0
0
0
0
0
0
0
0
0
0
0
0
0
0
0
0
0
0
0
0
0
0
0
0
0
0
0
0
0
0
0
0
0
0
0
0
0
0
0
0
0
0
0
0
0
0
0
0
0
0
0
0
0
0
0
0
0
0
0
0
0
0
0
0
0
0
0
0
0
0
0
0
0
0
0
0
0
0
0
0
0
0
0
0
0
0
0
0
0
0
0
0
0
0
0
0
0
0
0
0
0
0
0
0
0
0
0
0
0
0
0
0
0
0
0
0
0
0
0
0
0
0
0
0
0
0
0
0
0
0
0
0
0
0
0
0
0
0
0
0
0
0
0
0
0
0
0
0
0
0
1
1
1
2
3
3
5
6
8
10
14
18
23
29
37
47
59
71
81
88
91
86
73
61
54
49
47
47
49
50
53
57
62
69
76
82
87
90
92
92
92
93
94
94
96
99
100
101
100
98
95
92
89
87
85
84
86
90
93
96
99
102
104
106
107
107
106
104
102
99
97
97
99
101
103
103
101
97
93
89
89
93
97
101
104
105
105
102
99
96
96
96
97
97
97
97
97
97
95
93
90
86
80
75
68
63
58
56
55
57
59
60
63
68
76
87
97
99
95
86
73
59
46
36
28
22
17
13
10
7
6
4
3
2
2
1
1
1
0
0
0
0
0
0
0
0
0
0
0
0
0
0
0
0
0
0
0
0
0
0
0
0
0
0
0
0
0
0
0
0
0
0
0
0
0
0
0
0
0
0
0
0
0
0
0
0
0
0
0
0
0
0
0
0
0
0
0
0
0
0
0
0
0
0
0
0
0
0
0
0
0
0
0
0
0
0
0
0
0
0
0
0
0
0
0
0
0
0
0
0
0
0
0
0
0
0
0
0
0
0
0
0
0
0
0
0
0
0
0
0
0
0
0
0
0
0
0
0
0
0
0
0
0
0
0
0
0
0
0
0
0
0
0
0
0
0
0
0
0
0
0
0
0
0
0
0
0
0
0
0
0
0
0
0
0
0
0
0
0
0
0
0
0
0
0
0
0
0
0
0
0
0
0
0
0
0
0
0
0
0
0
1
1
1
2
3
4
5
6
9
11
14
19
24
31
39
50
62
73
83
89
91
83
70
59
52
48
46
46
48
50
52
55
62
70
77
81
85
87
87
88
90
91
92
94
96
98
98
97
94
91
86
81
79
78
80
85
90
94
97
100
103
105
106
107
107
106
105
103
101
98
97
98
100
102
102
100
97
93
88
87
90
94
99
102
103
103
100
98
94
93
93
94
94
93
93
92
92
90
88
85
80
74
68
62
58
56
55
57
59
61
64
70
78
89
98
101
96
88
76
61
48
38
29
23
18
14
11
8
6
5
3
3
2
1
1
1
1
0
0
0
0
0
0
0
0
0
0
0
0
0
0
0
0
0
0
0
0
0
0
0
0
0
0
0
0
0
0
0
0
0
0
0
0
0
0
0
0
0
0
0
0
0
0
0
0
0
0
0
0
0
0
0
0
0
0
0
0
0
0
0
0
0
0
0
0
0
0
0
0
0
0
0
0
0
0
0
0
0
0
0
0
0
0
0
0
0
0
0
0
0
0
0
0
0
0
0
0
0
0
0
0
0
0
0
0
0
0
0
0
0
0
0
0
0
0
0
0
0
0
0
0
0
0
0
0
0
0
0
0
0
0
0
0
0
0
0
0
0
0
0
0
0
0
0
0
0
0
0
0
0
0
0
0
0
0
0
0
0
0
0
0
0
0
0
0
0
0
0
0
0
0
0
0
0
0
0
0
0
0
0
1
1
1
2
2
3
4
5
7
9
12
15
20
25
32
41
53
64
75
84
90
89
81
68
57
51
47
45
46
47
49
51
56
63
70
75
78
80
82
85
88
90
91
93
95
95
95
93
90
86
80
74
71
71
76
82
88
92
96
100
102
104
105
106
106
106
105
104
102
100
99
98
100
101
101
100
97
92
87
84
86
91
96
100
101
101
99
96
92
90
91
90
90
89
88
87
86
84
82
78
73
67
61
57
56
56
58
59
61
64
70
79
90
99
101
97
89
77
63
50
39
31
24
19
14
11
9
7
5
4
3
2
2
1
1
1
0
0
0
0
0
0
0
0
0
0
0
0
0
0
0
0
0
0
0
0
0
0
0
0
0
0
0
0
0
0
0
0
0
0
0
0
0
0
0
0
0
0
0
0
0
0
0
0
0
0
0
0
0
0
0
0
0
0
0
0
0
0
0
0
0
0
0
0
0
0
0
0
0
0
0
0
0
0
0
0
0
0
0
0
0
0
0
0
0
0
0
0
0
0
0
0
0
0
0
0
0
0
0
0
0
0
0
0
0
0
0
0
0
0
0
0
0
0
0
0
0
0
0
0
0
0
0
0
0
0
0
0
0
0
0
0
0
0
0
0
0
0
0
0
0
0
0
0
0
0
0
0
0
0
0
0
0
0
0
0
0
0
0
0
0
0
0
0
0
0
0
0
0
0
0
0
0
0
0
0
0
0
0
0
0
1
1
1
2
2
3
4
6
7
10
13
16
21
27
34
44
56
66
77
85
89
88
78
65
56
50
46
45
46
46
48
50
55
61
66
70
75
79
83
86
89
91
92
93
92
91
88
85
80
74
67
65
67
72
78
84
90
94
98
101
103
103
103
103
104
104
104
103
101
100
99
100
101
101
99
96
91
86
82
83
89
94
97
99
99
97
94
90
88
88
88
86
85
83
81
79
77
74
70
65
60
57
55
56
58
60
62
66
72
81
91
99
101
98
89
78
64
51
40
32
25
19
15
12
9
7
5
4
3
2
2
1
1
1
0
0
0
0
0
0
0
0
0
0
0
0
0
0
0
0
0
0
0
0
0
0
0
0
0
0
0
0
0
0
0
0
0
0
0
0
0
0
0
0
0
0
0
0
0
0
0
0
0
0
0
0
0
0
0
0
0
0
0
0
0
0
0
0
0
0
0
0
0
0
0
0
0
0
0
0
0
0
0
0
0
0
0
0
0
0
0
0
0
0
0
0
0
0
0
0
0
0
0
0
0
0
0
0
0
0
0
0
0
0
0
0
0
0
0
0
0
0
0
0
0
0
0
0
0
0
0
0
0
0
0
0
0
0
0
0
0
0
0
0
0
0
0
0
0
0
0
0
0
0
0
0
0
0
0
0
0
0
0
0
0
0
0
0
0
0
0
0
0
0
0
0
0
0
0
0
0
0
0
0
0
0
0
0
0
0
0
1
1
1
2
3
4
5
6
8
10
13
17
22
28
36
46
57
68
77
84
88
85
75
63
55
49
46
44
44
45
46
49
52
57
64
71
77
81
84
87
88
89
89
88
86
83
78
72
66
60
60
63
68
75
82
88
93
96
99
100
100
99
99
100
101
102
102
101
100
100
99
100
99
98
94
90
84
79
81
87
92
95
97
97
96
93
90
87
86
85
83
80
77
74
71
68
65
61
58
56
55
56
58
59
62
66
73
83
94
99
98
96
88
77
64
52
41
32
25
20
16
12
9
7
6
4
3
2
2
1
1
1
1
0
0
0
0
0
0
0
0
0
0
0
0
0
0
0
0
0
0
0
0
0
0
0
0
0
0
0
0
0
0
0
0
0
0
0
0
0
0
0
0
0
0
0
0
0
0
0
0
0
0
0
0
0
0
0
0
0
0
0
0
0
0
0
0
0
0
0
0
0
0
0
0
0
0
0
0
0
0
0
0
0
0
0
0
0
0
0
0
0
0
0
0
0
0
0
0
0
0
0
0
0
0
0
0
0
0
0
0
0
0
0
0
0
0
0
0
0
0
0
0
0
0
0
0
0
0
0
0
0
0
0
0
0
0
0
0
0
0
0
0
0
0
0
0
0
0
0
0
0
0
0
0
0
0
0
0
0
0
0
0
0
0
0
0
0
0
0
0
0
0
0
0
0
0
0
0
0
0
0
0
0
0
0
0
0
0
0
1
1
1
2
2
3
4
5
6
8
11
14
18
23
29
37
47
58
67
77
83
86
83
73
62
54
48
45
43
43
43
45
48
53
60
68
74
78
81
83
84
85
84
83
80
76
70
63
57
55
56
59
65
73
80
86
91
94
97
98
97
94
93
95
97
99
100
100
99
99
98
98
98
96
92
87
82
77
79
85
90
93
95
95
93
91
89
86
84
81
78
74
69
64
61
59
56
55
54
55
57
58
60
62
67
75
85
96
102
100
95
87
76
63
51
41
32
26
20
16
12
10
8
6
4
3
3
2
1
1
1
1
0
0
0
0
0
0
0
0
0
0
0
0
0
0
0
0
0
0
0
0
0
0
0
0
0
0
0
0
0
0
0
0
0
0
0
0
0
0
0
0
0
0
0
0
0
0
0
0
0
0
0
0
0
0
0
0
0
0
0
0
0
0
0
0
0
0
0
0
0
0
0
0
0
0
0
0
0
0
0
0
0
0
0
0
0
0
0
0
0
0
0
0
0
0
0
0
0
0
0
0
0
0
0
0
0
0
0
0
0
0
0
0
0
0
0
0
0
0
0
0
0
0
0
0
0
0
0
0
0
0
0
0
0
0
0
0
0
0
0
0
0
0
0
0
0
0
0
0
0
0
0
0
0
0
0
0
0
0
0
0
0
0
0
0
0
0
0
0
0
0
0
0
0
0
0
0
0
0
0
0
0
0
0
0
0
0
0
0
0
1
1
1
2
2
3
4
5
7
9
11
15
19
24
30
38
47
58
67
76
83
85
82
72
61
53
48
44
43
42
43
46
50
56
64
70
74
76
78
79
79
78
76
72
66
60
54
51
51
53
57
63
71
78
83
88
91
94
94
93
90
87
89
92
94
96
97
97
97
97
96
95
93
89
84
78
74
79
84
88
91
92
91
90
88
86
83
80
77
72
67
62
58
55
53
52
53
54
56
58
60
63
69
77
88
98
102
101
95
86
74
62
50
40
32
26
20
16
13
10
8
6
5
4
3
2
2
1
1
1
1
0
0
0
0
0
0
0
0
0
0
0
0
0
0
0
0
0
0
0
0
0
0
0
0
0
0
0
0
0
0
0
0
0
0
0
0
0
0
0
0
0
0
0
0
0
0
0
0
0
0
0
0
0
0
0
0
0
0
0
0
0
0
0
0
0
0
0
0
0
0
0
0
0
0
0
0
0
0
0
0
0
0
0
0
0
0
0
0
0
0
0
0
0
0
0
0
0
0
0
0
0
0
0
0
0
0
0
0
0
0
0
0
0
0
0
0
0
0
0
0
0
0
0
0
0
0
0
0
0
0
0
0
0
0
0
0
0
0
0
0
0
0
0
0
0
0
0
0
0
0
0
0
0
0
0
0
0
0
0
0
0
0
0
0
0
0
0
0
0
0
0
0
0
0
0
0
0
0
0
0
0
0
0
0
0
0
0
0
0
0
1
1
1
2
2
3
4
5
7
9
12
15
19
24
31
38
48
58
68
76
83
85
81
71
61
53
48
45
44
44
46
48
52
58
64
68
70
71
71
71
70
67
62
56
52
49
47
49
53
57
61
68
74
79
83
86
89
90
89
86
82
83
85
88
90
92
93
94
94
93
92
89
85
80
74
72
77
82
85
87
88
87
86
84
81
78
75
71
66
61
57
53
51
52
53
54
56
58
60
64
70
79
90
99
101
99
92
83
71
59
48
39
31
25
20
16
13
10
8
6
5
4
3
2
2
1
1
1
1
0
0
0
0
0
0
0
0
0
0
0
0
0
0
0
0
0
0
0
0
0
0
0
0
0
0
0
0
0
0
0
0
0
0
0
0
0
0
0
0
0
0
0
0
0
0
0
0
0
0
0
0
0
0
0
0
0
0
0
0
0
0
0
0
0
0
0
0
0
0
0
0
0
0
0
0
0
0
0
0
0
0
0
0
0
0
0
0
0
0
0
0
0
0
0
0
0
0
0
0
0
0
0
0
0
0
0
0
0
0
0
0
0
0
0
0
0
0
0
0
0
0
0
0
0
0
0
0
0
0
0
0
0
0
0
0
0
0
0
0
0
0
0
0
0
0
0
0
0
0
0
0
0
0
0
0
0
0
0
0
0
0
0
0
0
0
0
0
0
0
0
0
0
0
0
0
0
0
0
0
0
0
0
0
0
0
0
0
0
0
0
0
1
1
1
2
2
3
4
6
7
9
12
16
20
25
31
39
49
59
69
77
83
84
80
71
61
54
49
47
47
47
48
49
53
57
60
61
61
61
61
59
58
55
51
48
46
46
48
53
55
59
65
70
74
77
81
84
85
84
80
75
74
77
81
84
86
88
89
89
89
87
85
80
75
69
69
75
79
82
83
82
81
79
77
75
72
68
64
59
55
52
51
52
53
54
56
58
60
65
72
81
92
99
100
97
89
79
68
56
46
37
30
24
20
16
13
10
8
6
5
4
3
2
2
1
1
1
1
0
0
0
0
0
0
0
0
0
0
0
0
0
0
0
0
0
0
0
0
0
0
0
0
0
0
0
0
0
0
0
0
0
0
0
0
0
0
0
0
0
0
0
0
0
0
0
0
0
0
0
0
0
0
0
0
0
0
0
0
0
0
0
0
0
0
0
0
0
0
0
0
0
0
0
0
0
0
0
0
0
0
0
0
0
0
0
0
0
0
0
0
0
0
0
0
0
0
0
0
0
0
0
0
0
0
0
0
0
0
0
0
0
0
0
0
0
0
0
0
0
0
0
0
0
0
0
0
0
0
0
0
0
0
0
0
0
0
0
0
0
0
0
0
0
0
0
0
0
0
0
0
0
0
0
0
0
0
0
0
0
0
0
0
0
0
0
0
0
0
0
0
0
0
0
0
0
0
0
0
0
0
0
0
0
0
0
0
0
0
0
0
0
0
1
1
1
2
3
3
5
6
8
10
13
16
20
25
32
40
49
59
69
76
82
84
80
72
62
55
51
50
49
49
49
50
52
54
55
55
55
54
53
53
51
49
47
46
46
48
51
53
57
60
64
68
70
74
78
79
78
74
68
66
68
72
76
79
81
83
83
83
81
78
74
68
63
65
70
74
76
76
75
74
72
69
66
63
59
56
53
52
52
52
53
55
57
58
61
67
74
84
94
98
98
93
85
75
64
53
44
36
29
24
19
15
12
10
8
6
5
4
3
2
2
1
1
1
1
1
0
0
0
0
0
0
0
0
0
0
0
0
0
0
0
0
0
0
0
0
0
0
0
0
0
0
0
0
0
0
0
0
0
0
0
0
0
0
0
0
0
0
0
0
0
0
0
0
0
0
0
0
0
0
0
0
0
0
0
0
0
0
0
0
0
0
0
0
0
0
0
0
0
0
0
0
0
0
0
0
0
0
0
0
0
0
0
0
0
0
0
0
0
0
0
0
0
0
0
0
0
0
0
0
0
0
0
0
0
0
0
0
0
0
0
0
0
0
0
0
0
0
0
0
0
0
0
0
0
0
0
0
0
0
0
0
0
0
0
0
0
0
0
0
0
0
0
0
0
0
0
0
0
0
0
0
0
0
0
0
0
0
0
0
0
0
0
0
0
0
0
0
0
0
0
0
0
0
0
0
0
0
0
0
0
0
0
0
0
0
0
0
0
0
1
1
1
2
2
3
4
5
6
8
10
13
16
20
26
32
40
50
60
68
76
82
84
81
72
63
56
52
51
50
50
50
50
50
51
51
51
51
50
50
49
48
48
47
48
48
50
51
54
56
59
62
63
68
72
73
72
68
61
58
59
63
67
70
73
75
76
76
74
71
66
59
56
58
64
67
69
69
67
64
62
59
57
55
53
52
52
52
53
54
55
56
59
63
70
77
86
94
97
94
89
80
70
59
49
41
34
28
22
18
15
12
10
8
6
5
4
3
2
2
1
1
1
1
1
0
0
0
0
0
0
0
0
0
0
0
0
0
0
0
0
0
0
0
0
0
0
0
0
0
0
0
0
0
0
0
0
0
0
0
0
0
0
0
0
0
0
0
0
0
0
0
0
0
0
0
0
0
0
0
0
0
0
0
0
0
0
0
0
0
0
0
0
0
0
0
0
0
0
0
0
0
0
0
0
0
0
0
0
0
0
0
0
0
0
0
0
0
0
0
0
0
0
0
0
0
0
0
0
0
0
0
0
0
0
0
0
0
0
0
0
0
0
0
0
0
0
0
0
0
0
0
0
0
0
0
0
0
0
0
0
0
0
0
0
0
0
0
0
0
0
0
0
0
0
0
0
0
0
0
0
0
0
0
0
0
0
0
0
0
0
0
0
0
0
0
0
0
0
0
0
0
0
0
0
0
0
0
0
0
0
0
0
0
0
0
0
0
0
0
0
1
1
1
2
2
3
4
5
6
8
10
13
16
21
26
32
41
50
60
68
76
82
84
81
73
64
57
53
51
50
50
51
50
50
51
51
51
51
51
50
51
51
51
50
50
51
51
52
53
54
56
58
61
65
66
64
60
53
51
51
54
57
61
63
65
66
66
64
61
56
51
50
51
55
59
60
59
57
55
54
53
53
52
53
53
53
54
55
55
57
60
65
72
81
89
94
95
91
84
75
64
54
45
38
31
26
21
17
14
11
9
7
6
5
4
3
2
2
1
1
1
1
1
0
0
0
0
0
0
0
0
0
0
0
0
0
0
0
0
0
0
0
0
0
0
0
0
0
0
0
0
0
0
0
0
0
0
0
0
0
0
0
0
0
0
0
0
0
0
0
0
0
0
0
0
0
0
0
0
0
0
0
0
0
0
0
0
0
0
0
0
0
0
0
0
0
0
0
0
0
0
0
0
0
0
0
0
0
0
0
0
0
0
0
0
0
0
0
0
0
0
0
0
0
0
0
0
0
0
0
0
0
0
0
0
0
0
0
0
0
0
0
0
0
0
0
0
0
0
0
0
0
0
0
0
0
0
0
0
0
0
0
0
0
0
0
0
0
0
0
0
0
0
0
0
0
0
0
0
0
0
0
0
0
0
0
0
0
0
0
0
0
0
0
0
0
0
0
0
0
0
0
0
0
0
0
0
0
0
0
0
0
0
0
0
0
0
0
0
0
0
1
1
1
2
2
3
4
5
6
8
10
13
16
21
26
33
41
50
60
68
76
81
84
81
74
65
57
53
50
50
50
50
51
52
53
53
53
54
54
55
56
56
56
55
55
54
53
52
52
52
53
54
57
58
56
51
46
45
45
46
48
51
53
55
56
55
54
51
47
45
45
46
48
50
51
51
51
51
51
52
53
53
54
54
55
55
56
59
63
68
75
85
93
95
94
88
80
70
59
50
42
35
29
24
20
16
13
11
9
7
6
5
4
3
2
2
1
1
1
1
1
1
0
0
0
0
0
0
0
0
0
0
0
0
0
0
0
0
0
0
0
0
0
0
0
0
0
0
0
0
0
0
0
0
0
0
0
0
0
0
0
0
0
0
0
0
0
0
0
0
0
0
0
0
0
0
0
0
0
0
0
0
0
0
0
0
0
0
0
0
0
0
0
0
0
0
0
0
0
0
0
0
0
0
0
0
0
0
0
0
0
0
0
0
0
0
0
0
0
0
0
0
0
0
0
0
0
0
0
0
0
0
0
0
0
0
0
0
0
0
0
0
0
0
0
0
0
0
0
0
0
0
0
0
0
0
0
0
0
0
0
0
0
0
0
0
0
0
0
0
0
0
0
0
0
0
0
0
0
0
0
0
0
0
0
0
0
0
0
0
0
0
0
0
0
0
0
0
0
0
0
0
0
0
0
0
0
0
0
0
0
0
0
0
0
0
0
0
0
0
0
1
1
1
2
2
3
4
5
6
8
10
13
17
21
26
33
40
50
59
67
74
79
82
81
74
65
58
53
50
50
50
51
52
54
54
55
56
58
59
60
60
60
60
60
58
56
54
52
51
51
50
51
50
48
44
41
40
40
40
41
43
45
45
46
46
45
44
42
42
42
43
44
46
47
48
49
51
52
53
53
54
54
55
56
58
61
66
72
80
88
94
94
91
85
76
66
55
46
38
32
27
22
18
15
12
10
8
7
6
4
4
3
2
2
1
1
1
1
1
1
0
0
0
0
0
0
0
0
0
0
0
0
0
0
0
0
0
0
0
0
0
0
0
0
0
0
0
0
0
0
0
0
0
0
0
0
0
0
0
0
0
0
0
0
0
0
0
0
0
0
0
0
0
0
0
0
0
0
0
0
0
0
0
0
0
0
0
0
0
0
0
0
0
0
0
0
0
0
0
0
0
0
0
0
0
0
0
0
0
0
0
0
0
0
0
0
0
0
0
0
0
0
0
0
0
0
0
0
0
0
0
0
0
0
0
0
0
0
0
0
0
0
0
0
0
0
0
0
0
0
0
0
0
0
0
0
0
0
0
0
0
0
0
0
0
0
0
0
0
0
0
0
0
0
0
0
0
0
0
0
0
0
0
0
0
0
0
0
0
0
0
0
0
0
0
0
0
0
0
0
0
0
0
0
0
0
0
0
0
0
0
0
0
0
0
0
0
0
0
0
0
1
1
1
2
2
3
4
5
7
8
11
13
17
21
26
32
40
48
57
64
71
76
79
78
73
65
58
54
51
50
50
51
52
54
55
57
59
62
63
64
65
64
64
63
61
58
55
52
50
49
47
46
44
41
40
38
38
38
38
39
40
41
41
41
41
41
41
41
42
43
45
46
48
49
50
51
52
53
53
54
56
58
61
66
71
77
85
91
93
91
87
80
71
60
51
42
35
29
24
20
17
14
12
10
8
6
5
4
3
3
2
2
1
1
1
1
1
1
0
0
0
0
0
0
0
0
0
0
0
0
0
0
0
0
0
0
0
0
0
0
0
0
0
0
0
0
0
0
0
0
0
0
0
0
0
0
0
0
0
0
0
0
0
0
0
0
0
0
0
0
0
0
0
0
0
0
0
0
0
0
0
0
0
0
0
0
0
0
0
0
0
0
0
0
0
0
0
0
0
0
0
0
0
0
0
0
0
0
0
0
0
0
0
0
0
0
0
0
0
0
0
0
0
0
0
0
0
0
0
0
0
0
0
0
0
0
0
0
0
0
0
0
0
0
0
0
0
0
0
0
0
0
0
0
0
0
0
0
0
0
0
0
0
0
0
0
0
0
0
0
0
0
0
0
0
0
0
0
0
0
0
0
0
0
0
0
0
0
0
0
0
0
0
0
0
0
0
0
0
0
0
0
0
0
0
0
0
0
0
0
0
0
0
0
0
0
0
0
0
0
0
1
1
1
2
2
3
4
5
7
8
10
13
16
20
25
31
38
46
54
61
67
73
76
76
73
66
61
56
53
51
51
51
53
55
57
59
62
64
66
67
67
66
66
65
62
59
55
52
49
47
45
42
41
39
39
38
38
38
38
39
39
39
39
39
40
41
42
44
45
46
47
49
50
51
52
53
54
56
58
62
66
71
77
84
89
91
90
87
81
74
64
55
46
39
32
27
22
19
16
13
11
9
7
6
5
4
3
3
2
2
1
1
1
1
1
1
0
0
0
0
0
0
0
0
0
0
0
0
0
0
0
0
0
0
0
0
0
0
0
0
0
0
0
0
0
0
0
0
0
0
0
0
0
0
0
0
0
0
0
0
0
0
0
0
0
0
0
0
0
0
0
0
0
0
0
0
0
0
0
0
0
0
0
0
0
0
0
0
0
0
0
0
0
0
0
0
0
0
0
0
0
0
0
0
0
0
0
0
0
0
0
0
0
0
0
0
0
0
0
0
0
0
0
0
0
0
0
0
0
0
0
0
0
0
0
0
0
0
0
0
0
0
0
0
0
0
0
0
0
0
0
0
0
0
0
0
0
0
0
0
0
0
0
0
0
0
0
0
0
0
0
0
0
0
0
0
0
0
0
0
0
0
0
0
0
0
0
0
0
0
0
0
0
0
0
0
0
0
0
0
0
0
0
0
0
0
0
0
0
0
0
0
0
0
0
0
0
0
0
0
0
1
1
1
2
2
3
4
5
6
8
10
13
16
19
24
29
35
42
50
57
64
69
73
74
72
69
64
60
56
54
53
53
54
56
58
60
63
65
66
67
67
68
67
65
61
57
54
51
49
46
44
43
42
41
41
40
40
40
39
39
39
39
39
40
41
43
44
46
47
49
51
52
54
56
58
61
63
67
72
78
85
90
91
89
86
81
74
66
57
49
41
35
29
25
21
17
14
12
10
8
7
6
5
4
3
2
2
2
1
1
1
1
1
1
0
0
0
0
0
0
0
0
0
0
0
0
0
0
0
0
0
0
0
0
0
0
0
0
0
0
0
0
0
0
0
0
0
0
0
0
0
0
0
0
0
0
0
0
0
0
0
0
0
0
0
0
0
0
0
0
0
0
0
0
0
0
0
0
0
0
0
0
0
0
0
0
0
0
0
0
0
0
0
0
0
0
0
0
0
0
0
0
0
0
0
0
0
0
0
0
0
0
0
0
0
0
0
0
0
0
0
0
0
0
0
0
0
0
0
0
0
0
0
0
0
0
0
0
0
0
0
0
0
0
0
0
0
0
0
0
0
0
0
0
0
0
0
0
0
0
0
0
0
0
0
0
0
0
0
0
0
0
0
0
0
0
0
0
0
0
0
0
0
0
0
0
0
0
0
0
0
0
0
0
0
0
0
0
0
0
0
0
0
0
0
0
0
0
0
0
0
0
0
0
0
0
0
0
0
0
0
1
1
1
2
2
3
4
5
6
8
10
12
15
18
22
27
32
39
46
53
59
65
69
72
73
71
68
65
61
59
58
58
59
60
61
63
64
65
66
67
67
67
65
62
59
55
53
50
48
47
46
46
45
45
44
44
44
43
42
41
41
41
42
43
45
47
49
51
54
57
59
62
65
68
72
76
81
86
89
90
89
86
81
74
66
58
50
43
37
31
26
22
19
16
13
11
9
7
6
5
4
3
3
2
2
2
1
1
1
1
1
1
0
0
0
0
0
0
0
0
0
0
0
0
0
0
0
0
0
0
0
0
0
0
0
0
0
0
0
0
0
0
0
0
0
0
0
0
0
0
0
0
0
0
0
0
0
0
0
0
0
0
0
0
0
0
0
0
0
0
0
0
0
0
0
0
0
0
0
0
0
0
0
0
0
0
0
0
0
0
0
0
0
0
0
0
0
0
0
0
0
0
0
0
0
0
0
0
0
0
0
0
0
0
0
0
0
0
0
0
0
0
0
0
0
0
0
0
0
0
0
0
0
0
0
0
0
0
0
0
0
0
0
0
0
0
0
0
0
0
0
0
0
0
0
0
0
0
0
0
0
0
0
0
0
0
0
0
0
0
0
0
0
0
0
0
0
0
0
0
0
0
0
0
0
0
0
0
0
0
0
0
0
0
0
0
0
0
0
0
0
0
0
0
0
0
0
0
0
0
0
0
0
0
0
0
0
0
0
0
0
1
1
1
2
2
3
4
5
6
8
9
12
14
17
21
25
29
35
41
48
54
60
65
69
71
72
72
70
69
67
67
66
66
67
67
67
67
67
66
65
64
62
60
57
54
52
50
49
48
48
47
47
47
47
47
46
46
46
45
45
45
47
48
51
53
56
60
63
67
71
75
79
82
85
87
88
88
86
84
79
73
66
58
50
43
37
32
28
23
20
17
14
12
10
8
7
6
5
4
3
3
2
2
1
1
1
1
1
1
1
0
0
0
0
0
0
0
0
0
0
0
0
0
0
0
0
0
0
0
0
0
0
0
0
0
0
0
0
0
0
0
0
0
0
0
0
0
0
0
0
0
0
0
0
0
0
0
0
0
0
0
0
0
0
0
0
0
0
0
0
0
0
0
0
0
0
0
0
0
0
0
0
0
0
0
0
0
0
0
0
0
0
0
0
0
0
0
0
0
0
0
0
0
0
0
0
0
0
0
0
0
0
0
0
0
0
0
0
0
0
0
0
0
0
0
0
0
0
0
0
0
0
0
0
0
0
0
0
0
0
0
0
0
0
0
0
0
0
0
0
0
0
0
0
0
0
0
0
0
0
0
0
0
0
0
0
0
0
0
0
0
0
0
0
0
0
0
0
0
0
0
0
0
0
0
0
0
0
0
0
0
0
0
0
0
0
0
0
0
0
0
0
0
0
0
0
0
0
0
0
0
0
0
0
0
0
0
0
0
0
0
1
1
1
2
2
3
4
5
6
7
9
11
13
16
19
22
26
31
36
42
49
55
60
64
68
72
74
76
77
77
77
77
77
78
76
75
73
71
68
65
62
59
56
54
52
50
49
49
48
48
48
48
49
49
49
49
50
51
51
53
55
57
60
63
68
73
78
82
85
87
87
87
86
84
82
79
75
70
64
57
50
43
37
32
28
24
21
18
15
13
11
9
7
6
5
4
4
3
2
2
2
1
1
1
1
1
1
0
0
0
0
0
0
0
0
0
0
0
0
0
0
0
0
0
0
0
0
0
0
0
0
0
0
0
0
0
0
0
0
0
0
0
0
0
0
0
0
0
0
0
0
0
0
0
0
0
0
0
0
0
0
0
0
0
0
0
0
0
0
0
0
0
0
0
0
0
0
0
0
0
0
0
0
0
0
0
0
0
0
0
0
0
0
0
0
0
0
0
0
0
0
0
0
0
0
0
0
0
0
0
0
0
0
0
0
0
0
0
0
0
0
0
0
0
0
0
0
0
0
0
0
0
0
0
0
0
0
0
0
0
0
0
0
0
0
0
0
0
0
0
0
0
0
0
0
0
0
0
0
0
0
0
0
0
0
0
0
0
0
0
0
0
0
0
0
0
0
0
0
0
0
0
0
0
0
0
0
0
0
0
0
0
0
0
0
0
0
0
0
0
0
0
0
0
0
0
0
0
0
0
0
0
0
0
0
0
0
0
0
0
0
1
1
1
2
2
3
3
4
5
7
8
10
12
14
17
20
23
27
32
37
43
48
54
59
64
69
74
77
80
82
85
86
87
87
86
84
81
76
72
69
65
61
58
56
55
53
53
52
52
52
52
53
54
55
56
57
59
62
64
67
70
73
77
81
84
87
87
86
84
82
80
77
73
68
63
58
53
47
42
37
32
28
24
21
18
15
13
11
9
8
7
6
5
4
3
3
2
2
2
1
1
1
1
1
1
0
0
0
0
0
0
0
0
0
0
0
0
0
0
0
0
0
0
0
0
0
0
0
0
0
0
0
0
0
0
0
0
0
0
0
0
0
0
0
0
0
0
0
0
0
0
0
0
0
0
0
0
0
0
0
0
0
0
0
0
0
0
0
0
0
0
0
0
0
0
0
0
0
0
0
0
0
0
0
0
0
0
0
0
0
0
0
0
0
0
0
0
0
0
0
0
0
0
0
0
0
0
0
0
0
0
0
0
0
0
0
0
0
0
0
0
0
0
0
0
0
0
0
0
0
0
0
0
0
0
0
0
0
0
0
0
0
0
0
0
0
0
0
0
0
0
0
0
0
0
0
0
0
0
0
0
0
0
0
0
0
0
0
0
0
0
0
0
0
0
0
0
0
0
0
0
0
0
0
0
0
0
0
0
0
0
0
0
0
0
0
0
0
0
0
0
0
0
0
0
0
0
0
0
0
0
0
0
0
0
0
0
0
0
0
0
1
1
1
2
2
3
3
4
5
6
7
9
11
13
15
18
20
24
28
32
36
42
47
53
58
64
69
73
77
81
84
87
88
90
89
88
85
82
79
75
71
68
66
63
61
61
60
60
61
61
62
64
65
67
70
73
76
78
79
81
81
82
83
84
82
80
77
74
70
66
61
57
52
47
43
39
35
31
27
24
21
18
16
13
12
10
8
7
6
5
4
4
3
2
2
2
1
1
1
1
1
1
0
0
0
0
0
0
0
0
0
0
0
0
0
0
0
0
0
0
0
0
0
0
0
0
0
0
0
0
0
0
0
0
0
0
0
0
0
0
0
0
0
0
0
0
0
0
0
0
0
0
0
0
0
0
0
0
0
0
0
0
0
0
0
0
0
0
0
0
0
0
0
0
0
0
0
0
0
0
0
0
0
0
0
0
0
0
0
0
0
0
0
0
0
0
0
0
0
0
0
0
0
0
0
0
0
0
0
0
0
0
0
0
0
0
0
0
0
0
0
0
0
0
0
0
0
0
0
0
0
0
0
0
0
0
0
0
0
0
0
0
0
0
0
0
0
0
0
0
0
0
0
0
0
0
0
0
0
0
0
0
0
0
0
0
0
0
0
0
0
0
0
0
0
0
0
0
0
0
0
0
0
0
0
0
0
0
0
0
0
0
0
0
0
0
0
0
0
0
0
0
0
0
0
0
0
0
0
0
0
0
0
0
0
0
0
0
0
0
0
1
1
1
1
2
2
3
4
5
5
7
8
9
11
13
15
18
21
24
27
31
35
40
45
50
55
60
65
69
73
77
80
82
83
84
85
85
85
83
80
79
78
76
73
73
73
73
74
75
76
77
79
80
81
83
83
83
81
80
78
77
76
74
71
67
64
59
55
50
46
42
38
35
31
28
25
23
20
18
15
13
12
10
9
7
6
5
4
4
3
3
2
2
2
1
1
1
1
1
0
0
0
0
0
0
0
0
0
0
0
0
0
0
0
0
0
0
0
0
0
0
0
0
0
0
0
0
0
0
0
0
0
0
0
0
0
0
0
0
0
0
0
0
0
0
0
0
0
0
0
0
0
0
0
0
0
0
0
0
0
0
0
0
0
0
0
0
0
0
0
0
0
0
0
0
0
0
0
0
0
0
0
0
0
0
0
0
0
0
0
0
0
0
0
0
0
0
0
0
0
0
0
0
0
0
0
0
0
0
0
0
0
0
0
0
0
0
0
0
0
0
0
0
0
0
0
0
0
0
0
0
0
0
0
0
0
0
0
0
0
0
0
0
0
0
0
0
0
0
0
0
0
0
0
0
0
0
0
0
0
0
0
0
0
0
0
0
0
0
0
0
0
0
0
0
0
0
0
0
0
0
0
0
0
0
0
0
0
0
0
0
0
0
0
0
0
0
0
0
0
0
0
0
0
0
0
0
0
0
0
0
0
0
0
0
0
0
0
0
0
0
1
1
1
1
2
2
3
3
4
5
6
7
8
10
11
13
15
18
20
23
26
30
33
37
41
45
50
54
58
62
65
68
71
74
76
77
79
80
80
81
81
81
81
81
81
81
81
82
83
83
82
82
81
80
78
76
74
71
68
66
63
60
56
52
48
44
40
37
34
31
28
25
23
21
19
17
15
13
11
10
9
7
6
5
5
4
3
3
2
2
2
1
1
1
1
1
1
1
0
0
0
0
0
0
0
0
0
0
0
0
0
0
0
0
0
0
0
0
0
0
0
0
0
0
0
0
0
0
0
0
0
0
0
0
0
0
0
0
0
0
0
0
0
0
0
0
0
0
0
0
0
0
0
0
0
0
0
0
0
0
0
0
0
0
0
0
0
0
0
0
0
0
0
0
0
0
0
0
0
0
0
0
0
0
0
0
0
0
0
0
0
0
0
0
0
0
0
0
0
0
0
0
0
0
0
0
0
0
0
0
0
0
0
0
0
0
0
0
0
0
0
0
0
0
0
0
0
0
0
0
0
0
0
0
0
0
0
0
0
0
0
0
0
0
0
0
0
0
0
0
0
0
0
0
0
0
0
0
0
0
0
0
0
0
0
0
0
0
0
0
0
0
0
0
0
0
0
0
0
0
0
0
0
0
0
0
0
0
0
0
0
0
0
0
0
0
0
0
0
0
0
0
0
0
0
0
0
0
0
0
0
0
0
0
0
0
0
0
0
0
0
0
1
1
1
2
2
2
3
4
4
5
6
7
8
10
11
13
15
17
19
22
24
27
30
33
36
40
43
46
49
53
56
59
61
64
66
69
70
72
74
75
76
77
77
77
77
76
76
75
74
73
71
69
66
63
60
57
54
51
48
44
41
38
35
32
29
27
25
23
21
19
17
15
14
12
11
9
8
7
6
5
5
4
3
3
3
2
2
2
1
1
1
1
1
1
0
0
0
0
0
0
0
0
0
0
0
0
0
0
0
0
0
0
0
0
0
0
0
0
0
0
0
0
0
0
0
0
0
0
0
0
0
0
0
0
0
0
0
0
0
0
0
0
0
0
0
0
0
0
0
0
0
0
0
0
0
0
0
0
0
0
0
0
0
0
0
0
0
0
0
0
0
0
0
0
0
0
0
0
0
0
0
0
0
0
0
0
0
0
0
0
0
0
0
0
0
0
0
0
0
0
0
0
0
0
0
0
0
0
0
0
0
0
0
0
0
0
0
0
0
0
0
0
0
0
0
0
0
0
0
0
0
0
0
0
0
0
0
0
0
0
0
0
0
0
0
0
0
0
0
0
0
0
0
0
0
0
0
0
0
0
0
0
0
0
0
0
0
0
0
0
0
0
0
0
0
0
0
0
0
0
0
0
0
0
0
0
0
0
0
0
0
0
0
0
0
0
0
0
0
0
0
0
0
0
0
0
0
0
0
0
0
0
0
0
0
0
0
0
0
0
0
1
1
1
1
2
2
3
3
4
4
5
6
7
8
10
11
12
14
16
18
20
22
24
27
29
31
34
36
39
41
44
46
49
51
54
56
58
61
62
64
65
65
65
64
64
63
62
60
58
56
53
51
48
45
42
40
37
35
32
30
28
26
24
22
20
18
16
15
14
12
11
10
9
8
7
6
5
5
4
3
3
3
2
2
2
1
1
1
1
1
1
0
0
0
0
0
0
0
0
0
0
0
0
0
0
0
0
0
0
0
0
0
0
0
0
0
0
0
0
0
0
0
0
0
0
0
0
0
0
0
0
0
0
0
0
0
0
0
0
0
0
0
0
0
0
0
0
0
0
0
0
0
0
0
0
0
0
0
0
0
0
0
0
0
0
0
0
0
0
0
0
0
0
0
0
0
0
0
0
0
0
0
0
0
0
0
0
0
0
0
0
0
0
0
0
0
0
0
0
0
0
0
0
0
0
0
0
0
0
0
0
0
0
0
0
0
0
0
0
0
0
0
0
0
0
0
0
0
0
0
0
0
0
0
0
0
0
0
0
0
0
0
0
0
0
0
0
0
0
0
0
0
0
0
0
0
0
0
0
0
0
0
0
0
0
0
0
0
0
0
0
0
0
0
0
0
0
0
0
0
0
0
0
0
0
0
0
0
0
0
0
0
0
0
0
0
0
0
0
0
0
0
0
0
0
0
0
0
0
0
0
0
0
0
0
0
0
0
0
0
0
0
1
1
1
1
2
2
3
3
4
4
5
6
7
8
9
10
12
13
15
16
18
19
21
23
25
26
28
30
32
34
35
37
39
42
44
46
48
49
50
50
49
49
48
47
46
44
43
41
39
37
35
33
31
29
27
25
24
22
20
19
17
16
14
13
12
11
10
9
8
7
6
6
5
4
4
3
3
3
2
2
2
1
1
1
1
1
1
0
0
0
0
0
0
0
0
0
0
0
0
0
0
0
0
0
0
0
0
0
0
0
0
0
0
0
0
0
0
0
0
0
0
0
0
0
0
0
0
0
0
0
0
0
0
0
0
0
0
0
0
0
0
0
0
0
0
0
0
0
0
0
0
0
0
0
0
0
0
0
0
0
0
0
0
0
0
0
0
0
0
0
0
0
0
0
0
0
0
0
0
0
0
0
0
0
0
0
0
0
0
0
0
0
0
0
0
0
0
0
0
0
0
0
0
0
0
0
0
0
0
0
0
0
0
0
0
0
0
0
0
0
0
0
0
0
0
0
0
0
0
0
0
0
0
0
0
0
0
0
0
0
0
0
0
0
0
0
0
0
0
0
0
0
0
0
0
0
0
0
0
0
0
0
0
0
0
0
0
0
0
0
0
0
0
0
0
0
0
0
0
0
0
0
0
0
0
0
0
0
0
0
0
0
0
0
0
0
0
0
0
0
0
0
0
0
0
0
0
0
0
0
0
0
0
0
0
0
0
0
0
0
0
1
1
1
1
2
2
2
3
3
4
4
5
6
7
8
8
9
11
12
13
14
15
17
18
19
20
22
23
24
26
27
29
30
32
33
34
35
36
36
36
35
35
34
33
32
31
30
28
27
25
24
22
21
20
18
17
16
15
14
13
12
11
10
9
8
7
7
6
5
5
4
4
3
3
2
2
2
2
2
1
1
1
1
1
1
0
0
0
0
0
0
0
0
0
0
0
0
0
0
0
0
0
0
0
0
0
0
0
0
0
0
0
0
0
0
0
0
0
0
0
0
0
0
0
0
0
0
0
0
0
0
0
0
0
0
0
0
0
0
0
0
0
0
0
0
0
0
0
0
0
0
0
0
0
0
0
0
0
0
0
0
0
0
0
0
0
0
0
0
0
0
0
0
0
0
0
0
0
0
0
0
0
0
0
0
0
0
0
0
0
0
0
0
0
0
0
0
0
0
0
0
0
0
0
0
0
0
0
0
0
0
0
0
0
0
0
0
0
0
0
0
0
0
0
0
0
0
0
0
0
0
0
0
0
0
0
0
0
0
0
0
0
0
0
0
0
0
0
0
0
0
0
0
0
0
0
0
0
0
0
0
0
0
0
0
0
0
0
0
0
0
0
0
0
0
0
0
0
0
0
0
0
0
0
0
0
0
0
0
0
0
0
0
0
0
0
0
0
0
0
0
0
0
0
0
0
0
0
0
0
0
0
0
0
0
0
0
0
0
0
0
0
1
1
1
1
2
2
2
3
3
4
4
5
5
6
7
8
8
9
10
11
12
13
14
15
16
17
18
19
20
21
22
23
24
25
25
26
26
26
25
25
24
24
23
22
21
20
19
18
17
16
15
14
13
12
12
11
10
9
8
8
7
6
6
5
5
4
4
3
3
3
2
2
2
2
1
1
1
1
1
1
0
0
0
0
0
0
0
0
0
0
0
0
0
0
0
0
0
0
0
0
0
0
0
0
0
0
0
0
0
0
0
0
0
0
0
0
0
0
0
0
0
0
0
0
0
0
0
0
0
0
0
0
0
0
0
0
0
0
0
0
0
0
0
0
0
0
0
0
0
0
0
0
0
0
0
0
0
0
0
0
0
0
0
0
0
0
0
0
0
0
0
0
0
0
0
0
0
0
0
0
0
0
0
0
0
0
0
0
0
0
0
0
0
0
0
0
0
0
0
0
0
0
0
0
0
0
0
0
0
0
0
0
0
0
0
0
0
0
0
0
0
0
0
0
0
0
0
0
0
0
0
0
0
0
0
0
0
0
0
0
0
0
0
0
0
0
0
0
0
0
0
0
0
0
0
0
0
0
0
0
0
0
0
0
0
0
0
0
0
0
0
0
0
0
0
0
0
0
0
0
0
0
0
0
0
0
0
0
0
0
0
0
0
0
0
0
0
0
0
0
0
0
0
0
0
0
0
0
0
0
0
0
0
0
0
0
0
0
0
0
0
1
1
1
1
1
2
2
2
3
3
3
4
4
5
5
6
7
7
8
9
9
10
11
11
12
13
14
14
15
16
16
17
18
18
18
18
18
18
18
18
17
17
16
15
15
14
13
13
12
11
10
10
9
8
8
7
7
6
6
5
5
4
4
3
3
3
3
2
2
2
1
1
1
1
1
1
1
0
0
0
0
0
0
0
0
0
0
0
0
0
0
0
0
0
0
0
0
0
0
0
0
0
0
0
0
0
0
0
0
0
0
0
0
0
0
0
0
0
0
0
0
0
0
0
0
0
0
0
0
0
0
0
0
0
0
0
0
0
0
0
0
0
0
0
0
0
0
0
0
0
0
0
0
0
0
0
0
0
0
0
0
0
0
0
0
0
0
0
0
0
0
0
0
0
0
0
0
0
0
0
0
0
0
0
0
0
0
0
0
0
0
0
0
0
0
0
0
0
0
0
0
0
0
0
0
0
0
0
0
0
0
0
0
0
0
0
0
0
0
0
0
0
0
0
0
0
0
0
0
0
0
0
0
0
0
0
0
0
0
0
0
0
0
0
0
0
0
0
0
0
0
0
0
0
0
0
0
0
0
0
0
0
0
0
0
0
0
0
0
0
0
0
0
0
0
0
0
0
0
0
0
0
0
0
0
0
0
0
0
0
0
0
0
0
0
0
0
0
0
0
0
0
0
0
0
0
0
0
0
0
0
0
0
0
0
0
0
0
0
0
0
0
1
1
1
1
1
2
2
2
2
3
3
3
4
4
5
5
6
6
7
7
8
8
9
9
10
10
11
11
12
12
13
13
13
13
13
13
13
13
12
12
12
11
11
10
10
9
9
8
8
7
7
6
6
5
5
4
4
4
3
3
3
2
2
2
2
2
1
1
1
1
1
1
1
0
0
0
0
0
0
0
0
0
0
0
0
0
0
0
0
0
0
0
0
0
0
0
0
0
0
0
0
0
0
0
0
0
0
0
0
0
0
0
0
0
0
0
0
0
0
0
0
0
0
0
0
0
0
0
0
0
0
0
0
0
0
0
0
0
0
0
0
0
0
0
0
0
0
0
0
0
0
0
0
0
0
0
0
0
0
0
0
0
0
0
0
0
0
0
0
0
0
0
0
0
0
0
0
0
0
0
0
0
0
0
0
0
0
0
0
0
0
0
0
0
0
0
0
0
0
0
0
0
0
0
0
0
0
0
0
0
0
0
0
0
0
0
0
0
0
0
0
0
0
0
0
0
0
0
0
0
0
0
0
0
0
0
0
0
0
0
0
0
0
0
0
0
0
0
0
0
0
0
0
0
0
0
0
0
0
0
0
0
0
0
0
0
0
0
0
0
0
0
0
0
0
0
0
0
0
0
0
0
0
0
0
0
0
0
0
0
0
0
0
0
0
0
0
0
0
0
0
0
0
0
0
0
0
0
0
0
0
0
0
0
0
0
0
0
0
0
0
0
1
1
1
1
1
1
2
2
2
2
3
3
3
4
4
4
5
5
5
6
6
7
7
7
8
8
8
9
9
9
9
9
9
9
9
9
9
9
8
8
8
7
7
7
6
6
5
5
5
4
4
4
4
3
3
3
2
2
2
2
2
1
1
1
1
1
1
1
0
0
0
0
0
0
0
0
0
0
0
0
0
0
0
0
0
0
0
0
0
0
0
0
0
0
0
0
0
0
0
0
0
0
0
0
0
0
0
0
0
0
0
0
0
0
0
0
0
0
0
0
0
0
0
0
0
0
0
0
0
0
0
0
0
0
0
0
0
0
0
0
0
0
0
0
0
0
0
0
0
0
0
0
0
0
0
0
0
0
0
0
0
0
0
0
0
0
0
0
0
0
0
0
0
0
0
0
0
0
0
0
0
0
0
0
0
0
0
0
0
0
0
0
0
0
0
0
0
0
0
0
0
0
0
0
0
0
0
0
0
0
0
0
0
0
0
0
0
0
0
0
0
0
0
0
0
0
0
0
0
0
0
0
0
0
0
0
0
0
0
0
0
0
0
0
0
0
0
0
0
0
0
0
0
0
0
0
0
0
0
0
0
0
0
0
0
0
0
0
0
0
0
0
0
0
0
0
0
0
0
0
0
0
0
0
0
0
0
0
0
0
0
0
0
0
0
0
0
0
0
0
0
0
0
0
0
0
0
0
0
0
0
0
0
0
0
0
0
0
0
0
0
0
0
1
1
1
1
1
1
2
2
2
2
3
3
3
3
4
4
4
4
5
5
5
6
6
6
6
6
7
7
7
7
7
7
6
6
6
6
6
5
5
5
5
4
4
4
4
3
3
3
3
3
2
2
2
2
2
1
1
1
1
1
1
1
1
0
0
0
0
0
0
0
0
0
0
0
0
0
0
0
0
0
0
0
0
0
0
0
0
0
0
0
0
0
0
0
0
0
0
0
0
0
0
0
0
0
0
0
0
0
0
0
0
0
0
0
0
0
0
0
0
0
0
0
0
0
0
0
0
0
0
0
0
0
0
0
0
0
0
0
0
0
0
0
0
0
0
0
0
0
0
0
0
0
0
0
0
0
0
0
0
0
0
0
0
0
0
0
0
0
0
0
0
0
0
0
0
0
0
0
0
0
0
0
0
0
0
0
0
0
0
0
0
0
0
0
0
0
0
0
0
0
0
0
0
0
0
0
0
0
0
0
0
0
0
0
0
0
0
0
0
0
0
0
0
0
0
0
0
0
0
0
0
0
0
0
0
0
0
0
0
0
0
0
0
0
0
0
0
0
0
0
0
0
0
0
0
0
0
0
0
0
0
0
0
0
0
0
0
0
0
0
0
0
0
0
0
0
0
0
0
0
0
0
0
0
0
0
0
0
0
0
0
0
0
0
0
0
0
0
0
0
0
0
0
0
0
0
0
0
0
0
0
0
0
0
0
0
0
0
0
0
0
0
1
1
1
1
1
1
1
2
2
2
2
2
2
3
3
3
3
3
4
4
4
4
4
4
5
5
5
5
5
5
5
4
4
4
4
4
4
4
3
3
3
3
3
3
2
2
2
2
2
2
1
1
1
1
1
1
1
1
0
0
0
0
0
0
0
0
0
0
0
0
0
0
0
0
0
0
0
0
0
0
0
0
0
0
0
0
0
0
0
0
0
0
0
0
0
0
0
0
0
0
0
0
0
0
0
0
0
0
0
0
0
0
0
0
0
0
0
0
0
0
0
0
0
0
0
0
0
0
0
0
0
0
0
0
0
0
0
0
0
0
0
0
0
0
0
0
0
0
0
0
0
0
0
0
0
0
0
0
0
0
0
0
0
0
0
0
0
0
0
0
0
0
0
0
0
0
0
0
0
0
0
0
0
0
0
0
0
0
0
0
0
0
0
0
0
0
0
0
0
0
0
0
0
0
0
0
0
0
0
0
0
0
0
0
0
0
0
0
0
0
0
0
0
0
0
0
0
0
0
0
0
0
0
0
0
0
0
0
0
0
0
0
0
0
0
0
0
0
0
0
0
0
0
0
0
0
0
0
0
0
0
0
0
0
0
0
0
0
0
0
0
0
0
0
0
0
0
0
0
0
0
0
0
0
0
0
0
0
0
0
0
0
0
0
0
0
0
0
0
0
0
0
0
0
0
0
0
0
0
0
0
0
0
0
0
0
0
0
0
0
0
0
0
1
1
1
1
1
1
1
1
2
2
2
2
2
2
2
3
3
3
3
3
3
3
3
3
3
3
3
3
3
3
3
3
3
3
2
2
2
2
2
2
2
2
2
1
1
1
1
1
1
1
1
1
0
0
0
0
0
0
0
0
0
0
0
0
0
0
0
0
0
0
0
0
0
0
0
0
0
0
0
0
0
0
0
0
0
0
0
0
0
0
0
0
0
0
0
0
0
0
0
0
0
0
0
0
0
0
0
0
0
0
0
0
0
0
0
0
0
0
0
0
0
0
0
0
0
0
0
0
0
0
0
0
0
0
0
0
0
0
0
0
0
0
0
0
0
0
0
0
0
0
0
0
0
0
0
0
0
0
0
0
0
0
0
0
0
0
0
0
0
0
0
0
0
0
0
0
0
0
0
0
0
0
0
0
0
0
0
0
0
0
0
0
0
0
0
0
0
0
0
0
0
0
0
0
0
0
0
0
0
0
0
0
0
0
0
0
0
0
0
0
0
0
0
0
0
0
0
0
0
0
0
0
0
0
0
0
0
0
0
0
0
0
0
0
0
0
0
0
0
0
0
0
0
0
0
0
0
0
0
0
0
0
0
0
0
0
0
0
0
0
0
0
0
0
0
0
0
0
0
0
0
0
0
0
0
0
0
0
0
0
0
0
0
0
0
0
0
0
0
0
0
0
0
0
0
0
0
0
0
0
0
0
0
0
0
0
0
0
0
0
0
0
0
1
1
1
1
1
1
1
1
1
1
2
2
2
2
2
2
2
2
2
2
2
2
2
2
2
2
2
2
2
2
2
2
2
2
2
1
1
1
1
1
1
1
1
1
1
1
1
0
0
0
0
0
0
0
0
0
0
0
0
0
0
0
0
0
0
0
0
0
0
0
0
0
0
0
0
0
0
0
0
0
0
0
0
0
0
0
0
0
0
0
0
0
0
0
0
0
0
0
0
0
0
0
0
0
0
0
0
0
0
0
0
0
0
0
0
0
0
0
0
0
0
0
0
0
0
0
0
0
0
0
0
0
0
0
0
0
0
0
0
0
0
0
0
0
0
0
0
0
0
0
0
0
0
0
0
0
0
0
0
0
0
0
0
0
0
0
0
0
0
0
0
0
0
0
0
0
0
0
0
0
0
0
0
0
0
0
0
0
0
0
0
0
0
0
0
0
0
0
0
0
0
0
0
0
0
0
0
0
0
0
0
0
0
0
0
0
0
0
0
0
0
0
0
0
0
0
0
0
0
0
0
0
0
0
0
0
0
0
0
0
0
0
0
0
0
0
0
0
0
0
0
0
0
0
0
0
0
0
0
0
0
0
0
0
0
0
0
0
0
0
0
0
0
0
0
0
0
0
0
0
0
0
0
0
0
0
0
0
0
0
0
0
0
0
0
0
0
0
0
0
0
0
0
0
0
0
0
0
0
0
0
0
0
0
0
0
0
0
0
0
0
0
0
0
1
1
1
1
1
1
1
1
1
1
1
1
1
1
1
1
1
1
1
1
1
1
1
1
1
1
1
1
1
1
1
1
1
1
1
1
1
1
1
1
0
0
0
0
0
0
0
0
0
0
0
0
0
0
0
0
0
0
0
0
0
0
0
0
0
0
0
0
0
0
0
0
0
0
0
0
0
0
0
0
0
0
0
0
0
0
0
0
0
0
0
0
0
0
0
0
0
0
0
0
0
0
0
0
0
0
0
0
0
0
0
0
0
0
0
0
0
0
0
0
0
0
0
0
0
0
0
0
0
0
0
0
0
0
0
0
0
0
0
0
0
0
0
0
0
0
0
0
0
0
0
0
0
0
0
0
0
0
0
0
0
0
0
0
0
0
0
0
0
0
0
0
0
0
0
0
0
0
0
0
0
0
0
0
0
0
0
0
0
0
0
0
0
0
0
0
0
0
0
0
0
0
0
0
0
0
0
0
0
0
0
0
0
0
0
0
0
0
0
0
0
0
0
0
0
0
0
0
0
0
0
0
0
0
0
0
0
0
0
0
0
0
0
0
0
0
0
0
0
0
0
0
0
0
0
0
0
0
0
0
0
0
0
0
0
0
0
0
0
0
0
0
0
0
0
0
0
0
0
0
0
0
0
0
0
0
0
0
0
0
0
0
0
0
0
0
0
0
0
0
0
0
0
0
0
0
0
0
0
0
0
0
0
0
0
0
0
0
0
0
0
0
0
0
0
1
1
1
1
1
1
1
1
1
1
1
1
1
1
1
1
1
1
1
1
1
1
1
1
1
1
1
1
1
1
0
0
0
0
0
0
0
0
0
0
0
0
0
0
0
0
0
0
0
0
0
0
0
0
0
0
0
0
0
0
0
0
0
0
0
0
0
0
0
0
0
0
0
0
0
0
0
0
0
0
0
0
0
0
0
0
0
0
0
0
0
0
0
0
0
0
0
0
0
0
0
0
0
0
0
0
0
0
0
0
0
0
0
0
0
0
0
0
0
0
0
0
0
0
0
0
0
0
0
0
0
0
0
0
0
0
0
0
0
0
0
0
0
0
0
0
0
0
0
0
0
0
0
0
0
0
0
0
0
0
0
0
0
0
0
0
0
0
0
0
0
0
0
0
0
0
0
0
0
0
0
0
0
0
0
0
0
0
0
0
0
0
0
0
0
0
0
0
0
0
0
0
0
0
0
0
0
0
0
0
0
0
0
0
0
0
0
0
0
0
0
0
0
0
0
0
0
0
0
0
0
0
0
0
0
0
0
0
0
0
0
0
0
0
0
0
0
0
0
0
0
0
0
0
0
0
0
0
0
0
0
0
0
0
0
0
0
0
0
0
0
0
0
0
0
0
0
0
0
0
0
0
0
0
0
0
0
0
0
0
0
0
0
0
0
0
0
0
0
0
0
0
0
0
0
0
0
0
0
0
0
0
0
0
0
0
0
0
0
0
0
0
0
0
0
0
0
0
0
1
1
1
1
1
1
1
1
0
0
0
0
0
0
0
0
0
0
0
0
0
0
0
0
0
0
0
0
0
0
0
0
0
0
0
0
0
0
0
0
0
0
0
0
0
0
0
0
0
0
0
0
0
0
0
0
0
0
0
0
0
0
0
0
0
0
0
0
0
0
0
0
0
0
0
0
0
0
0
0
0
0
0
0
0
0
0
0
0
0
0
0
0
0
0
0
0
0
0
0
0
0
0
0
0
0
0
0
0
0
0
0
0
0
0
0
0
0
0
0
0
0
0
0
0
0
0
0
0
0
0
0
0
0
0
0
0
0
0
0
0
0
0
0
0
0
0
0
0
0
0
0
0
0
0
0
0
0
0
0
0
0
0
0
0
0
0
0
0
0
0
0
0
0
0
0
0
0
0
0
0
0
0
0
0
0
0
0
0
0
0
0
0
0
0
0
0
0
0
0
0
0
0
0
0
0
0
0
0
0
0
0
0
0
0
0
0
0
0
0
0
0
0
0
0
0
0
0
0
0
0
0
0
0
0
0
0
0
0
0
0
0
0
0
0
0
0
0
0
0
0
0
0
0
0
0
0
0
0
0
0
0
0
0
0
0
0
0
0
0
0
0
0
0
0
0
0
0
0
0
0
0
0
0
0
0
0
0
0
0
0
0
0
0
0
0
0
0
0
0
0
0
0
0
0
0
0
0
0
0
0
0
0
0
0
0
0
0
0
0
0
0
0
0
0
0
0
0
0
0
0
0
0
0
0
0
0
0
0
0
0
0
0
0
0
0
0
0
0
0
0
0
0
0
0
0
0
0
0
0
0
0
0
0
0
0
0
0
0
0
0
0
0
0
0
0
0
0
0
0
0
0
0
0
0
0
0
0
0
0
0
0
0
0
0
0
0
0
0
0
0
0
0
0
0
0
0
0
0
0
0
0
0
0
0
0
0
0
0
0
0
0
0
0
0
0
0
0
0
0
0
0
0
0
0
0
0
0
0
0
0
0
0
0
0
0
0
0
0
0
0
0
0
0
0
0
0
0
0
0
0
0
0
0
0
0
0
0
0
0
0
0
0
0
0
0
0
0
0
0
0
0
0
0
0
0
0
0
0
0
0
0
0
0
0
0
0
0
0
0
0
0
0
0
0
0
0
0
0
0
0
0
0
0
0
0
0
0
0
0
0
0
0
0
0
0
0
0
0
0
0
0
0
0
0
0
0
0
0
0
0
0
0
0
0
0
0
0
0
0
0
0
0
0
0
0
0
0
0
0
0
0
0
0
0
0
0
0
0
0
0
0
0
0
0
0
0
0
0
0
0
0
0
0
0
0
0
0
0
0
0
0
0
0
0
0
0
0
0
0
0
0
0
0
0
0
0
0
0
0
0
0
0
0
0
0
0
0
0
0
0
0
0
0
0
0
0
0
0
0
0
0
0
0
0
0
0
0
0
0
0
0
0
0
0
0
0
0
0
0
0
0
0
0
0
0
0
0
0
0
0
0
0
0
0
0
0
0
0
0
0
0
0
0
0
0
0
0
0
0
0
0
0
0
0
0
0
0
0
0
0
0
0
0
0
0
0
0
0
0
0
0
0
0
0
0
0
0
0
0
0
0
0
0
0
0
0
0
0
0
0
0
0
0
0
0
0
0
0
0
0
0
0
0
0
0
0
0
0
0
0
0
0
0
0
0
0
0
0
0
0
0
0
0
0
0
0
0
0
0
0
0
0
0
0
0
0
0
0
0
0
0
0
0
0
0
0
0
0
0
0
0
0
0
0
0
0
0
0
0
0
0
0
0
0
0
0
0
0
0
0
0
0
0
0
0
0
0
0
0
0
0
0
0
0
0
0
0
0
0
0
0
0
0
0
0
0
0
0
0
0
0
0
0
0
0
0
0
0
0
0
0
0
0
0
0
0
0
0
0
0
0
0
0
0
0
0
0
0
0
0
0
0
0
0
0
0
0
0
0
0
0
0
0
0
0
0
0
0
0
0
0
0
0
0
0
0
0
0
0
0
0
0
0
0
0
0
0
0
0
0
0
0
0
0
0
0
0
0
0
0
0
0
0
0
0
0
0
0
0
0
0
0
0
0
0
0
0
0
0
0
0
0
0
0
0
0
0
0
0
0
0
0
0
0
0
0
0
0
0
0
0
0
0
0
0
0
0
0
0
0
0
0
0
0
0
0
0
0
0
0
0
0
0
0
0
0
0
0
0
0
0
0
0
0
0
0
0
0
0
0
0
0
0
0
0
0
0
0
0
0
0
0
0
0
0
0
0
0
0
0
0
0
0
0
0
0
0
0
0
0
0
0
0
0
0
0
0
0
0
0
0
0
0
0
0
0
0
0
0
0
0
0
0
0
0
0
0
0
0
0
0
0
0
0
0
0
0
0
0
0
0
0
0
0
0
0
0
0
0
0
0
0
0
0
0
0
0
0
0
0
0
0
0
0
0
0
0
0
0
0
0
0
0
0
0
0
0
0
0
0
0
0
0
0
0
0
0
0
0
0
0
0
0
0
0
0
0
0
0
0
0
0
0
0
0
0
0
0
0
0
0
0
0
0
0
0
0
0
0
0
0
0
0
0
0
0
0
0
0
0
0
0
0
0
0
0
0
0
0
0
0
0
0
0
0
0
0
0
0
0
0
0
0
0
0
0
0
0
0
0
0
0
0
0
0
0
0
0
0
0
0
0
0
0
0
0
0
0
0
0
0
0
0
0
0
0
0
0
0
0
0
0
0
0
0
0
0
0
0
0
0
0
0
0
0
0
0
0
0
0
0
0
0
0
0
0
0
0
0
0
0
0
0
0
0
0
0
0
0
0
0
0
0
0
0
0
0
0
0
0
0
0
0
0
0
0
0
0
0
0
0
0
0
0
0
0
0
0
0
0
0
0
0
0
0
0
0
0
0
0
0
0
0
0
0
0
0
0
0
0
0
0
0
0
0
0
0
0
0
0
0
0
0
0
0
0
0
0
0
0
0
0
0
0
0
0
0
0
0
0
0
0
0
0
0
0
0
0
0
0
0
0
0
0
0
0
0
0
0
0
0
0
0
0
0
0
0
0
0
0
0
0
0
0
0
0
0
0
0
0
0
0
0
0
0
0
0
0
0
0
0
0
0
0
0
0
0
0
0
0
0
0
0
0
0
0
0
0
0
0
0
0
0
0
0
0
0
0
0
0
0
0
0
0
0
0
0
0
0
0
0
0
0
0
0
0
0
0
0
0
0
0
0
0
0
0
0
0
0
0
0
0
0
0
0
0
0
0
0
0
0
0
0
0
0
0
0
0
0
0
0
0
0
0
0
0
0
0
0
0
0
0
0
0
0
0
0
0
0
0
0
0
0
0
0
0
0
0
0
0
0
0
0
0
0
0
0
0
0
0
0
0
0
0
0
0
0
0
0
0
0
0
0
0
0
0
0
0
0
0
0
0
0
0
0
0
0
0
0
0
0
0
0
0
0
0
0
0
0
0
0
0
0
0
0
0
0
0
0
0
0
0
0
0
0
0
0
0
0
0
0
0
0
0
0
0
0
0
0
0
0
0
0
0
0
0
0
0
0
0
0
0
0
0
0
0
0
0
0
0
0
0
0
0
0
0
0
0
0
0
0
0
0
0
0
0
0
0
0
0
0
0
0
0
0
0
0
0
0
0
0
0
0
0
0
0
0
0
0
0
0
0
0
0
0
0
0
0
0
0
0
0
0
0
0
0
0
0
0
0
0
0
0
0
0
0
0
0
0
0
0
0
0
0
0
0
0
0
0
0
0
0
0
0
0
0
0
0
0
0
0
0
0
0
0
0
0
0
0
0
0
0
0
0
0
0
0
0
0
0
0
0
0
0
0
0
0
0
0
0
0
0
0
0
0
0
0
0
0
0
0
0
0
0
0
0
0
0
0
0
0
0
0
0
0
0
0
0
0
0
0
0
0
0
0
0
0
0
0
0
0
0
0
0
0
0
0
0
0
0
0
0
0
0
0
0
0
0
0
0
0
0
0
0
0
0
0
0
0
0
0
0
0
0
0
0
0
0
0
0
0
0
0
0
0
0
0
0
0
0
0
0
0
0
0
0
0
0
0
0
0
0
0
0
0
0
0
0
0
0
0
0
0
0
0
0
0
0
0
0
0
0
0
0
0
0
0
0
0
0
0
0
0
0
0
0
0
0
0
0
0
0
0
0
0
0
0
0
0
0
0
0
0
0
0
0
0
0
0
0
0
0
0
0
0
0
0
0
0
0
0
0
0
0
0
0
0
0
0
0
0
0
0
0
0
0
0
0
0
0
0
0
0
0
0
0
0
0
0
0
0
0
0
0
0
0
0
0
0
0
0
0
0
0
0
0
0
0
0
0
0
0
0
0
0
0
0
0
0
0
0
0
0
0
0
0
0
0
0
0
0
0
0
0
0
0
0
0
0
0
0
0
0
0
0
0
0
0
0
0
0
0
0
0
0
0
0
0
0
0
0
0
0
0
0
0
0
0
0
0
0
0
0
0
0
0
0
0
0
0
0
0
0
0
0
0
0
0
0
0
0
0
0
0
0
0
0
0
0
0
0
0
0
0
0
0
0
0
0
0
0
0
0
0
0
0
0
0
0
0
0
0
0
0
0
0
0
0
0
0
0
0
0
0
0
0
0
0
0
0
0
0
0
0
0
0
0
0
0
0
0
0
0
0
0
0
0
0
0
0
0
0
0
0
0
0
0
0
0
0
0
0
0
0
0
0
0
0
0
0
0
0
0
0
0
0
0
0
0
0
0
0
0
0
0
0
0
0
0
0
0
0
0
0
0
0
0
0
0
0
0
0
0
0
0
0
0
0
0
0
0
0
0
0
0
0
0
0
0
0
0
0
0
0
0
0
0
0
0
0
0
0
0
0
0
0
0
0
0
0
0
0
0
0
0
0
0
0
0
0
0
0
0
0
0
0
0
0
0
0
0
0
0
0
0
0
0
0
0
0
0
0
0
0
0
0
0
0
0
0
0
0
0
0
0
0
0
0
0
0
0
0
0
0
0
0
0
0
0
0
0
0
0
0
0
0
0
0
0
0
0
0
0
0
0
0
0
0
0
0
0
0
0
0
0
0
0
0
0
0
0
0
0
0
0
0
0
0
0
0
0
0
0
0
0
0
0
0
0
0
0
0
0
0
0
0
0
0
0
0
0
0
0
0
0
0
0
0
0
0
0
0
0
0
0
0
0
0
0
0
0
0
0
0
0
0
0
0
0
0
0
0
0
0
0
0
0
0
0
0
0
0
0
0
0
0
0
0
0
0
0
0
0
0
0
0
0
0
0
0
0
0
0
0
0
0
0
0
0
0
0
0
0
0
0
0
0
0
0
0
0
0
0
0
0
0
0
0
0
0
0
0
0
0
0
0
0
0
0
0
0
0
0
0
0
0
0
0
0
0
0
0
0
0
0
0
0
0
0
0
0
0
0
0
0
0
0
0
0
0
0
0
0
0
0
0
0
0
0
0
0
0
0
0
0
0
0
0
0
0
0
0
0
0
0
0
0
0
0
0
0
0
0
0
0
0
0
0
0
0
0
0
0
0
0
0
0
0
0
0
0
0
0
0
0
0
0
0
0
0
0
0
0
0
0
0
0
0
0
0
0
0
0
0
0
0
0
0
0
0
0
0
0
0
0
0
0
0
0
0
0
0
0
0
0
0
0
0
0
0
0
0
0
0
0
0
0
0
0
0
0
0
0
0
0
0
0
0
0
0
0
0
0
0
0
0
0
0
0
0
0
0
0
0
0
0
0
0
0
0
0
0
0
0
0
0
0
0
0
0
0
0
0
0
0
0
0
0
0
0
0
0
0
0
0
0
0
0
0
0
0
0
0
0
0
0
0
0
0
0
0
0
0
0
0
0
0
0
0
0
0
0
0
0
0
0
0
0
0
0
0
0
0
0
0
0
0
0
0
0
0
0
0
0
0
0
0
0
0
0
0
0
0
0
0
0
0
0
0
0
0
0
0
0
0
0
0
0
0
0
0
0
0
0
0
0
0
0
0
0
0
0
0
0
0
0
0
0
0
0
0
0
0
0
0
0
0
0
0
0
0
0
0
0
0
0
0
0
0
0
0
0
0
0
0
0
0
0
0
0
0
0
0
0
0
0
0
0
0
0
0
0
0
0
0
0
0
0
0
0
0
0
0
0
0
0
0
0
0
0
0
0
0
0
0
0
0
0
0
0
0
0
0
0
0
0
0
0
0
0
0
0
0
0
0
0
0
0
0
0
0
0
0
0
0
0
0
0
0
0
0
0
0
0
0
0
0
0
0
0
0
0
0
0
0
0
0
0
0
0
0
0
0
0
0
0
0
0
0
0
0
0
0
0
0
0
0
0
0
0
0
0
0
0
0
0
0
0
0
0
0
0
0
0
0
0
0
0
0
0
0
0
0
0
0
0
0
0
0
0
0
0
0
0
0
0
0
0
0
0
0
0
0
0
0
0
0
0
0
0
0
0
0
0
0
0
0
0
0
0
0
0
0
0
0
0
0
0
0
0
0
0
0
0
0
0
0
0
0
0
0
0
0
0
0
0
0
0
0
0
0
0
0
0
0
0
0
0
0
0
0
0
0
0
0
0
0
0
0
0
0
0
0
0
0
0
0
0
0
0
0
0
0
0
0
0
0
0
0
0
0
0
0
0
0
0
0
0
0
0
0
0
0
0
0
0
0
0
0
0
0
0
0
0
0
0
0
0
0
0
0
0
0
0
0
0
0
0
0
0
0
0
0
0
0
0
0
0
0
0
0
0
0
0
0
0
0
0
0
0
0
0
0
0
0
0
0
0
0
0
0
0
0
0
0
0
0
0
0
0
0
0
0
0
0
0
0
0
0
0
0
0
0
0
0
0
0
0
0
0
0
0
0
0
0
0
0
0
0
0
0
0
0
0
0
0
0
0
0
0
0
0
0
0
0
0
0
0
0
0
0
0
0
0
0
0
0
0
0
0
0
0
0
0
0
0
0
0
0
0
0
0
0
0
0
0
0
0
0
0
0
0
0
0
0
0
0
0
0
0
0
0
0
0
0
0
0
0
0
0
0
0
0
0
0
0
0
0
0
0
0
0
0
0
0
0
0
0
0
0
0
0
0
0
0
0
0
0
0
0
0
0
0
0
0
0
0
0
0
0
0
0
0
0
0
0
0
0
0
0
0
0
0
0
0
0
0
0
0
0
0
0
0
0
0
0
0
0
0
0
0
0
0
0
0
0
0
0
0
0
0
0
0
0
0
0
0
0
0
0
0
0
0
0
0
0
0
0
0
0
0
0
0
0
0
0
0
0
0
0
0
0
0
0
0
0
0
0
0
0
0
0
0
0
0
0
0
0
0
0
0
0
0
0
0
0
0
0
0
0
0
0
0
0
0
0
0
0
0
0
0
0
0
0
0
0
0
0
0
0
0
0
0
0
0
0
0
0
0
0
0
0
0
0
0
0
0
0
0
0
0
0
0
0
0
0
0
0
0
0
0
0
0
0
0
0
0
0
0
0
0
0
0
0
0
0
0
0
0
0
0
0
0
0
0
0
0
0
0
0
0
0
0
0
0
0
0
0
0
0
0
0
0
0
0
0
0
0
0
0
0
0
0
0
0
0
0
0
0
0
0
0
0
0
0
0
0
0
0
0
0
0
0
0
0
0
0
0
0
0
0
0
0
0
0
0
0
0
0
0
0
0
0
0
0
0
0
0
0
0
0
0
0
0
0
0
0
0
0
0
0
0
0
0
0
0
0
0
0
0
0
0
0
0
0
0
0
0
0
0
0
0
0
0
0
0
0
0
0
0
0
0
0
0
0
0
0
0
0
0
0
0
0
0
0
0
0
0
0
0
0
0
0
0
0
0
0
0
0
0
0
0
0
0
0
0
0
0
0
0
0
0
0
0
0
0
0
0
0
0
0
0
0
0
0
0
0
0
0
0
0
0
0
0
0
0
0
0
0
0
0
0
0
0
0
0
0
0
0
0
0
0
0
0
0
0
0
0
0
0
0
0
0
0
0
0
0
0
0
0
0
0
0
0
0
0
0
0
0
0
0
0
0
0
0
0
0
0
0
0
0
0
0
0
0
0
0
0
0
0
0
0
0
0
0
0
0
0
0
0
0
0
0
0
0
0
0
0
0
0
0
0
0
0
0
0
0
0
0
0
0
0
0
0
0
0
0
0
0
0
0
0
0
0
0
0
0
0
0
0
0
0
0
0
0
0
0
0
0
0
0
0
0
0
0
0
0
0
0
0
0
0
0
0
0
0
0
0
0
0
0
0
0
0
0
0
0
0
0
0
0
0
0
0
0
0
0
0
0
0
0
0
0
0
0
0
0
0
0
0
0
0
0
0
0
0
0
0
0
0
0
0
0
0
0
0
0
0
0
0
0
0
0
0
0
0
0
0
0
0
0
0
0
0
0
0
0
0
0
0
0
0
0
0
0
0
0
0
0
0
0
0
0
0
0
0
0
0
0
0
0
0
0
0
0
0
0
0
0
0
0
0
0
0
0
0
0
0
0
0
0
0
0
0
0
0
0
0
0
0
0
0
0
0
0
0
0
0
0
0
0
0
0
0
0
0
0
0
0
0
0
0
0
0
0
0
0
0
0
0
0
0
0
0
0
0
0
0
0
0
0
0
0
0
0
0
0
0
0
0
0
0
0
0
0
0
0
0
0
0
0
0
0
0
0
0
0
0
0
0
0
0
0
0
0
0
0
0
0
0
0
0
0
0
0
0
0
0
0
0
0
0
0
0
0
0
0
0
0
0
0
0
0
0
0
0
0
0
0
0
0
0
0
0
0
0
0
0
0
0
0
0
0
0
0
0
0
0
0
0
0
0
0
0
0
0
0
0
0
0
0
0
0
0
0
0
0
0
0
0
0
0
0
0
0
0
0
0
0
0
0
0
0
0
0
0
0
0
0
0
0
0
0
0
0
0
0
0
0
0
0
0
0
0
0
0
0
0
0
0
0
0
0
0
0
0
0
0
0
0
0
0
0
0
0
0
0
0
0
0
0
0
0
0
0
0
0
0
0
0
0
0
0
0
0
0
0
0
0
0
0
0
0
0
0
0
0
0
0
0
0
0
0
0
0
0
0
0
0
0
0
0
0
0
0
0
0
0
0
0
0
0
0
0
0
0
0
0
0
0
0
0
0
0
0
0
0
0
0
0
0
0
0
0
0
0
0
0
0
0
0
0
0
0
0
0
0
0
0
0
0
0
0
0
0
0
0
0
0
0
0
0
0
0
0
0
0
0
0
0
0
0
0
0
0
0
0
0
0
0
0
0
0
0
0
0
0
0
0
0
0
0
0
0
0
0
0
0
0
0
0
0
0
0
0
0
0
0
0
0
0
0
0
0
0
0
0
0
0
0
0
0
0
0
0
0
0
0
0
0
0
0
0
0
0
0
0
0
0
0
0
0
0
0
0
0
0
0
0
0
0
0
0
0
0
0
0
0
0
0
0
0
0
0
0
0
0
0
0
0
0
0
0
0
0
0
0
0
0
0
0
0
0
0
0
0
0
0
0
0
0
0
0
0
0
0
0
0
0
0
0
0
0
0
0
0
0
0
0
0
0
0
0
0
0
0
0
0
0
0
0
0
0
0
0
0
0
0
0
0
0
0
0
0
0
0
0
0
0
0
0
0
0
0
0
0
0
0
0
0
0
0
0
0
0
0
0
0
0
0
0
0
0
0
0
0
0
0
0
0
0
0
0
0
0
0
0
0
0
0
0
0
0
0
0
0
0
0
0
0
0
0
0
0
0
0
0
0
0
0
0
0
0
0
0
0
0
0
0
0
0
0
0
0
0
0
0
0
0
0
0
0
0
0
0
0
0
0
0
0
0
0
0
0
0
0
0
0
0
0
0
0
0
0
0
0
0
0
0
0
0
0
0
0
0
0
0
0
0
0
0
0
0
0
0
0
0
0
0
0
0
0
0
0
0
0
0
0
0
0
0
0
0
0
0
0
0
0
0
0
0
0
0
0
0
0
0
0
0
0
0
0
0
0
0
0
0
0
0
0
0
0
0
0
0
0
0
0
0
0
0
0
0
0
0
0
0
0
0
0
0
0
0
0
0
0
0
0
0
0
0
0
0
0
0
0
0
0
0
0
0
0
0
0
0
0
0
0
0
0
0
0
0
0
0
0
0
0
0
0
0
0
0
0
0
0
0
0
0
0
0
0
0
0
0
0
0
0
0
0
0
0
0
0
0
0
0
0
0
0
0
0
0
0
0
0
0
0
0
0
0
0
0
0
0
0
0
0
0
0
0
0
0
0
0
0
0
0
0
0
0
0
0
0
0
0
0
0
0
0
0
0
0
0
0
0
0
0
0
0
0
0
0
0
0
0
0
0
0
0
0
0
0
0
0
0
0
0
0
0
0
0
0
0
0
0
0
0
0
0
0
0
0
0
0
0
0
0
0
0
0
0
0
0
0
0
0
0
0
0
0
0
0
0
0
0
0
0
0
0
0
0
0
0
0
0
0
0
0
0
0
0
0
0
0
0
0
0
0
0
0
0
0
0
0
0
0
0
0
0
0
0
0
0
0
0
0
0
0
0
0
0
0
0
0
0
0
0
0
0
0
0
0
0
0
0
0
0
0
0
0
0
0
0
0
0
0
0
0
0
0
0
0
0
0
0
0
0
0
0
0
0
0
0
0
0
0
0
0
0
0
0
0
0
0
0
0
0
0
0
0
0
0
0
0
0
0
0
0
0
0
0
0
0
0
0
0
0
0
0
0
0
0
0
0
0
0
0
0
0
0
0
0
0
0
0
0
0
0
0
0
0
0
0
0
0
0
0
0
0
0
0
0
0
0
0
0
0
0
0
0
0
0
0
0
0
0
0
0
0
0
0
0
0
0
0
0
0
0
0
0
0
0
0
0
0
0
0
0
0
0
0
0
0
0
0
0
0
0
0
0
0
0
0
0
0
0
0
0
0
0
0
0
0
0
0
0
0
0
0
0
0
0
0
0
0
0
0
0
0
0
0
0
0
0
0
0
0
0
0
0
0
0
0
0
0
0
0
0
0
0
0
0
0
0
0
0
0
0
0
0
0
0
0
0
0
0
0
0
0
0
0
0
0
0
0
0
0
0
0
0
0
0
0
0
0
0
0
0
0
0
0
0
0
0
0
0
0
0
0
0
0
0
0
0
0
0
0
0
0
0
0
0
0
0
0
0
0
0
0
0
0
0
0
0
0
0
0
0
0
0
0
0
0
0
0
0
0
0
0
0
0
0
0
0
0
0
0
0
0
0
0
0
0
0
0
0
0
0
0
0
0
0
0
0
0
0
0
0
0
0
0
0
0
0
0
0
0
0
0
0
0
0
0
0
0
0
0
0
0
0
0
0
0
0
0
0
0
0
0
0
0
0
0
0
0
0
0
0
0
0
0
0
0
0
0
0
0
0
0
0
0
0
0
0
0
0
0
0
0
0
0
0
0
0
0
0
0
0
0
0
0
0
0
0
0
0
0
0
0
0
0
0
0
0
0
0
0
0
0
0
0
0
0
0
0
0
0
0
0
0
0
0
0
0
0
0
0
0
0
0
0
0
0
0
0
0
0
0
0
0
0
0
0
0
0
0
0
0
0
0
0
0
0
0
0
0
0
0
0
0
0
0
0
0
0
0
0
0
0
0
0
0
0
0
0
0
0
0
0
0
0
0
0
0
0
0
0
0
0
0
0
0
0
0
0
0
0
0
0
0
0
0
0
0
0
0
0
0
0
0
0
0
0
0
0
0
0
0
0
0
0
0
0
0
0
0
0
0
0
0
0
0
0
0
0
0
0
0
0
0
0
0
0
0
0
0
0
0
0
0
0
0
0
0
0
0
0
0
0
0
0
0
0
0
0
0
0
0
0
0
0
0
0
0
0
0
0
0
0
0
0
0
0
0
0
0
0
0
0
0
0
0
0
0
0
0
0
0
0
0
0
0
0
0
0
0
0
0
0
0
0
0
0
0
0
0
0
0
0
0
0
0
0
0
0
0
0
0
0
0
0
0
0
0
0
0
0
0
0
0
0
0
0
0
0
0
0
0
0
0
0
0
0
0
0
0
0
0
0
0
0
0
0
0
0
0
0
0
0
0
0
0
0
0
0
0
0
0
0
0
0
0
0
0
0
0
0
0
0
0
0
0
0
0
0
0
0
0
0
0
0
0
0
0
0
0
0
0
0
0
0
0
0
0
0
0
0
0
0
0
0
0
0
0
0
0
0
0
0
0
0
0
0
0
0
0
0
0
0
0
0
0
0
0
0
0
0
0
0
0
0
0
0
0
0
0
0
0
0
0
0
0
0
0
0
0
0
0
0
0
0
0
0
0
0
0
0
0
0
0
0
0
0
0
0
0
0
0
0
0
0
0
0
0
0
0
0
0
0
0
0
0
0
0
0
0
0
0
0
0
0
0
0
0
0
0
0
0
0
0
0
0
0
0
0
0
0
0
0
0
0
0
0
0
0
0
0
0
0
0
0
0
0
0
0
0
0
0
0
0
0
0
0
0
0
0
0
0
0
0
0
0
0
0
0
0
0
0
0
0
0
0
0
0
0
0
0
0
0
0
0
0
0
0
0
0
0
0
0
0
0
0
0
0
0
0
0
0
0
0
0
0
0
0
0
0
0
0
0
0
0
0
0
0
0
0
0
0
0
0
0
0
0
0
0
0
0
0
0
0
0
0
0
0
0
0
0
0
0
0
0
0
0
0
0
0
0
0
0
0
0
0
0
0
0
0
0
0
0
0
0
0
0
0
0
0
0
0
0
0
0
0
0
0
0
0
0
0
0
0
0
0
0
0
0
0
0
0
0
0
0
0
0
0
0
0
0
0
0
0
0
0
0
0
0
0
0
0
0
0
0
0
0
0
0
0
0
0
0
0
0
0
0
0
0
0
0
0
0
0
0
0
0
0
0
0
0
0
0
0
0
0
0
0
0
0
0
0
0
0
0
0
0
0
0
0
0
0
0
0
0
0
0
0
0
0
0
0
0
0
0
0
0
0
0
0
0
0
0
0
0
0
0
0
0
0
0
0
0
0
0
0
0
0
0
0
0
0
0
0
0
0
0
0
0
0
0
0
0
0
0
0
0
0
0
0
0
0
0
0
0
0
0
0
0
0
0
0
0
0
0
0
0
0
0
0
0
0
0
0
0
0
0
0
0
0
0
0
0
0
0
0
0
0
0
0
0
0
0
0
0
0
0
0
0
0
0
0
0
0
0
0
0
0
0
0
0
0
0
0
0
0
0
0
0
0
0
0
0
0
0
0
0
0
0
0
0
0
0
0
0
0
0
0
0
0
0
0
0
0
0
0
0
0
0
0
0
0
0
0
0
0
0
0
0
0
0
0
0
0
0
0
0
0
0
0
0
0
0
0
0
0
0
0
0
0
0
0
0
0
0
0
0
0
0
0
0
0
0
0
0
0
0
0
0
0
0
0
0
0
0
0
0
0
0
0
0
0
0
0
0
0
0
0
0
0
0
0
0
0
0
0
0
0
0
0
0
0
0
0
0
0
0
0
0
0
0
0
0
0
0
0
0
0
0
0
0
0
0
0
0
0
0
0
0
0
0
0
0
0
0
0
0
0
0
0
0
0
0
0
0
0
0
0
0
0
0
0
0
0
0
0
0
0
0
0
0
0
0
0
0
0
0
0
0
0
0
0
0
0
0
0
0
0
0
0
0
0
0
0
0
0
0
0
0
0
0
0
0
0
0
0
0
0
0
0
0
0
0
0
0
0
0
0
0
0
0
0
0
0
0
0
0
0
0
0
0
0
0
0
0
0
0
0
0
0
0
0
0
0
0
0
0
0
0
0
0
0
0
0
0
0
0
0
0
0
0
0
0
0
0
0
0
0
0
0
0
0
0
0
0
0
0
0
0
0
0
0
0
0
0
0
0
0
0
0
0
0
0
0
0
0
0
0
0
0
0
0
0
0
0
0
0
0
0
0
0
0
0
0
0
0
0
0
0
0
0
0
0
0
0
0
0
0
0
0
0
0
0
0
0
0
0
0
0
0
0
0
0
0
0
0
0
0
0
0
0
0
0
0
0
0
0
0
0
0
0
0
0
0
0
0
0
0
0
0
0
0
0
0
0
0
0
0
0
0
0
0
0
0
0
0
0
0
0
0
0
0
0
0
0
0
0
0
0
0
0
0
0
0
0
0
0
0
0
0
0
0
0
0
0
0
0
0
0
0
0
0
0
0
0
0
0
0
0
0
0
0
0
0
0
0
0
0
0
0
0
0
0
0
0
0
0
0
0
0
0
0
0
0
0
0
0
0
0
0
0
0
0
0
0
0
0
0
0
0
0
0
0
0
0
0
0
0
0
0
0
0
0
0
0
0
0
0
0
0
0
0
0
0
0
0
0
0
0
0
0
0
0
0
0
0
0
0
0
0
0
0
0
0
0
0
0
0
0
0
0
0
0
0
0
0
0
0
0
0
0
0
0
0
0
0
0
0
0
0
0
0
0
0
0
0
0
0
0
0
0
0
0
0
0
0
0
0
0
0
0
0
0
0
0
0
0
0
0
0
0
0
0
0
0
0
0
0
0
0
0
0
0
0
0
0
0
0
0
0
0
0
0
0
0
0
0
0
0
0
0
0
0
0
0
0
0
0
0
0
0
0
0
0
0
0
0
0
0
0
0
0
0
0
0
0
0
0
0
0
0
0
0
0
0
0
0
0
0
0
0
0
0
0
0
0
0
0
0
0
0
0
0
0
0
0
0
0
0
0
0
0
0
0
0
0
0
0
0
0
0
0
0
0
0
0
0
0
0
0
0
0
0
0
0
0
0
0
0
0
0
0
0
0
0
0
0
0
0
0
0
0
0
0
0
0
0
0
0
0
0
0
0
0
0
0
0
0
0
0
0
0
0
0
0
0
0
0
0
0
0
0
0
0
0
0
0
0
0
0
0
0
0
0
0
0
0
0
0
0
0
0
0
0
0
0
0
0
0
0
0
0
0
0
0
0
0
0
0
0
0
0
0
0
0
0
0
0
0
0
0
0
0
0
0
0
0
0
0
0
0
0
0
0
0
0
0
0
0
0
0
0
0
0
0
0
0
0
0
0
0
0
0
0
0
0
0
0
0
0
0
0
0
0
0
0
0
0
0
0
0
0
0
0
0
0
0
0
0
0
0
0
0
0
0
0
0
0
0
0
0
0
0
0
0
0
0
0
0
0
0
0
0
0
0
0
0
0
0
0
0
0
0
0
0
0
0
0
0
0
0
0
0
0
0
0
0
0
0
0
0
0
0
0
0
0
0
0
0
0
0
0
0
0
0
0
0
0
0
0
0
0
0
0
0
0
0
0
0
0
0
0
0
0
0
0
0
0
0
0
0
0
0
0
0
0
0
0
0
0
0
0
0
0
0
0
0
0
0
0
0
0
0
0
0
0
0
0
0
0
0
0
0
0
0
0
0
0
0
0
0
0
0
0
0
0
0
0
0
0
0
0
0
0
0
0
0
0
0
0
0
0
0
0
0
0
0
0
0
0
0
0
0
0
0
0
0
0
0
0
0
0
0
0
0
0
0
0
0
0
0
0
0
0
0
0
0
0
0
0
0
0
0
0
0
0
0
0
0
0
0
0
0
0
0
0
0
0
0
0
0
0
0
0
0
0
0
0
0
0
0
0
0
0
0
0
0
0
0
0
0
0
0
0
0
0
0
0
0
0
0
0
0
0
0
0
0
0
0
0
0
0
0
0
0
0
0
0
0
0
0
0
0
0
0
0
0
0
0
0
0
0
0
0
0
0
0
0
0
0
0
0
0
0
0
0
0
0
0
0
0
0
0
0
0
0
0
0
0
0
0
0
0
0
0
0
0
0
0
0
0
0
0
0
0
0
0
0
0
0
0
0
0
0
0
0
0
0
0
0
0
0
0
0
0
0
0
0
0
0
0
0
0
0
0
0
0
0
0
0
0
0
0
0
0
0
0
0
0
0
0
0
0
0
0
0
0
0
0
0
0
0
0
0
0
0
0
0
0
0
0
0
0
0
0
0
0
0
0
0
0
0
0
0
0
0
0
0
0
0
0
0
0
0
0
0
0
0
0
0
0
0
0
0
0
0
0
0
0
0
0
0
0
0
0
0
0
0
0
0
0
0
0
0
0
0
0
0
0
0
0
0
0
0
0
0
0
0
0
0
0
0
0
0
0
0
0
0
0
0
0
0
0
0
0
0
0
0
0
0
0
0
0
0
0
0
0
0
0
0
0
0
0
0
0
0
0
0
0
0
0
0
0
0
0
0
0
0
0
0
0
0
0
0
0
0
0
0
0
0
0
0
0
0
0
0
0
0
0
0
0
0
0
0
0
0
0
0
0
0
0
0
0
0
0
0
0
0
0
0
0
0
0
0
0
0
0
0
0
0
0
0
0
0
0
0
0
0
0
0
0
0
0
0
0
0
0
0
0
0
0
0
0
0
0
0
0
0
0
0
0
0
0
0
0
0
0
0
0
0
0
0
0
0
0
0
0
0
0
0
0
0
0
0
0
0
0
0
0
0
0
0
0
0
0
0
0
0
0
0
0
0
0
0
0
0
0
0
0
0
0
0
0
0
0
0
0
0
0
0
0
0
0
0
0
0
0
0
0
0
0
0
0
0
0
0
0
0
0
0
0
0
0
0
0
0
0
0
0
0
0
0
0
0
0
0
0
0
0
0
0
0
0
0
0
0
0
0
0
0
0
0
0
0
0
0
0
0
0
0
0
0
0
0
0
0
0
0
0
0
0
0
0
0
0
0
0
0
0
0
0
0
0
0
0
0
0
0
0
0
0
0
0
0
0
0
0
0
0
0
0
0
0
0
0
0
0
0
0
0
0
0
0
0
0
0
0
0
0
0
0
0
0
0
0
0
0
0
0
0
0
0
0
0
0
0
0
0
0
0
0
0
0
0
0
0
0
0
0
0
0
0
0
0
0
0
0
0
0
0
0
0
0
0
0
0
0
0
0
0
0
0
0
0
0
0
0
0
0
0
0
0
0
0
0
0
0
0
0
0
0
0
0
0
0
0
0
0
0
0
0
0
0
0
0
0
0
0
0
0
0
0
0
0
0
0
0
0
0
0
0
0
0
0
0
0
0
0
0
0
0
0
0
0
0
0
0
0
0
0
0
0
0
0
0
0
0
0
0
0
0
0
0
0
0
0
0
0
0
0
0
0
0
0
0
0
0
0
0
0
0
0
0
0
0
0
0
0
0
0
0
0
0
0
0
0
0
0
0
0
0
0
0
0
0
0
0
0
0
0
0
0
0
0
0
0
0
0
0
0
0
0
0
0
0
0
0
0
0
0
0
0
0
0
0
0
0
0
0
0
0
0
0
0
0
0
0
0
0
0
0
0
0
0
0
0
0
0
0
0
0
0
0
0
0
0
0
0
0
0
0
0
0
0
0
0
0
0
0
0
0
0
0
0
0
0
0
0
0
0
0
0
0
0
0
0
0
0
0
0
0
0
0
0
0
0
0
0
0
0
0
0
0
0
0
0
0
0
0
0
0
0
0
0
0
0
0
0
0
0
0
0
0
0
0
0
0
0
0
0
0
0
0
0
0
0
0
0
0
0
0
0
0
0
0
0
0
0
0
0
0
0
0
0
0
0
0
0
0
0
0
0
0
0
0
0
0
0
0
0
0
0
0
0
0
0
0
0
0
0
0
0
0
0
0
0
0
0
0
0
0
0
0
0
0
0
0
0
0
0
0
0
0
0
0
0
0
0
0
0
0
0
0
0
0
0
0
0
0
0
0
0
0
0
0
0
0
0
0
0
0
0
0
0
0
0
0
0
0
0
0
0
0
0
0
0
0
0
0
0
0
0
0
0
0
0
0
0
0
0
0
0
0
0
0
0
0
0
0
0
0
0
0
0
0
0
0
0
0
0
0
0
0
0
0
0
0
0
0
0
0
0
0
0
0
0
0
0
0
0
0
0
0
0
0
0
0
0
0
0
0
0
0
0
0
0
0
0
0
0
0
0
0
0
0
0
0
0
0
0
0
0
0
0
0
0
0
0
0
0
0
0
0
0
0
0
0
0
0
0
0
0
0
0
0
0
0
0
0
0
0
0
0
0
0
0
0
0
0
0
0
0
0
0
0
0
0
0
0
0
0
0
0
0
0
0
0
0
0
0
0
0
0
0
0
0
0
0
0
0
0
0
0
0
0
0
0
0
0
0
0
0
0
0
0
0
0
0
0
0
0
0
0
0
0
0
0
0
0
0
0
0
0
0
0
0
0
0
0
0
0
0
0
0
0
0
0
0
0
0
0
0
0
0
0
0
0
0
0
0
0
0
0
0
0
0
0
0
0
0
0
0
0
0
0
0
0
0
0
0
0
0
0
0
0
0
0
0
0
0
0
0
0
0
0
0
0
0
0
0
0
0
0
0
0
0
0
0
0
0
0
0
0
0
0
0
0
0
0
0
0
0
0
0
0
0
0
0
0
0
0
0
0
0
0
0
0
0
0
0
0
0
0
0
0
0
0
0
0
0
0
0
0
0
0
0
0
0
0
0
0
0
0
0
0
0
0
0
0
0
0
0
0
0
0
0
0
0
0
0
0
0
0
0
0
0
0
0
0
0
0
0
0
0
0
0
0
0
0
0
0
0
0
0
0
0
0
0
0
0
0
0
0
0
0
0
0
0
0
0
0
0
0
0
0
0
0
0
0
0
0
0
0
0
0
0
0
0
0
0
0
0
0
0
0
0
0
0
0
0
0
0
0
0
0
0
0
0
0
0
0
0
0
0
0
0
0
0
0
0
0
0
0
0
0
0
0
0
0
0
0
0
0
0
0
0
0
0
0
0
0
0
0
0
0
0
0
0
0
0
0
0
0
0
0
0
0
0
0
0
0
0
0
0
0
0
0
0
0
0
0
0
0
0
0
0
0
0
0
0
0
0
0
0
0
0
0
0
0
0
0
0
0
0
0
0
0
0
0
0
0
0
0
0
0
0
0
0
0
0
0
0
0
0
0
0
0
0
0
0
0
0
0
0
0
0
0
0
0
0
0
0
0
0
0
0
0
0
0
0
0
0
0
0
0
0
0
0
0
0
0
0
0
0
0
0
0
0
0
0
0
0
0
0
0
0
0
0
0
0
0
0
0
0
0
0
0
0
0
0
0
0
0
0
0
0
0
0
0
0
0
0
0
0
0
0
0
0
0
0
0
0
0
0
0
0
0
0
0
0
0
0
0
0
0
0
0
0
0
0
0
0
0
0
0
0
0
0
0
0
0
0
0
0
0
0
0
0
0
0
0
0
0
0
0
0
0
0
0
0
0
0
0
0
0
0
0
0
0
0
0
0
0
0
0
0
0
0
0
0
0
0
0
0
0
0
0
0
0
0
0
0
0
0
0
0
0
0
0
0
0
0
0
0
0
0
0
0
0
0
0
0
0
0
0
0
0
0
0
0
0
0
0
0
0
0
0
0
0
0
0
0
0
0
0
0
0
0
0
0
0
0
0
0
0
0
0
0
0
0
0
0
0
0
0
0
0
0
0
0
0
0
0
0
0
0
0
0
0
0
0
0
0
0
0
0
0
0
0
0
0
0
0
0
0
0
0
0
0
0
0
0
0
0
0
0
0
0
0
0
0
0
0
0
0
0
0
0
0
0
0
0
0
0
0
0
0
0
0
0
0
0
0
0
0
0
0
0
0
0
0
0
0
0
0
0
0
0
0
0
0
0
0
0
0
0
0
0
0
0
0
0
0
0
0
0
0
0
0
0
0
0
0
0
0
0
0
0
0
0
0
0
0
0
0
0
0
0
0
0
0
0
0
0
0
0
0
0
0
0
0
0
0
0
0
0
0
0
0
0
0
0
0
0
0
0
0
0
0
0
0
0
0
0
0
0
0
0
0
0
0
0
0
0
0
0
0
0
0
0
0
0
0
0
0
0
0
0
0
0
0
0
0
0
0
0
0
0
0
0
0
0
0
0
0
0
0
0
0
0
0
0
0
0
0
0
0
0
0
0
0
0
0
0
0
0
0
0
0
0
0
0
0
0
0
0
0
0
0
0
0
0
0
0
0
0
0
0
0
0
0
0
0
0
0
0
0
0
0
0
0
0
0
0
0
0
0
0
0
0
0
0
0
0
0
0
0
0
0
0
0
0
0
0
0
0
0
0
0
0
0
0
0
0
0
0
0
0
0
0
0
0
0
0
0
0
0
0
0
0
0
0
0
0
0
0
0
0
0
0
0
0
0
0
0
0
0
0
0
0
0
0
0
0
0
0
0
0
0
0
0
0
0
0
0
0
0
0
0
0
0
0
0
0
0
0
0
0
0
0
0
0
0
0
0
0
0
0
0
0
0
0
0
0
0
0
0
0
0
0
0
0
0
0
0
0
0
0
0
0
0
0
0
0
0
0
0
0
0
0
0
0
0
0
0
0
0
0
0
0
0
0
0
0
0
0
0
0
0
0
0
0
0
0
0
0
0
0
0
0
0
0
0
0
0
0
0
0
0
0
0
0
0
0
0
0
0
0
0
0
0
0
0
0
0
0
0
0
0
0
0
0
0
0
0
0
0
0
0
0
0
0
0
0
0
0
0
0
0
0
0
0
0
0
0
0
0
0
0
0
0
0
0
0
0
0
0
0
0
0
0
0
0
0
0
0
0
0
0
0
0
0
0
0
0
0
0
0
0
0
0
0
0
0
0
0
0
0
0
0
0
0
0
0
0
0
0
0
0
0
0
0
0
0
0
0
0
0
0
0
0
0
0
0
0
0
0
0
0
0
0
0
0
0
0
0
0
0
0
0
0
0
0
0
0
0
0
0
0
0
0
0
0
0
0
0
0
0
0
0
0
0
0
0
0
0
0
0
0
0
0
0
0
0
0
0
0
0
0
0
0
0
0
0
0
0
0
0
0
0
0
0
0
0
0
0
0
0
0
0
0
0
0
0
0
0
0
0
0
0
0
0
0
0
0
0
0
0
0
0
0
0
0
0
0
0
0
0
0
0
0
0
0
0
0
0
0
0
0
0
0
0
0
0
0
0
0
0
0
0
0
0
0
0
0
0
0
0
0
0
0
0
0
0
0
0
0
0
0
0
0
0
0
0
0
0
0
0
0
0
0
0
0
0
0
0
0
0
0
0
0
0
0
0
0
0
0
0
0
0
0
0
0
0
0
0
0
0
0
0
0
0
0
0
0
0
0
0
0
0
0
0
0
0
0
0
0
0
0
0
0
0
0
0
0
0
0
0
0
0
0
0
0
0
0
0
0
0
0
0
0
0
0
0
0
0
0
0
0
0
0
0
0
0
0
0
0
0
0
0
0
0
0
0
0
0
0
0
0
0
0
0
0
0
0
0
0
0
0
0
0
0
0
0
0
0
0
0
0
0
0
0
0
0
0
0
0
0
0
0
0
0
0
0
0
0
0
0
0
0
0
0
0
0
0
0
0
0
0
0
0
0
0
0
0
0
0
0
0
0
0
0
0
0
0
0
0
0
0
0
0
0
0
0
0
0
0
0
0
0
0
0
0
0
0
0
0
0
0
0
0
0
0
0
0
0
0
0
0
0
0
0
0
0
0
0
0
0
0
0
0
0
0
0
0
0
0
0
0
0
0
0
0
0
0
0
0
0
0
0
0
0
0
0
0
0
0
0
0
0
0
0
0
0
0
0
0
0
0
0
0
0
0
0
0
0
0
0
0
0
0
0
0
0
0
0
0
0
0
0
0
0
0
0
0
0
0
0
0
0
0
0
0
0
0
0
0
0
0
0
0
0
0
0
0
0
0
0
0
0
0
0
0
0
0
0
0
0
0
0
0
0
0
0
0
0
0
0
0
0
0
0
0
0
0
0
0
0
0
0
0
0
0
0
0
0
0
0
0
0
0
0
0
0
0
0
0
0
0
0
0
0
0
0
0
0
0
0
0
0
0
0
0
0
0
0
0
0
0
0
0
0
0
0
0
0
0
0
0
0
0
0
0
0
0
0
0
0
0
0
0
0
0
0
0
0
0
0
0
0
0
0
0
0
0
0
0
0
0
0
0
0
0
0
0
0
0
0
0
0
0
0
0
0
0
0
0
0
0
0
0
0
0
0
0
0
0
0
0
0
0
0
0
0
0
0
0
0
0
0
0
0
0
0
0
0
0
0
0
0
0
0
0
0
0
0
0
0
0
0
0
0
0
0
0
0
0
0
0
0
0
0
0
0
0
0
0
0
0
0
0
0
0
0
0
0
0
0
0
0
0
0
0
0
0
0
0
0
0
0
0
0
0
0
0
0
0
0
0
0
0
0
0
0
0
0
0
0
0
0
0
0
0
0
0
0
0
0
0
0
0
0
0
0
0
0
0
0
0
0
0
0
0
0
0
0
0
0
0
0
0
0
0
0
0
0
0
0
0
0
0
0
0
0
0
0
0
0
0
0
0
0
0
0
0
0
0
0
0
0
0
0
0
0
0
0
0
0
0
0
0
0
0
0
0
0
0
0
0
0
0
0
0
0
0
0
0
0
0
0
0
0
0
0
0
0
0
0
0
0
0
0
0
0
0
0
0
0
0
0
0
0
0
0
0
0
0
0
0
0
0
0
0
0
0
0
0
0
0
0
0
0
0
0
0
0
0
0
0
0
0
0
0
0
0
0
0
0
0
0
0
0
0
0
0
0
0
0
0
0
0
0
0
0
0
0
0
0
0
0
0
0
0
0
0
0
0
0
0
0
0
0
0
0
0
0
0
0
0
0
0
0
0
0
0
0
0
0
0
0
0
0
0
0
0
0
0
0
0
0
0
0
0
0
0
0
0
0
0
0
0
0
0
0
0
0
0
0
0
0
0
0
0
0
0
0
0
0
0
0
0
0
0
0
0
0
0
0
0
0
0
0
0
0
0
0
0
0
0
0
0
0
0
0
0
0
0
0
0
0
0
0
0
0
0
0
0
0
0
0
0
0
0
0
0
0
0
0
0
0
0
0
0
0
0
0
0
0
0
0
0
0
0
0
0
0
0
0
0
0
0
0
0
0
0
0
0
0
0
0
0
0
0
0
0
0
0
0
0
0
0
0
0
0
0
0
0
0
0
0
0
0
0
0
0
0
0
0
0
0
0
0
0
0
0
0
0
0
0
0
0
0
0
0
0
0
0
0
0
0
0
0
0
0
0
0
0
0
0
0
0
0
0
0
0
0
0
0
0
0
0
0
0
0
0
0
0
0
0
0
0
0
0
0
0
0
0
0
0
0
0
0
0
0
0
0
0
0
0
0
0
0
0
0
0
0
0
0
0
0
0
0
0
0
0
0
0
0
0
0
0
0
0
0
0
0
0
0
0
0
0
0
0
0
0
0
0
0
0
0
0
0
0
0
0
0
0
0
0
0
0
0
0
0
0
0
0
0
0
0
0
0
0
0
0
0
0
0
0
0
0
0
0
0
0
0
0
0
0
0
0
0
0
0
0
0
0
0
0
0
0
0
0
0
0
0
0
0
0
0
0
0
0
0
0
0
0
0
0
0
0
0
0
0
0
0
0
0
0
0
0
0
0
0
0
0
0
0
0
0
0
0
0
0
0
0
0
0
0
0
0
0
0
0
0
0
0
0
0
0
0
0
0
0
0
0
0
0
0
0
0
0
0
0
0
0
0
0
0
0
0
0
0
0
0
0
0
0
0
0
0
0
0
0
0
0
0
0
0
0
0
0
0
0
0
0
0
0
0
0
0
0
0
0
0
0
0
0
0
0
0
0
0
0
0
0
0
0
0
0
0
0
0
0
0
0
0
0
0
0
0
0
0
0
0
0
0
0
0
0
0
0
0
0
0
0
0
0
0
0
0
0
0
0
0
0
0
0
0
0
0
0
0
0
0
0
0
0
0
0
0
0
0
0
0
0
0
0
0
0
0
0
0
0
0
0
0
0
0
0
0
0
0
0
0
0
0
0
0
0
0
0
0
0
0
0
0
0
0
0
0
0
0
0
0
0
0
0
0
0
0
0
0
0
0
0
0
0
0
0
0
0
0
0
0
0
0
0
0
0
0
0
0
0
0
0
0
0
0
0
0
0
0
0
0
0
0
0
0
0
0
0
0
0
0
0
0
0
0
0
0
0
0
0
0
0
0
0
0
0
0
0
0
0
0
0
0
0
0
0
0
0
0
0
0
0
0
0
0
0
0
0
0
0
0
0
0
0
0
0
0
0
0
0
0
0
0
0
0
0
0
0
0
0
0
0
0
0
0
0
0
0
0
0
0
0
0
0
0
0
0
0
0
0
0
0
0
0
0
0
0
0
0
0
0
0
0
0
0
0
0
0
0
0
0
0
0
0
0
0
0
0
0
0
0
0
0
0
0
0
0
0
0
0
0
0
0
0
0
0
0
0
0
0
0
0
0
0
0
0
0
0
0
0
0
0
0
0
0
0
0
0
0
0
0
0
0
0
0
0
0
0
0
0
0
0
0
0
0
0
0
0
0
0
0
0
0
0
0
0
0
0
0
0
0
0
0
0
0
0
0
0
0
0
0
0
0
0
0
0
0
0
0
0
0
0
0
0
0
0
0
0
0
0
0
0
0
0
0
0
0
0
0
0
0
0
0
0
0
0
0
0
0
0
0
0
0
0
0
0
0
0
0
0
0
0
0
0
0
0
0
0
0
0
0
0
0
0
0
0
0
0
0
0
0
0
0
0
0
0
0
0
0
0
0
0
0
0
0
0
0
0
0
0
0
0
0
0
0
0
0
0
0
0
0
0
0
0
0
0
0
0
0
0
0
0
0
0
0
0
0
0
0
0
0
0
0
0
0
0
0
0
0
0
0
0
0
0
0
0
0
0
0
0
0
0
0
0
0
0
0
0
0
0
0
0
0
0
0
0
0
0
0
0
0
0
0
0
0
0
0
0
0
0
0
0
0
0
0
0
0
0
0
0
0
0
0
0
0
0
0
0
0
0
0
0
0
0
0
0
0
0
0
0
0
0
0
0
0
0
0
0
0
0
0
0
0
0
0
0
0
0
0
0
0
0
0
0
0
0
0
0
0
0
0
0
0
0
0
0
0
0
0
0
0
0
0
0
0
0
0
0
0
0
0
0
0
0
0
0
0
0
0
0
0
0
0
0
0
0
0
0
0
0
0
0
0
0
0
0
0
0
0
0
0
0
0
0
0
0
0
0
0
0
0
0
0
0
0
0
0
0
0
0
0
0
0
0
0
0
0
0
0
0
0
0
0
0
0
0
0
0
0
0
0
0
0
0
0
0
0
0
0
0
0
0
0
0
0
0
0
0
0
0
0
0
0
0
0
0
0
0
0
0
0
0
0
0
0
0
0
0
0
0
0
0
0
0
0
0
0
0
0
0
0
0
0
0
0
0
0
0
0
0
0
0
0
0
0
0
0
0
0
0
0
0
0
0
0
0
0
0
0
0
0
0
0
0
0
0
0
0
0
0
0
0
0
0
0
0
0
0
0
0
0
0
0
0
0
0
0
0
0
0
0
0
0
0
0
0
0
0
0
0
0
0
0
0
0
0
0
0
0
0
0
0
0
0
0
0
0
0
0
0
0
0
0
0
0
0
0
0
0
0
0
0
0
0
0
0
0
0
0
0
0
0
0
0
0
0
0
0
0
0
0
0
0
0
0
0
0
0
0
0
0
0
0
0
0
0
0
0
0
0
0
0
0
0
0
0
0
0
0
0
0
0
0
0
0
0
0
0
0
0
0
0
0
0
0
0
0
0
0
0
0
0
0
0
0
0
0
0
0
0
0
0
0
0
0
0
0
0
0
0
0
0
0
0
0
0
0
0
0
0
0
0
0
0
0
0
0
0
0
0
0
0
0
0
0
0
0
0
0
0
0
0
0
0
0
0
0
0
0
0
0
0
0
0
0
0
0
0
0
0
0
0
0
0
0
0
0
0
0
0
0
0
0
0
0
0
0
0
0
0
0
0
0
0
0
0
0
0
0
0
0
0
0
0
0
0
0
0
0
0
0
0
0
0
0
0
0
0
0
0
0
0
0
0
0
0
0
0
0
0
0
0
0
0
0
0
0
0
0
0
0
0
0
0
0
0
0
0
0
0
0
0
0
0
0
0
0
0
0
0
0
0
0
0
0
0
0
0
0
0
0
0
0
0
0
0
0
0
0
0
0
0
0
0
0
0
0
0
0
0
0
0
0
0
0
0
0
0
0
0
0
0
0
0
0
0
0
0
0
0
0
0
0
0
0
0
0
0
0
0
0
0
0
0
0
0
0
0
0
0
0
0
0
0
0
0
0
0
0
0
0
0
0
0
0
0
0
0
0
0
0
0
0
0
0
0
0
0
0
0
0
0
0
0
0
0
0
0
0
0
0
0
0
0
0
0
0
0
0
0
0
0
0
0
0
0
0
0
0
0
0
0
0
0
0
0
0
0
0
0
0
0
0
0
0
0
0
0
0
0
0
0
0
0
0
0
0
0
0
0
0
0
0
0
0
0
0
0
0
0
0
0
0
0
0
0
0
0
0
0
0
0
0
0
0
0
0
0
0
0
0
0
0
0
0
0
0
0
0
0
0
0
0
0
0
0
0
0
0
0
0
0
0
0
0
0
0
0
0
0
0
0
0
0
0
0
0
0
0
0
0
0
0
0
0
0
0
0
0
0
0
0
0
0
0
0
0
0
0
0
0
0
0
0
0
0
0
0
0
0
0
0
0
0
0
0
0
0
0
0
0
0
0
0
0
0
0
0
0
0
0
0
0
0
0
0
0
0
0
0
0
0
0
0
0
0
0
0
0
0
0
0
0
0
0
0
0
0
0
0
0
0
0
0
0
0
0
0
0
0
0
0
0
0
0
0
0
0
0
0
0
0
0
0
0
0
0
0
0
0
0
0
0
0
0
0
0
0
0
0
0
0
0
0
0
0
0
0
0
0
0
0
0
0
0
0
0
0
0
0
0
0
0
0
0
0
0
0
0
0
0
0
0
0
0
0
0
0
0
0
0
0
0
0
0
0
0
0
0
0
0
0
0
0
0
0
0
0
0
0
0
0
0
0
0
0
0
0
0
0
0
0
0
0
0
0
0
0
0
0
0
0
0
0
0
0
0
0
0
0
0
0
0
0
0
0
0
0
0
0
0
0
0
0
0
0
0
0
0
0
0
0
0
0
0
0
0
0
0
0
0
0
0
0
0
0
0
0
0
0
0
0
0
0
0
0
0
0
0
0
0
0
0
0
0
0
0
0
0
0
0
0
0
0
0
0
0
0
0
0
0
0
0
0
0
0
0
0
0
0
0
0
0
0
0
0
0
0
0
0
0
0
0
0
0
0
0
0
0
0
0
0
0
0
0
0
0
0
0
0
0
0
0
0
0
0
0
0
0
0
0
0
0
0
0
0
0
0
0
0
0
0
0
0
0
0
0
0
0
0
0
0
0
0
0
0
0
0
0
0
0
0
0
0
0
0
0
0
0
0
0
0
0
0
0
0
0
0
0
0
0
0
0
0
0
0
0
0
0
0
0
0
0
0
0
0
0
0
0
0
0
0
0
0
0
0
0
0
0
0
0
0
0
0
0
0
0
0
0
0
0
0
0
0
0
0
0
0
0
0
0
0
0
0
0
0
0
0
0
0
0
0
0
0
0
0
0
0
0
0
0
0
0
0
0
0
0
0
0
0
0
0
0
0
0
0
0
0
0
0
0
0
0
0
0
0
0
0
0
0
0
0
0
0
0
0
0
0
0
0
0
0
0
0
0
0
0
0
0
0
0
0
0
0
0
0
0
0
0
0
0
0
0
0
0
0
0
0
0
0
0
0
0
0
0
0
0
0
0
0
0
0
0
0
0
0
0
0
0
0
0
0
0
0
0
0
0
0
0
0
0
0
0
0
0
0
0
0
0
0
0
0
0
0
0
0
0
0
0
0
0
0
0
0
0
0
0
0
0
0
0
0
0
0
0
0
0
0
0
0
0
0
0
0
0
0
0
0
0
0
0
0
0
0
0
0
0
0
0
0
0
0
0
0
0
0
0
0
0
0
0
0
0
0
0
0
0
0
0
0
0
0
0
0
0
0
0
0
0
0
0
0
0
0
0
0
0
0
0
0
0
0
0
0
0
0
0
0
0
0
0
0
0
0
0
0
0
0
0
0
0
0
0
0
0
0
0
0
0
0
0
0
0
0
0
0
0
0
0
0
0
0
0
0
0
0
0
0
0
0
0
0
0
0
0
0
0
0
0
0
0
0
0
0
0
0
0
0
0
0
0
0
0
0
0
0
0
0
0
0
0
0
0
0
0
0
0
0
0
0
0
0
0
0
0
0
0
0
0
0
0
0
0
0
0
0
0
0
0
0
0
0
0
0
0
0
0
0
0
0
0
0
0
0
0
0
0
0
0
0
0
0
0
0
0
0
0
0
0
0
0
0
0
0
0
0
0
0
0
0
0
0
0
0
0
0
0
0
0
0
0
0
0
0
0
0
0
0
0
0
0
0
0
0
0
0
0
0
0
0
0
0
0
0
0
0
0
0
0
0
0
0
0
0
0
0
0
0
0
0
0
0
0
0
0
0
0
0
0
0
0
0
0
0
0
0
0
0
0
0
0
0
0
0
0
0
0
0
0
0
0
0
0
0
0
0
0
0
0
0
0
0
0
0
0
0
0
0
0
0
0
0
0
0
0
0
0
0
0
0
0
0
0
0
0
0
0
0
0
0
0
0
0
0
0
0
0
0
0
0
0
0
0
0
0
0
0
0
0
0
0
0
0
0
0
0
0
0
0
0
0
0
0
0
0
0
0
0
0
0
0
0
0
0
0
0
0
0
0
0
0
0
0
0
0
0
0
0
0
0
0
0
0
0
0
0
0
0
0
0
0
0
0
0
0
0
0
0
0
0
0
0
0
0
0
0
0
0
0
0
0
0
0
0
0
0
0
0
0
0
0
0
0
0
0
0
0
0
0
0
0
0
0
0
0
0
0
0
0
0
0
0
0
0
0
0
0
0
0
0
0
0
0
0
0
0
0
0
0
0
0
0
0
0
0
0
0
0
0
0
0
0
0
0
0
0
0
0
0
0
0
0
0
0
0
0
0
0
0
0
0
0
0
0
0
0
0
0
0
0
0
0
0
0
0
0
0
0
0
0
0
0
0
0
0
0
0
0
0
0
0
0
0
0
0
0
0
0
0
0
0
0
0
0
0
0
0
0
0
0
0
0
0
0
0
0
0
0
0
0
0
0
0
0
0
0
0
0
0
0
0
0
0
0
0
0
0
0
0
0
0
0
0
0
0
0
0
0
0
0
0
0
0
0
0
0
0
0
0
0
0
0
0
0
0
0
0
0
0
0
0
0
0
0
0
0
0
0
0
0
0
0
0
0
0
0
0
0
0
0
0
0
0
0
0
0
0
0
0
0
0
0
0
0
0
0
0
0
0
0
0
0
0
0
0
0
0
0
0
0
0
0
0
0
0
0
0
0
0
0
0
0
0
0
0
0
0
0
0
0
0
0
0
0
0
0
0
0
0
0
0
0
0
0
0
0
0
0
0
0
0
0
0
0
0
0
0
0
0
0
0
0
0
0
0
0
0
0
0
0
0
0
0
0
0
0
0
0
0
0
0
0
0
0
0
0
0
0
0
0
0
0
0
0
0
0
0
0
0
0
0
0
0
0
0
0
0
0
0
0
0
0
0
0
0
0
0
0
0
0
0
0
0
0
0
0
0
0
0
0
0
0
0
0
0
0
0
0
0
0
0
0
0
0
0
0
0
0
0
0
0
0
0
0
0
0
0
0
0
0
0
0
0
0
0
0
0
0
0
0
0
0
0
0
0
0
0
0
0
0
0
0
0
0
0
0
0
0
0
0
0
0
0
0
0
0
0
0
0
0
0
0
0
0
0
0
0
0
0
0
0
0
0
0
0
0
0
0
0
0
0
0
0
0
0
0
0
0
0
0
0
0
0
0
0
0
0
0
0
0
0
0
0
0
0
0
0
0
0
0
0
0
0
0
0
0
0
0
0
0
0
0
0
0
0
0
0
0
0
0
0
0
0
0
0
0
0
0
0
0
0
0
0
0
0
0
0
0
0
0
0
0
0
0
0
0
0
0
0
0
0
0
0
0
0
0
0
0
0
0
0
0
0
0
0
0
0
0
0
0
0
0
0
0
0
0
0
0
0
0
0
0
0
0
0
0
0
0
0
0
0
0
0
0
0
0
0
0
0
0
0
0
0
0
0
0
0
0
0
0
0
0
0
0
0
0
0
0
0
0
0
0
0
0
0
0
0
0
0
0
0
0
0
0
0
0
0
0
0
0
0
0
0
0
0
0
0
0
0
0
0
0
0
0
0
0
0
0
0
0
0
0
0
0
0
0
0
0
0
0
0
0
0
0
0
0
0
0
0
0
0
0
0
0
0
0
0
0
0
0
0
0
0
0
0
0
0
0
0
0
0
0
0
0
0
0
0
0
0
0
0
0
0
0
0
0
0
0
0
0
0
0
0
0
0
0
0
0
0
0
0
0
0
0
0
0
0
0
0
0
0
0
0
0
0
0
0
0
0
0
0
0
0
0
0
0
0
0
0
0
0
0
0
0
0
0
0
0
0
0
0
0
0
0
0
0
0
0
0
0
0
0
0
0
0
0
0
0
0
0
0
0
0
0
0
0
0
0
0
0
0
0
0
0
0
0
0
0
0
0
0
0
0
0
0
0
0
0
0
0
0
0
0
0
0
0
0
0
0
0
0
0
0
0
0
0
0
0
0
0
0
0
0
0
0
0
0
0
0
0
0
0
0
0
0
0
0
0
0
0
0
0
0
0
0
0
0
0
0
0
0
0
0
0
0
0
0
0
0
0
0
0
0
0
0
0